(G-CODE GENERATED BY FLATCAM v8.994 - www.flatcam.org - Version Date: 2020/11/7)

(Name: scheme-PTH.drl_cnc)
(Type: G-code from Geometry)
(Units: MM)

(Created on Thursday, 27 February 2025 at 15:16)


/TOOLS DIAMETER = ДИАМЕТР ИНСТРУМЕНТА: 
/Tool: 1 -> Dia: 1.0007599999999999

/FEEDRATE Z = ПОДАЧА по Z: 
/Tool = Инструмент: 1 -> Feedrate = подача: 1000.0

/FEEDRATE RAPIDS = БЫСТРЫЕ ПОДАЧИ: 
/Tool = Инструмент: 1 -> Feedrate Rapids = быстрая подача: 1500

/Z_CUT = ПРОХОДЫ по Z: 
/Tool = Инструмент: 1 -> Z_Cut: -1.7

/Tools Offset: 
/Tool: 1 -> Offset Z: 0.0

/Z_MOVE: 
/Tool: 1 -> Z_Move: 2

/Z Toolchange: 15 mm
/X,Y Toolchange: 0.0000, 0.0000 mm
/Z Start: None mm
/Z End: 0.5 mm
/X,Y End: None mm
(Steps per circle: 64)
/Steps per circle: 64
/Preprocessor Excellon: Charly4U

/X range:    2.7859 ...   43.2862  mm
/Y range:    9.1108 ...   93.5506  mm

/Скорость шпинделя: 5000 RPM
G71 / измерения в мм
G90 / программирование в абсолютных координатах

F1000
/Tool switching while working is not supported! = Смена инструмента в процессе работы не поддерживается!
F1000
M3 S5000
G0 X3.2863 Y45.1712
G1 Z-1.7000 F1000
G1 Z0
G0 Z2.0000
G0 X3.2863 Y42.6312
G1 Z-1.7000 F1000
G1 Z0
G0 Z2.0000
G0 X3.2863 Y40.0912
G1 Z-1.7000 F1000
G1 Z0
G0 Z2.0000
G0 X3.2863 Y37.5512
G1 Z-1.7000 F1000
G1 Z0
G0 Z2.0000
G0 X3.2863 Y35.0112
G1 Z-1.7000 F1000
G1 Z0
G0 Z2.0000
G0 X3.2863 Y32.4712
G1 Z-1.7000 F1000
G1 Z0
G0 Z2.0000
G0 X3.2863 Y29.9312
G1 Z-1.7000 F1000
G1 Z0
G0 Z2.0000
G0 X3.2863 Y27.3912
G1 Z-1.7000 F1000
G1 Z0
G0 Z2.0000
G0 X3.2863 Y24.8512
G1 Z-1.7000 F1000
G1 Z0
G0 Z2.0000
G0 X3.2863 Y22.3112
G1 Z-1.7000 F1000
G1 Z0
G0 Z2.0000
G0 X3.2863 Y19.7712
G1 Z-1.7000 F1000
G1 Z0
G0 Z2.0000
G0 X3.2863 Y17.2312
G1 Z-1.7000 F1000
G1 Z0
G0 Z2.0000
G0 X3.2863 Y14.6912
G1 Z-1.7000 F1000
G1 Z0
G0 Z2.0000
G0 X3.2863 Y12.1512
G1 Z-1.7000 F1000
G1 Z0
G0 Z2.0000
G0 X3.2863 Y9.6112
G1 Z-1.7000 F1000
G1 Z0
G0 Z2.0000
G0 X18.5263 Y9.6112
G1 Z-1.7000 F1000
G1 Z0
G0 Z2.0000
G0 X18.5263 Y12.1512
G1 Z-1.7000 F1000
G1 Z0
G0 Z2.0000
G0 X18.5263 Y14.6912
G1 Z-1.7000 F1000
G1 Z0
G0 Z2.0000
G0 X18.5263 Y17.2312
G1 Z-1.7000 F1000
G1 Z0
G0 Z2.0000
G0 X18.5263 Y19.7712
G1 Z-1.7000 F1000
G1 Z0
G0 Z2.0000
G0 X18.5263 Y22.3112
G1 Z-1.7000 F1000
G1 Z0
G0 Z2.0000
G0 X18.5263 Y24.8512
G1 Z-1.7000 F1000
G1 Z0
G0 Z2.0000
G0 X18.5263 Y27.3912
G1 Z-1.7000 F1000
G1 Z0
G0 Z2.0000
G0 X18.5263 Y29.9312
G1 Z-1.7000 F1000
G1 Z0
G0 Z2.0000
G0 X18.5263 Y32.4712
G1 Z-1.7000 F1000
G1 Z0
G0 Z2.0000
G0 X18.5263 Y35.0112
G1 Z-1.7000 F1000
G1 Z0
G0 Z2.0000
G0 X18.5263 Y37.5512
G1 Z-1.7000 F1000
G1 Z0
G0 Z2.0000
G0 X18.5263 Y40.0912
G1 Z-1.7000 F1000
G1 Z0
G0 Z2.0000
G0 X18.5263 Y42.6312
G1 Z-1.7000 F1000
G1 Z0
G0 Z2.0000
G0 X18.5263 Y45.1712
G1 Z-1.7000 F1000
G1 Z0
G0 Z2.0000
G0 X33.2049 Y39.0244
G1 Z-1.7000 F1000
G1 Z0
G0 Z2.0000
G0 X35.7449 Y39.0244
G1 Z-1.7000 F1000
G1 Z0
G0 Z2.0000
G0 X38.2849 Y39.0244
G1 Z-1.7000 F1000
G1 Z0
G0 Z2.0000
G0 X40.8249 Y39.0244
G1 Z-1.7000 F1000
G1 Z0
G0 Z2.0000
G0 X35.1658 Y45.0239
G1 Z-1.7000 F1000
G1 Z0
G0 Z2.0000
G0 X37.7058 Y45.0239
G1 Z-1.7000 F1000
G1 Z0
G0 Z2.0000
G0 X40.2458 Y45.0239
G1 Z-1.7000 F1000
G1 Z0
G0 Z2.0000
G0 X42.7858 Y45.0239
G1 Z-1.7000 F1000
G1 Z0
G0 Z2.0000
G0 X41.5260 Y51.0259
G1 Z-1.7000 F1000
G1 Z0
G0 Z2.0000
G0 X38.9860 Y51.0259
G1 Z-1.7000 F1000
G1 Z0
G0 Z2.0000
G0 X36.4460 Y51.0259
G1 Z-1.7000 F1000
G1 Z0
G0 Z2.0000
G0 X29.4610 Y66.0500
G1 Z-1.7000 F1000
G1 Z0
G0 Z2.0000
G0 X32.0010 Y66.0500
G1 Z-1.7000 F1000
G1 Z0
G0 Z2.0000
G0 X34.5410 Y66.0500
G1 Z-1.7000 F1000
G1 Z0
G0 Z2.0000
G0 X36.5654 Y76.5504
G1 Z-1.7000 F1000
G1 Z0
G0 Z2.0000
G0 X34.0254 Y76.5504
G1 Z-1.7000 F1000
G1 Z0
G0 Z2.0000
G0 X31.4854 Y76.5504
G1 Z-1.7000 F1000
G1 Z0
G0 Z2.0000
G0 X28.9454 Y76.5504
G1 Z-1.7000 F1000
G1 Z0
G0 Z2.0000
G0 X12.5243 Y93.0502
G1 Z-1.7000 F1000
G1 Z0
G0 Z2.0000
G0 X12.5243 Y90.5102
G1 Z-1.7000 F1000
G1 Z0
G0 Z2.0000
G0 X12.5243 Y87.9702
G1 Z-1.7000 F1000
G1 Z0
G0 Z2.0000
G0 X4.0254 Y75.5750
G1 Z-1.7000 F1000
G1 Z0
G0 Z2.0000
G0 X4.0254 Y73.0350
G1 Z-1.7000 F1000
G1 Z0
G0 Z2.0000
G0 X4.0254 Y70.4950
G1 Z-1.7000 F1000
G1 Z0
G0 Z2.0000
G0 X17.5255 Y61.1046
G1 Z-1.7000 F1000
G1 Z0
G0 Z2.0000
G0 X17.5255 Y58.5646
G1 Z-1.7000 F1000
G1 Z0
G0 Z2.0000
G0 X17.5255 Y56.0246
G1 Z-1.7000 F1000
G1 Z0
G0 Z2.0000
M5 / выключение шпинделя
G0 Z0.50 X0 Y0


