(G-CODE GENERATED BY FLATCAM v8.994 - www.flatcam.org - Version Date: 2020/11/7)

(Name: scheme-F_Cu.gbr_iso_combined_cnc)
(Type: G-code from Geometry)
(Units: MM)

(Created on Thursday, 27 February 2025 at 15:14)

/TOOL DIAMETER = ДИАМЕТР ИНСТРУМЕНТА: 0.2 mm
/Feedrate_XY = подача XY: 700.0 mm/min
/Feedrate_Z = подача Z: 1000.0 mm/min
/Feedrate rapids = быстрая подача1500.0 mm/min

/Z_Cut = проходы по Z: 0.0 mm
/Z_Move: 2.0 mm
/Z Start: None mm
/Z End: 15.0 mm
/X,Y End: None mm
(Steps per circle: 64)
/Steps per circle: 64
/Preprocessor Geometry: Charly4U

/X range:   -0.0451 ...   44.4550  mm
/Y range:    5.5899 ...   94.7200  mm

/Скорость шпинделя: 20000.0 RPM
G71 / измерения в мм
G90 / программирование в абсолютных координатах

F700
/Tool switching while working is not supported! = Смена инструмента в процессе работы не поддерживается!
M3 S20000.0
F700
G0 X1.0052 Y8.8921
F1000
G1 Z0.0000 F1000
F700
G1 X1.0077 Y8.8490
G1 X1.0137 Y8.8062
G1 X1.0160 Y8.7927
G1 X1.0190 Y8.7793
G1 X1.0298 Y8.7374
G1 X1.0342 Y8.7244
G1 X1.0490 Y8.6838
G1 X1.0672 Y8.6446
G1 X1.0734 Y8.6324
G1 X1.0801 Y8.6204
G1 X1.1026 Y8.5835
G1 X1.1281 Y8.5486
G1 X1.1366 Y8.5378
G1 X1.1455 Y8.5274
G1 X1.1748 Y8.4956
G1 X3.3755 Y6.2950
G1 X3.4024 Y6.2705
G1 X3.4128 Y6.2616
G1 X3.4236 Y6.2531
G1 X3.4529 Y6.2315
G1 X3.4643 Y6.2239
G1 X3.4954 Y6.2051
G1 X3.5074 Y6.1984
G1 X3.5196 Y6.1922
G1 X3.5588 Y6.1740
G1 X3.5994 Y6.1592
G1 X3.6124 Y6.1548
G1 X3.6543 Y6.1440
G1 X3.6677 Y6.1410
G1 X3.6812 Y6.1387
G1 X3.7172 Y6.1334
G1 X3.7377 Y6.1316
G1 X3.7808 Y6.1299
G1 X24.2100 Y6.1299
G1 X24.2238 Y6.1302
G1 X24.2669 Y6.1327
G1 X24.3097 Y6.1387
G1 X24.3232 Y6.1410
G1 X24.3366 Y6.1440
G1 X24.3784 Y6.1548
G1 X24.4192 Y6.1691
G1 X24.4383 Y6.1767
G1 X24.4712 Y6.1922
G1 X24.4835 Y6.1984
G1 X24.4955 Y6.2051
G1 X24.5266 Y6.2239
G1 X24.5380 Y6.2315
G1 X24.5672 Y6.2531
G1 X24.5833 Y6.2660
G1 X24.6103 Y6.2903
G1 X24.6202 Y6.2998
G1 X41.2352 Y22.9148
G1 X41.2645 Y22.9466
G1 X41.2735 Y22.9570
G1 X41.2819 Y22.9678
G1 X41.3035 Y22.9970
G1 X41.3111 Y23.0085
G1 X41.3299 Y23.0396
G1 X41.3367 Y23.0515
G1 X41.3428 Y23.0638
G1 X41.3610 Y23.1030
G1 X41.3759 Y23.1436
G1 X41.3821 Y23.1632
G1 X41.3910 Y23.1984
G1 X41.3953 Y23.2186
G1 X41.4016 Y23.2613
G1 X41.4034 Y23.2819
G1 X41.4052 Y23.3250
G1 X41.4052 Y37.8950
G1 X41.6750 Y37.8950
G1 X41.6888 Y37.8953
G1 X41.7025 Y37.8964
G1 X41.7161 Y37.8980
G1 X41.7364 Y37.9018
G1 X41.7563 Y37.9071
G1 X41.7693 Y37.9114
G1 X41.7822 Y37.9163
G1 X41.7947 Y37.9219
G1 X41.8130 Y37.9314
G1 X41.8248 Y37.9385
G1 X41.8418 Y37.9501
G1 X41.8526 Y37.9586
G1 X41.8681 Y37.9722
G1 X41.8778 Y37.9819
G1 X41.8915 Y37.9974
G1 X41.9039 Y38.0138
G1 X41.9116 Y38.0252
G1 X41.9186 Y38.0370
G1 X41.9251 Y38.0491
G1 X41.9337 Y38.0679
G1 X41.9386 Y38.0807
G1 X41.9430 Y38.0937
G1 X41.9482 Y38.1137
G1 X41.9509 Y38.1271
G1 X41.9529 Y38.1407
G1 X41.9547 Y38.1613
G1 X41.9550 Y38.1750
G1 X41.9549 Y39.8819
G1 X41.9537 Y39.9025
G1 X41.9520 Y39.9161
G1 X41.9496 Y39.9296
G1 X41.9466 Y39.9430
G1 X41.9430 Y39.9563
G1 X41.9363 Y39.9758
G1 X41.9281 Y39.9947
G1 X41.9220 Y40.0070
G1 X41.9152 Y40.0190
G1 X41.9078 Y40.0306
G1 X41.8999 Y40.0418
G1 X41.8915 Y40.0526
G1 X41.8830 Y40.0625
G1 X43.2000 Y41.3797
G1 X43.2290 Y41.4117
G1 X43.2419 Y41.4278
G1 X43.2674 Y41.4627
G1 X43.2899 Y41.4996
G1 X43.2998 Y41.5176
G1 X43.3183 Y41.5567
G1 X43.3259 Y41.5758
G1 X43.3402 Y41.6166
G1 X43.3438 Y41.6298
G1 X43.3526 Y41.6651
G1 X43.3564 Y41.6854
G1 X43.3624 Y41.7281
G1 X43.3634 Y41.7419
G1 X43.3652 Y41.7850
G1 X43.3652 Y43.8950
G1 X43.6350 Y43.8950
G1 X43.6556 Y43.8958
G1 X43.6761 Y43.8980
G1 X43.6896 Y43.9004
G1 X43.7030 Y43.9034
G1 X43.7163 Y43.9071
G1 X43.7293 Y43.9114
G1 X43.7485 Y43.9190
G1 X43.7609 Y43.9249
G1 X43.7790 Y43.9348
G1 X43.7906 Y43.9422
G1 X43.8073 Y43.9543
G1 X43.8230 Y43.9675
G1 X43.8330 Y43.9770
G1 X43.8470 Y43.9921
G1 X43.8599 Y44.0082
G1 X43.8716 Y44.0252
G1 X43.8786 Y44.0370
G1 X43.8881 Y44.0553
G1 X43.8963 Y44.0742
G1 X43.9030 Y44.0937
G1 X43.9066 Y44.1070
G1 X43.9109 Y44.1271
G1 X43.9129 Y44.1407
G1 X43.9147 Y44.1613
G1 X43.9150 Y44.1750
G1 X43.9149 Y45.8819
G1 X43.9143 Y45.8956
G1 X43.9129 Y45.9093
G1 X43.9096 Y45.9296
G1 X43.9066 Y45.9430
G1 X43.9030 Y45.9563
G1 X43.8963 Y45.9758
G1 X43.8881 Y45.9947
G1 X43.8820 Y46.0070
G1 X43.8752 Y46.0190
G1 X43.8639 Y46.0362
G1 X43.8557 Y46.0473
G1 X43.8470 Y46.0579
G1 X43.8378 Y46.0681
G1 X43.8281 Y46.0778
G1 X43.8179 Y46.0870
G1 X43.8073 Y46.0957
G1 X43.7906 Y46.1078
G1 X43.7790 Y46.1152
G1 X43.7670 Y46.1220
G1 X43.7547 Y46.1281
G1 X43.7422 Y46.1337
G1 X43.7293 Y46.1386
G1 X43.7163 Y46.1430
G1 X43.7030 Y46.1466
G1 X43.6896 Y46.1496
G1 X43.6761 Y46.1520
G1 X43.6625 Y46.1537
G1 X43.6488 Y46.1547
G1 X43.6350 Y46.1550
G1 X41.9281 Y46.1549
G1 X41.9144 Y46.1543
G1 X41.8939 Y46.1520
G1 X41.8804 Y46.1496
G1 X41.8603 Y46.1449
G1 X41.8407 Y46.1386
G1 X41.8279 Y46.1337
G1 X41.8153 Y46.1281
G1 X41.7970 Y46.1186
G1 X41.7852 Y46.1116
G1 X41.7738 Y46.1039
G1 X41.7574 Y46.0915
G1 X41.7470 Y46.0825
G1 X41.7322 Y46.0681
G1 X41.7230 Y46.0579
G1 X41.7143 Y46.0473
G1 X41.7022 Y46.0306
G1 X41.6914 Y46.0130
G1 X41.6819 Y45.9947
G1 X41.6738 Y45.9758
G1 X41.6671 Y45.9563
G1 X41.6618 Y45.9364
G1 X41.6580 Y45.9161
G1 X41.6558 Y45.8956
G1 X41.6551 Y45.8819
G1 X41.6550 Y44.1750
G1 X41.6558 Y44.1544
G1 X41.6571 Y44.1407
G1 X41.6604 Y44.1204
G1 X41.6634 Y44.1070
G1 X41.6691 Y44.0872
G1 X41.6738 Y44.0742
G1 X41.6790 Y44.0615
G1 X41.6881 Y44.0430
G1 X41.6985 Y44.0252
G1 X41.7101 Y44.0082
G1 X41.7230 Y43.9921
G1 X41.7322 Y43.9819
G1 X41.7470 Y43.9675
G1 X41.7627 Y43.9543
G1 X41.7795 Y43.9422
G1 X41.7911 Y43.9348
G1 X41.8091 Y43.9249
G1 X41.8215 Y43.9190
G1 X41.8407 Y43.9114
G1 X41.8537 Y43.9071
G1 X41.8670 Y43.9034
G1 X41.8871 Y43.8991
G1 X41.9007 Y43.8971
G1 X41.9144 Y43.8958
G1 X41.9350 Y43.8950
G1 X42.2049 Y43.8950
G1 X42.2049 Y42.0253
G1 X40.4148 Y40.2352
G1 X40.3855 Y40.2035
G1 X40.3766 Y40.1931
G1 X40.3681 Y40.1822
G1 X40.3480 Y40.1550
G1 X39.9681 Y40.1549
G1 X39.9544 Y40.1543
G1 X39.9407 Y40.1529
G1 X39.9204 Y40.1496
G1 X39.9003 Y40.1449
G1 X39.8807 Y40.1386
G1 X39.8615 Y40.1310
G1 X39.8430 Y40.1220
G1 X39.8311 Y40.1152
G1 X39.8138 Y40.1039
G1 X39.8027 Y40.0957
G1 X39.7870 Y40.0825
G1 X39.7722 Y40.0681
G1 X39.7586 Y40.0526
G1 X39.7501 Y40.0418
G1 X39.7385 Y40.0248
G1 X39.7281 Y40.0070
G1 X39.7190 Y39.9885
G1 X39.7114 Y39.9693
G1 X39.7052 Y39.9497
G1 X39.7004 Y39.9296
G1 X39.6980 Y39.9161
G1 X39.6958 Y39.8956
G1 X39.6950 Y39.8750
G1 X39.6950 Y38.1750
G1 X39.6958 Y38.1544
G1 X39.6971 Y38.1407
G1 X39.7004 Y38.1204
G1 X39.7052 Y38.1003
G1 X39.7091 Y38.0872
G1 X39.7138 Y38.0742
G1 X39.7190 Y38.0615
G1 X39.7281 Y38.0430
G1 X39.7385 Y38.0252
G1 X39.7461 Y38.0138
G1 X39.7543 Y38.0027
G1 X39.7675 Y37.9870
G1 X39.7770 Y37.9770
G1 X39.7921 Y37.9630
G1 X39.8027 Y37.9543
G1 X39.8195 Y37.9422
G1 X39.8370 Y37.9314
G1 X39.8491 Y37.9249
G1 X39.8615 Y37.9190
G1 X39.8742 Y37.9138
G1 X39.8937 Y37.9071
G1 X39.9070 Y37.9034
G1 X39.9204 Y37.9004
G1 X39.9407 Y37.8971
G1 X39.9613 Y37.8953
G1 X39.9750 Y37.8950
G1 X40.2449 Y37.8950
G1 X40.2449 Y23.5653
G1 X23.9697 Y7.2902
G1 X4.0212 Y7.2902
G1 X2.1652 Y9.1462
G1 X2.1652 Y27.9897
G1 X3.0516 Y28.8761
G1 X3.0676 Y28.8722
G1 X3.0879 Y28.8684
G1 X3.1723 Y28.8560
G1 X3.1929 Y28.8542
G1 X3.2713 Y28.8503
G1 X3.2919 Y28.8501
G1 X3.3772 Y28.8542
G1 X3.3909 Y28.8552
G1 X3.4045 Y28.8569
G1 X3.4822 Y28.8684
G1 X3.4957 Y28.8708
G1 X3.5091 Y28.8738
G1 X3.5853 Y28.8929
G1 X3.5985 Y28.8965
G1 X3.6116 Y28.9008
G1 X3.6855 Y28.9273
G1 X3.6983 Y28.9322
G1 X3.7109 Y28.9378
G1 X3.7818 Y28.9714
G1 X3.7941 Y28.9775
G1 X3.8061 Y28.9843
G1 X3.8734 Y29.0247
G1 X3.8850 Y29.0320
G1 X3.8963 Y29.0399
G1 X3.9593 Y29.0867
G1 X3.9754 Y29.0996
G1 X4.0387 Y29.1569
G1 X4.0487 Y29.1663
G1 X4.0582 Y29.1763
G1 X4.1109 Y29.2345
G1 X4.1199 Y29.2449
G1 X4.1283 Y29.2557
G1 X4.1751 Y29.3188
G1 X4.1830 Y29.3300
G1 X4.1904 Y29.3416
G1 X4.2307 Y29.4089
G1 X4.2375 Y29.4209
G1 X4.2437 Y29.4332
G1 X4.2772 Y29.5042
G1 X4.2828 Y29.5167
G1 X4.2877 Y29.5295
G1 X4.3142 Y29.6035
G1 X4.3185 Y29.6165
G1 X4.3222 Y29.6298
G1 X4.3412 Y29.7059
G1 X4.3443 Y29.7193
G1 X4.3466 Y29.7329
G1 X4.3581 Y29.8105
G1 X4.3598 Y29.8242
G1 X4.3608 Y29.8379
G1 X4.3647 Y29.9163
G1 X4.3650 Y29.9300
G1 X4.3647 Y29.9438
G1 X4.3608 Y30.0222
G1 X4.3598 Y30.0359
G1 X4.3581 Y30.0495
G1 X4.3466 Y30.1272
G1 X4.3443 Y30.1407
G1 X4.3412 Y30.1541
G1 X4.3222 Y30.2303
G1 X4.3185 Y30.2435
G1 X4.3142 Y30.2566
G1 X4.2854 Y30.3369
G1 X4.2772 Y30.3559
G1 X4.2437 Y30.4268
G1 X4.2375 Y30.4391
G1 X4.2307 Y30.4511
G1 X4.1904 Y30.5184
G1 X4.1830 Y30.5300
G1 X4.1751 Y30.5413
G1 X4.1283 Y30.6043
G1 X4.1199 Y30.6152
G1 X4.1109 Y30.6256
G1 X4.0582 Y30.6837
G1 X4.0487 Y30.6937
G1 X4.0387 Y30.7032
G1 X3.9806 Y30.7559
G1 X3.9702 Y30.7649
G1 X3.9593 Y30.7733
G1 X3.8963 Y30.8201
G1 X3.8850 Y30.8280
G1 X3.8734 Y30.8354
G1 X3.8061 Y30.8757
G1 X3.7941 Y30.8825
G1 X3.7818 Y30.8887
G1 X3.7109 Y30.9222
G1 X3.6919 Y30.9304
G1 X3.6116 Y30.9592
G1 X3.5985 Y30.9635
G1 X3.5853 Y30.9672
G1 X3.5091 Y30.9862
G1 X3.4957 Y30.9893
G1 X3.4822 Y30.9916
G1 X3.4045 Y31.0031
G1 X3.3840 Y31.0054
G1 X3.2988 Y31.0097
G1 X3.2850 Y31.0100
G1 X3.2713 Y31.0097
G1 X3.1929 Y31.0058
G1 X3.1792 Y31.0048
G1 X3.1655 Y31.0031
G1 X3.0879 Y30.9916
G1 X3.0743 Y30.9893
G1 X3.0609 Y30.9862
G1 X2.9848 Y30.9672
G1 X2.9715 Y30.9635
G1 X2.9585 Y30.9592
G1 X2.8845 Y30.9327
G1 X2.8717 Y30.9278
G1 X2.8592 Y30.9222
G1 X2.7882 Y30.8887
G1 X2.7759 Y30.8825
G1 X2.7639 Y30.8757
G1 X2.6966 Y30.8354
G1 X2.6850 Y30.8280
G1 X2.6738 Y30.8201
G1 X2.6107 Y30.7733
G1 X2.5999 Y30.7649
G1 X2.5895 Y30.7559
G1 X2.5313 Y30.7032
G1 X2.5213 Y30.6937
G1 X2.5119 Y30.6837
G1 X2.4546 Y30.6204
G1 X2.4417 Y30.6043
G1 X2.3949 Y30.5413
G1 X2.3870 Y30.5300
G1 X2.3797 Y30.5184
G1 X2.3393 Y30.4511
G1 X2.3325 Y30.4391
G1 X2.3264 Y30.4268
G1 X2.2928 Y30.3559
G1 X2.2872 Y30.3433
G1 X2.2823 Y30.3305
G1 X2.2558 Y30.2566
G1 X2.2496 Y30.2369
G1 X2.2288 Y30.1541
G1 X2.2258 Y30.1407
G1 X2.2234 Y30.1272
G1 X2.2119 Y30.0495
G1 X2.2102 Y30.0359
G1 X2.2092 Y30.0222
G1 X2.2053 Y29.9438
G1 X2.2050 Y29.9300
G1 X2.2053 Y29.9163
G1 X2.2092 Y29.8379
G1 X2.2110 Y29.8173
G1 X2.2245 Y29.7261
G1 X2.2272 Y29.7126
G1 X2.2311 Y29.6966
G1 X1.1748 Y28.6402
G1 X1.1653 Y28.6303
G1 X1.1410 Y28.6033
G1 X1.1323 Y28.5927
G1 X1.1105 Y28.5636
G1 X1.1026 Y28.5523
G1 X1.0953 Y28.5407
G1 X1.0734 Y28.5035
G1 X1.0672 Y28.4912
G1 X1.0490 Y28.4520
G1 X1.0342 Y28.4115
G1 X1.0298 Y28.3984
G1 X1.0190 Y28.3566
G1 X1.0148 Y28.3364
G1 X1.0093 Y28.3005
G1 X1.0077 Y28.2869
G1 X1.0052 Y28.2438
G1 X1.0049 Y28.2300
G1 X1.0049 Y8.9058
G1 X1.0052 Y8.8921
G0 Z2.0000
G0 X1.1850 Y8.9009
F1000
G1 Z0.0000 F1000
F700
G1 X1.1868 Y8.8666
G1 X1.1926 Y8.8278
G1 X1.2021 Y8.7897
G1 X1.2153 Y8.7527
G1 X1.2321 Y8.7172
G1 X1.2523 Y8.6835
G1 X1.2757 Y8.6520
G1 X1.3021 Y8.6229
G1 X3.4997 Y6.4253
G1 X3.5270 Y6.4007
G1 X3.5585 Y6.3773
G1 X3.5922 Y6.3571
G1 X3.6232 Y6.3423
G1 X3.6323 Y6.3386
G1 X3.6600 Y6.3286
G1 X3.6694 Y6.3258
G1 X3.7028 Y6.3176
G1 X3.7416 Y6.3118
G1 X3.7808 Y6.3099
G1 X24.2100 Y6.3099
G1 X24.2492 Y6.3118
G1 X24.2881 Y6.3176
G1 X24.3262 Y6.3271
G1 X24.3586 Y6.3386
G1 X24.3676 Y6.3423
G1 X24.3943 Y6.3549
G1 X24.4029 Y6.3595
G1 X24.4323 Y6.3773
G1 X24.4657 Y6.4023
G1 X24.4930 Y6.4271
G1 X41.1080 Y23.0421
G1 X41.1343 Y23.0712
G1 X41.1549 Y23.0987
G1 X41.1604 Y23.1068
G1 X41.1755 Y23.1321
G1 X41.1801 Y23.1408
G1 X41.1947 Y23.1719
G1 X41.2064 Y23.2042
G1 X41.2092 Y23.2136
G1 X41.2164 Y23.2422
G1 X41.2183 Y23.2518
G1 X41.2232 Y23.2858
G1 X41.2252 Y23.3250
G1 X41.2252 Y38.0750
G1 X41.6750 Y38.0750
G1 X41.6824 Y38.0753
G1 X41.6897 Y38.0761
G1 X41.6969 Y38.0774
G1 X41.7040 Y38.0793
G1 X41.7110 Y38.0817
G1 X41.7178 Y38.0846
G1 X41.7243 Y38.0880
G1 X41.7306 Y38.0919
G1 X41.7365 Y38.0962
G1 X41.7440 Y38.1026
G1 X41.7491 Y38.1079
G1 X41.7553 Y38.1154
G1 X41.7595 Y38.1215
G1 X41.7632 Y38.1279
G1 X41.7664 Y38.1345
G1 X41.7692 Y38.1413
G1 X41.7714 Y38.1483
G1 X41.7735 Y38.1579
G1 X41.7747 Y38.1677
G1 X41.7750 Y38.1750
G1 X41.7750 Y39.8750
G1 X41.7743 Y39.8873
G1 X41.7731 Y39.8945
G1 X41.7714 Y39.9017
G1 X41.7674 Y39.9133
G1 X41.7620 Y39.9243
G1 X41.7582 Y39.9306
G1 X41.7538 Y39.9365
G1 X41.7457 Y39.9457
G1 X41.7403 Y39.9507
G1 X41.7346 Y39.9553
G1 X41.7285 Y39.9595
G1 X41.7222 Y39.9632
G1 X41.7110 Y39.9683
G1 X41.7040 Y39.9707
G1 X41.6945 Y39.9731
G1 X41.6873 Y39.9743
G1 X41.6799 Y39.9749
G1 X41.5409 Y39.9750
G1 X43.0697 Y41.5038
G1 X43.0911 Y41.5274
G1 X43.0974 Y41.5350
G1 X43.1177 Y41.5627
G1 X43.1355 Y41.5921
G1 X43.1401 Y41.6008
G1 X43.1547 Y41.6319
G1 X43.1679 Y41.6689
G1 X43.1764 Y41.7022
G1 X43.1783 Y41.7118
G1 X43.1832 Y41.7458
G1 X43.1852 Y41.7850
G1 X43.1852 Y44.0750
G1 X43.6350 Y44.0750
G1 X43.6473 Y44.0758
G1 X43.6545 Y44.0769
G1 X43.6617 Y44.0786
G1 X43.6687 Y44.0809
G1 X43.6755 Y44.0836
G1 X43.6822 Y44.0868
G1 X43.6885 Y44.0905
G1 X43.6946 Y44.0947
G1 X43.7003 Y44.0993
G1 X43.7057 Y44.1043
G1 X43.7107 Y44.1097
G1 X43.7153 Y44.1154
G1 X43.7195 Y44.1215
G1 X43.7232 Y44.1279
G1 X43.7264 Y44.1345
G1 X43.7292 Y44.1413
G1 X43.7314 Y44.1483
G1 X43.7339 Y44.1603
G1 X43.7347 Y44.1677
G1 X43.7350 Y44.1750
G1 X43.7350 Y45.8750
G1 X43.7345 Y45.8848
G1 X43.7335 Y45.8921
G1 X43.7320 Y45.8993
G1 X43.7292 Y45.9087
G1 X43.7264 Y45.9155
G1 X43.7220 Y45.9243
G1 X43.7168 Y45.9326
G1 X43.7107 Y45.9403
G1 X43.7022 Y45.9491
G1 X43.6946 Y45.9553
G1 X43.6864 Y45.9608
G1 X43.6778 Y45.9654
G1 X43.6687 Y45.9692
G1 X43.6593 Y45.9720
G1 X43.6473 Y45.9743
G1 X43.6375 Y45.9750
G1 X41.9350 Y45.9750
G1 X41.9228 Y45.9743
G1 X41.9107 Y45.9720
G1 X41.8990 Y45.9683
G1 X41.8879 Y45.9632
G1 X41.8774 Y45.9568
G1 X41.8679 Y45.9491
G1 X41.8626 Y45.9440
G1 X41.8577 Y45.9385
G1 X41.8505 Y45.9285
G1 X41.8468 Y45.9222
G1 X41.8436 Y45.9155
G1 X41.8393 Y45.9040
G1 X41.8374 Y45.8969
G1 X41.8361 Y45.8897
G1 X41.8353 Y45.8824
G1 X41.8350 Y45.8750
G1 X41.8350 Y44.1750
G1 X41.8353 Y44.1677
G1 X41.8361 Y44.1603
G1 X41.8386 Y44.1483
G1 X41.8409 Y44.1413
G1 X41.8436 Y44.1345
G1 X41.8468 Y44.1279
G1 X41.8505 Y44.1215
G1 X41.8547 Y44.1154
G1 X41.8593 Y44.1097
G1 X41.8643 Y44.1043
G1 X41.8697 Y44.0993
G1 X41.8754 Y44.0947
G1 X41.8815 Y44.0905
G1 X41.8879 Y44.0868
G1 X41.8945 Y44.0836
G1 X41.9013 Y44.0809
G1 X41.9083 Y44.0786
G1 X41.9155 Y44.0769
G1 X41.9228 Y44.0758
G1 X41.9350 Y44.0750
G1 X42.3849 Y44.0750
G1 X42.3849 Y41.9508
G1 X40.5421 Y40.1080
G1 X40.5157 Y40.0789
G1 X40.4923 Y40.0473
G1 X40.4721 Y40.0136
G1 X40.4573 Y39.9826
G1 X40.4541 Y39.9750
G1 X39.9750 Y39.9750
G1 X39.9677 Y39.9747
G1 X39.9603 Y39.9739
G1 X39.9531 Y39.9726
G1 X39.9460 Y39.9707
G1 X39.9367 Y39.9674
G1 X39.9301 Y39.9643
G1 X39.9236 Y39.9608
G1 X39.9174 Y39.9568
G1 X39.9097 Y39.9507
G1 X39.9043 Y39.9457
G1 X39.8993 Y39.9403
G1 X39.8933 Y39.9326
G1 X39.8892 Y39.9264
G1 X39.8857 Y39.9200
G1 X39.8817 Y39.9110
G1 X39.8793 Y39.9040
G1 X39.8774 Y39.8969
G1 X39.8761 Y39.8897
G1 X39.8753 Y39.8824
G1 X39.8750 Y39.8750
G1 X39.8750 Y38.1750
G1 X39.8753 Y38.1677
G1 X39.8761 Y38.1603
G1 X39.8774 Y38.1531
G1 X39.8793 Y38.1460
G1 X39.8817 Y38.1390
G1 X39.8846 Y38.1323
G1 X39.8880 Y38.1257
G1 X39.8919 Y38.1195
G1 X39.8962 Y38.1135
G1 X39.9009 Y38.1079
G1 X39.9061 Y38.1026
G1 X39.9116 Y38.0977
G1 X39.9174 Y38.0933
G1 X39.9236 Y38.0892
G1 X39.9345 Y38.0836
G1 X39.9413 Y38.0809
G1 X39.9483 Y38.0786
G1 X39.9555 Y38.0769
G1 X39.9628 Y38.0758
G1 X39.9750 Y38.0750
G1 X40.4249 Y38.0750
G1 X40.4249 Y23.4908
G1 X24.0443 Y7.1102
G1 X3.9466 Y7.1102
G1 X1.9852 Y9.0716
G1 X1.9852 Y28.0643
G1 X2.9986 Y29.0777
G1 X3.0261 Y29.0681
G1 X3.1046 Y29.0484
G1 X3.1118 Y29.0469
G1 X3.1968 Y29.0343
G1 X3.2801 Y29.0301
G1 X3.2875 Y29.0300
G1 X3.3732 Y29.0343
G1 X3.4606 Y29.0473
G1 X3.5463 Y29.0688
G1 X3.6271 Y29.0976
G1 X3.6339 Y29.1005
G1 X3.7093 Y29.1363
G1 X3.7850 Y29.1817
G1 X3.8560 Y29.2343
G1 X3.9179 Y29.2902
G1 X3.9248 Y29.2972
G1 X3.9775 Y29.3553
G1 X3.9837 Y29.3629
G1 X4.0333 Y29.4300
G1 X4.0763 Y29.5015
G1 X4.0799 Y29.5079
G1 X4.1145 Y29.5811
G1 X4.1183 Y29.5902
G1 X4.1463 Y29.6688
G1 X4.1666 Y29.7496
G1 X4.1686 Y29.7593
G1 X4.1807 Y29.8418
G1 X4.1850 Y29.9300
G1 X4.1810 Y30.0133
G1 X4.1801 Y30.0231
G1 X4.1677 Y30.1056
G1 X4.1476 Y30.1865
G1 X4.1447 Y30.1959
G1 X4.1165 Y30.2744
G1 X4.0787 Y30.3543
G1 X4.0360 Y30.4259
G1 X4.0305 Y30.4340
G1 X3.9807 Y30.5010
G1 X3.9248 Y30.5629
G1 X3.9179 Y30.5698
G1 X3.8560 Y30.6257
G1 X3.7850 Y30.6783
G1 X3.7135 Y30.7213
G1 X3.7049 Y30.7259
G1 X3.6294 Y30.7615
G1 X3.5509 Y30.7897
G1 X3.5415 Y30.7926
G1 X3.4606 Y30.8127
G1 X3.3781 Y30.8251
G1 X3.3708 Y30.8259
G1 X3.2899 Y30.8299
G1 X3.2801 Y30.8299
G1 X3.1968 Y30.8257
G1 X3.1143 Y30.8136
G1 X3.1046 Y30.8116
G1 X3.0238 Y30.7913
G1 X2.9406 Y30.7615
G1 X2.8608 Y30.7237
G1 X2.7891 Y30.6810
G1 X2.7810 Y30.6755
G1 X2.7141 Y30.6257
G1 X2.6522 Y30.5698
G1 X2.6452 Y30.5629
G1 X2.5909 Y30.5028
G1 X2.5395 Y30.4340
G1 X2.5341 Y30.4259
G1 X2.4913 Y30.3543
G1 X2.4555 Y30.2789
G1 X2.4518 Y30.2698
G1 X2.4238 Y30.1913
G1 X2.4034 Y30.1104
G1 X2.4019 Y30.1032
G1 X2.3893 Y30.0182
G1 X2.3851 Y29.9349
G1 X2.3851 Y29.9251
G1 X2.3891 Y29.8442
G1 X2.4015 Y29.7593
G1 X2.4028 Y29.7520
G1 X2.4231 Y29.6711
G1 X2.4327 Y29.6436
G1 X1.2987 Y28.5094
G1 X1.2757 Y28.4839
G1 X1.2523 Y28.4523
G1 X1.2321 Y28.4186
G1 X1.2173 Y28.3876
G1 X1.2136 Y28.3786
G1 X1.2036 Y28.3508
G1 X1.2008 Y28.3414
G1 X1.1926 Y28.3081
G1 X1.1868 Y28.2692
G1 X1.1849 Y28.2300
G1 X1.1850 Y8.9009
G0 Z2.0000
G0 X2.2119 Y9.4905
F1000
G1 Z0.0000 F1000
F700
G1 X2.2234 Y9.4129
G1 X2.2258 Y9.3993
G1 X2.2288 Y9.3859
G1 X2.2479 Y9.3098
G1 X2.2515 Y9.2965
G1 X2.2558 Y9.2835
G1 X2.2823 Y9.2095
G1 X2.2872 Y9.1967
G1 X2.2928 Y9.1842
G1 X2.3264 Y9.1132
G1 X2.3325 Y9.1009
G1 X2.3393 Y9.0889
G1 X2.3797 Y9.0216
G1 X2.3870 Y9.0100
G1 X2.3949 Y8.9988
G1 X2.4417 Y8.9357
G1 X2.4502 Y8.9249
G1 X2.4591 Y8.9145
G1 X2.5119 Y8.8563
G1 X2.5213 Y8.8463
G1 X2.5313 Y8.8369
G1 X2.5895 Y8.7841
G1 X2.5999 Y8.7752
G1 X2.6107 Y8.7667
G1 X2.6738 Y8.7199
G1 X2.6850 Y8.7120
G1 X2.6966 Y8.7047
G1 X2.7639 Y8.6643
G1 X2.7759 Y8.6575
G1 X2.7882 Y8.6514
G1 X2.8592 Y8.6178
G1 X2.8717 Y8.6122
G1 X2.8845 Y8.6073
G1 X2.9585 Y8.5808
G1 X2.9715 Y8.5765
G1 X2.9848 Y8.5729
G1 X3.0609 Y8.5538
G1 X3.0743 Y8.5508
G1 X3.0879 Y8.5484
G1 X3.1655 Y8.5369
G1 X3.1792 Y8.5352
G1 X3.1929 Y8.5342
G1 X3.2713 Y8.5303
G1 X3.2850 Y8.5300
G1 X3.2988 Y8.5303
G1 X3.3772 Y8.5342
G1 X3.3909 Y8.5352
G1 X3.4045 Y8.5369
G1 X3.4822 Y8.5484
G1 X3.4957 Y8.5508
G1 X3.5091 Y8.5538
G1 X3.5853 Y8.5729
G1 X3.5985 Y8.5765
G1 X3.6116 Y8.5808
G1 X3.6855 Y8.6073
G1 X3.6983 Y8.6122
G1 X3.7109 Y8.6178
G1 X3.7818 Y8.6514
G1 X3.7941 Y8.6575
G1 X3.8061 Y8.6643
G1 X3.8734 Y8.7047
G1 X3.8850 Y8.7120
G1 X3.8963 Y8.7199
G1 X3.9593 Y8.7667
G1 X3.9702 Y8.7752
G1 X3.9806 Y8.7841
G1 X4.0387 Y8.8369
G1 X4.0487 Y8.8463
G1 X4.0582 Y8.8563
G1 X4.1109 Y8.9145
G1 X4.1199 Y8.9249
G1 X4.1283 Y8.9357
G1 X4.1751 Y8.9988
G1 X4.1830 Y9.0100
G1 X4.1904 Y9.0216
G1 X4.2307 Y9.0889
G1 X4.2375 Y9.1009
G1 X4.2437 Y9.1132
G1 X4.2772 Y9.1842
G1 X4.2828 Y9.1967
G1 X4.2877 Y9.2095
G1 X4.3142 Y9.2835
G1 X4.3185 Y9.2965
G1 X4.3222 Y9.3098
G1 X4.3412 Y9.3859
G1 X4.3443 Y9.3993
G1 X4.3466 Y9.4129
G1 X4.3581 Y9.4905
G1 X4.3598 Y9.5042
G1 X4.3608 Y9.5179
G1 X4.3647 Y9.5963
G1 X4.3650 Y9.6100
G1 X4.3647 Y9.6238
G1 X4.3608 Y9.7022
G1 X4.3598 Y9.7159
G1 X4.3581 Y9.7295
G1 X4.3466 Y9.8072
G1 X4.3443 Y9.8207
G1 X4.3412 Y9.8341
G1 X4.3222 Y9.9103
G1 X4.3185 Y9.9235
G1 X4.3142 Y9.9366
G1 X4.2877 Y10.0105
G1 X4.2828 Y10.0233
G1 X4.2772 Y10.0359
G1 X4.2437 Y10.1068
G1 X4.2375 Y10.1191
G1 X4.2307 Y10.1311
G1 X4.1904 Y10.1984
G1 X4.1830 Y10.2100
G1 X4.1751 Y10.2213
G1 X4.1283 Y10.2843
G1 X4.1199 Y10.2952
G1 X4.1109 Y10.3056
G1 X4.0582 Y10.3637
G1 X4.0487 Y10.3737
G1 X4.0387 Y10.3832
G1 X3.9806 Y10.4359
G1 X3.9702 Y10.4449
G1 X3.9593 Y10.4533
G1 X3.8963 Y10.5001
G1 X3.8850 Y10.5080
G1 X3.8734 Y10.5154
G1 X3.8061 Y10.5557
G1 X3.7941 Y10.5625
G1 X3.7818 Y10.5687
G1 X3.7109 Y10.6022
G1 X3.6983 Y10.6078
G1 X3.6855 Y10.6127
G1 X3.6116 Y10.6392
G1 X3.5985 Y10.6435
G1 X3.5853 Y10.6472
G1 X3.5091 Y10.6662
G1 X3.4957 Y10.6693
G1 X3.4822 Y10.6716
G1 X3.4045 Y10.6831
G1 X3.3909 Y10.6848
G1 X3.3772 Y10.6858
G1 X3.2988 Y10.6897
G1 X3.2850 Y10.6900
G1 X3.2713 Y10.6897
G1 X3.1929 Y10.6858
G1 X3.1792 Y10.6848
G1 X3.1655 Y10.6831
G1 X3.0879 Y10.6716
G1 X3.0743 Y10.6693
G1 X3.0609 Y10.6662
G1 X2.9848 Y10.6472
G1 X2.9715 Y10.6435
G1 X2.9585 Y10.6392
G1 X2.8845 Y10.6127
G1 X2.8717 Y10.6078
G1 X2.8592 Y10.6022
G1 X2.7882 Y10.5687
G1 X2.7759 Y10.5625
G1 X2.7639 Y10.5557
G1 X2.6966 Y10.5154
G1 X2.6850 Y10.5080
G1 X2.6738 Y10.5001
G1 X2.6107 Y10.4533
G1 X2.5999 Y10.4449
G1 X2.5895 Y10.4359
G1 X2.5313 Y10.3832
G1 X2.5213 Y10.3737
G1 X2.5119 Y10.3637
G1 X2.4591 Y10.3056
G1 X2.4502 Y10.2952
G1 X2.4417 Y10.2843
G1 X2.3949 Y10.2213
G1 X2.3870 Y10.2100
G1 X2.3797 Y10.1984
G1 X2.3393 Y10.1311
G1 X2.3325 Y10.1191
G1 X2.3264 Y10.1068
G1 X2.2928 Y10.0359
G1 X2.2872 Y10.0233
G1 X2.2823 Y10.0105
G1 X2.2558 Y9.9366
G1 X2.2515 Y9.9235
G1 X2.2479 Y9.9103
G1 X2.2288 Y9.8341
G1 X2.2258 Y9.8207
G1 X2.2234 Y9.8072
G1 X2.2119 Y9.7295
G1 X2.2102 Y9.7159
G1 X2.2092 Y9.7022
G1 X2.2053 Y9.6238
G1 X2.2050 Y9.6100
G1 X2.2053 Y9.5963
G1 X2.2092 Y9.5179
G1 X2.2102 Y9.5042
G1 X2.2119 Y9.4905
G0 Z2.0000
G0 X2.3899 Y9.5169
F1000
G1 Z0.0000 F1000
F700
G1 X2.4023 Y9.4344
G1 X2.4238 Y9.3488
G1 X2.4535 Y9.2656
G1 X2.4913 Y9.1858
G1 X2.5367 Y9.1100
G1 X2.5893 Y9.0391
G1 X2.6486 Y8.9736
G1 X2.7141 Y8.9143
G1 X2.7850 Y8.8617
G1 X2.8608 Y8.8163
G1 X2.9406 Y8.7785
G1 X3.0238 Y8.7488
G1 X3.1094 Y8.7273
G1 X3.1968 Y8.7143
G1 X3.2850 Y8.7100
G1 X3.3732 Y8.7143
G1 X3.4606 Y8.7273
G1 X3.5463 Y8.7488
G1 X3.6294 Y8.7785
G1 X3.7093 Y8.8163
G1 X3.7850 Y8.8617
G1 X3.8560 Y8.9143
G1 X3.9214 Y8.9736
G1 X3.9807 Y9.0391
G1 X4.0333 Y9.1100
G1 X4.0787 Y9.1858
G1 X4.1165 Y9.2656
G1 X4.1463 Y9.3488
G1 X4.1677 Y9.4344
G1 X4.1807 Y9.5218
G1 X4.1850 Y9.6100
G1 X4.1807 Y9.6982
G1 X4.1677 Y9.7856
G1 X4.1463 Y9.8713
G1 X4.1165 Y9.9544
G1 X4.0787 Y10.0343
G1 X4.0333 Y10.1100
G1 X3.9807 Y10.1810
G1 X3.9214 Y10.2464
G1 X3.8560 Y10.3057
G1 X3.7850 Y10.3583
G1 X3.7093 Y10.4037
G1 X3.6294 Y10.4415
G1 X3.5463 Y10.4713
G1 X3.4606 Y10.4927
G1 X3.3732 Y10.5057
G1 X3.2850 Y10.5100
G1 X3.1968 Y10.5057
G1 X3.1094 Y10.4927
G1 X3.0238 Y10.4713
G1 X2.9406 Y10.4415
G1 X2.8608 Y10.4037
G1 X2.7850 Y10.3583
G1 X2.7141 Y10.3057
G1 X2.6486 Y10.2464
G1 X2.5893 Y10.1810
G1 X2.5367 Y10.1100
G1 X2.4913 Y10.0343
G1 X2.4535 Y9.9544
G1 X2.4238 Y9.8713
G1 X2.4023 Y9.7856
G1 X2.3893 Y9.6982
G1 X2.3850 Y9.6100
G1 X2.3890 Y9.5267
G1 X2.3899 Y9.5169
G0 Z2.0000
G0 X2.3452 Y10.4478
F1000
G1 Z0.0000 F1000
F700
G1 X2.3785 Y10.4846
G1 X2.3941 Y10.5010
G1 X2.4104 Y10.5165
G1 X2.4770 Y10.5767
G1 X2.4857 Y10.5840
G1 X2.5035 Y10.5979
G1 X2.5757 Y10.6513
G1 X2.5945 Y10.6638
G1 X2.6041 Y10.6697
G1 X2.6714 Y10.7101
G1 X2.6911 Y10.7212
G1 X2.7112 Y10.7314
G1 X2.7822 Y10.7650
G1 X2.8028 Y10.7741
G1 X2.8133 Y10.7783
G1 X2.9085 Y10.8123
G1 X2.9193 Y10.8158
G1 X2.9410 Y10.8218
G1 X3.0172 Y10.8409
G1 X3.0392 Y10.8458
G1 X3.0614 Y10.8497
G1 X3.1391 Y10.8612
G1 X3.1615 Y10.8639
G1 X3.1840 Y10.8656
G1 X3.2624 Y10.8695
G1 X3.2850 Y10.8700
G1 X3.3076 Y10.8695
G1 X3.3860 Y10.8656
G1 X3.4085 Y10.8639
G1 X3.4309 Y10.8612
G1 X3.5086 Y10.8497
G1 X3.5308 Y10.8458
G1 X3.5529 Y10.8409
G1 X3.6290 Y10.8218
G1 X3.6508 Y10.8158
G1 X3.6722 Y10.8087
G1 X3.7461 Y10.7822
G1 X3.7672 Y10.7741
G1 X3.7878 Y10.7650
G1 X3.8588 Y10.7314
G1 X3.8790 Y10.7212
G1 X3.8986 Y10.7101
G1 X3.9660 Y10.6697
G1 X3.9850 Y10.6577
G1 X4.0035 Y10.6447
G1 X4.0665 Y10.5979
G1 X4.0843 Y10.5840
G1 X4.1014 Y10.5693
G1 X4.1596 Y10.5165
G1 X4.1760 Y10.5010
G1 X4.1915 Y10.4846
G1 X4.2443 Y10.4264
G1 X4.2590 Y10.4093
G1 X4.2729 Y10.3915
G1 X4.3197 Y10.3285
G1 X4.3263 Y10.3193
G1 X4.3388 Y10.3006
G1 X4.3851 Y10.2236
G1 X4.3962 Y10.2040
G1 X4.4064 Y10.1838
G1 X4.4400 Y10.1128
G1 X4.4491 Y10.0922
G1 X4.4572 Y10.0711
G1 X4.4837 Y9.9972
G1 X4.4908 Y9.9758
G1 X4.4968 Y9.9540
G1 X4.5159 Y9.8779
G1 X4.5208 Y9.8558
G1 X4.5247 Y9.8336
G1 X4.5377 Y9.7447
G1 X4.5399 Y9.7223
G1 X4.5406 Y9.7110
G1 X4.5445 Y9.6326
G1 X4.5449 Y9.6213
G1 X4.5449 Y9.5987
G1 X4.5406 Y9.5090
G1 X4.5389 Y9.4865
G1 X4.5362 Y9.4641
G1 X4.5247 Y9.3864
G1 X4.5208 Y9.3642
G1 X4.5159 Y9.3422
G1 X4.4968 Y9.2660
G1 X4.4908 Y9.2443
G1 X4.4837 Y9.2228
G1 X4.4572 Y9.1489
G1 X4.4491 Y9.1278
G1 X4.4400 Y9.1072
G1 X4.4064 Y9.0362
G1 X4.3962 Y9.0161
G1 X4.3851 Y8.9964
G1 X4.3388 Y8.9195
G1 X4.3263 Y8.9007
G1 X4.3197 Y8.8915
G1 X4.2729 Y8.8285
G1 X4.2590 Y8.8107
G1 X4.2443 Y8.7936
G1 X4.1915 Y8.7354
G1 X4.1760 Y8.7191
G1 X4.1596 Y8.7035
G1 X4.1014 Y8.6508
G1 X4.0843 Y8.6360
G1 X4.0665 Y8.6221
G1 X3.9943 Y8.5687
G1 X3.9756 Y8.5562
G1 X3.9660 Y8.5503
G1 X3.8986 Y8.5099
G1 X3.8790 Y8.4988
G1 X3.8690 Y8.4936
G1 X3.7878 Y8.4551
G1 X3.7672 Y8.4459
G1 X3.7461 Y8.4378
G1 X3.6722 Y8.4113
G1 X3.6508 Y8.4043
G1 X3.6399 Y8.4011
G1 X3.5419 Y8.3766
G1 X3.5308 Y8.3742
G1 X3.5086 Y8.3704
G1 X3.4309 Y8.3588
G1 X3.4197 Y8.3573
G1 X3.3973 Y8.3551
G1 X3.3076 Y8.3506
G1 X3.2850 Y8.3500
G1 X3.2624 Y8.3506
G1 X3.2129 Y8.3530
G1 X4.0957 Y7.4702
G1 X17.0298 Y7.4702
G1 X4.5278 Y19.9722
G1 X4.5377 Y19.9047
G1 X4.5399 Y19.8823
G1 X4.5445 Y19.7926
G1 X4.5450 Y19.7700
G1 X4.5445 Y19.7474
G1 X4.5406 Y19.6690
G1 X4.5389 Y19.6465
G1 X4.5362 Y19.6241
G1 X4.5247 Y19.5464
G1 X4.5208 Y19.5242
G1 X4.5159 Y19.5022
G1 X4.4968 Y19.4260
G1 X4.4939 Y19.4151
G1 X4.4873 Y19.3935
G1 X4.4572 Y19.3089
G1 X4.4491 Y19.2878
G1 X4.4400 Y19.2672
G1 X4.4014 Y19.1861
G1 X4.3962 Y19.1761
G1 X4.3851 Y19.1564
G1 X4.3447 Y19.0891
G1 X4.3327 Y19.0700
G1 X4.3197 Y19.0515
G1 X4.2729 Y18.9885
G1 X4.2590 Y18.9707
G1 X4.2443 Y18.9536
G1 X4.1915 Y18.8954
G1 X4.1760 Y18.8791
G1 X4.1596 Y18.8635
G1 X4.1014 Y18.8108
G1 X4.0843 Y18.7960
G1 X4.0665 Y18.7821
G1 X4.0035 Y18.7354
G1 X3.9850 Y18.7224
G1 X3.9660 Y18.7103
G1 X3.8889 Y18.6642
G1 X3.8790 Y18.6588
G1 X3.8588 Y18.6486
G1 X3.7878 Y18.6151
G1 X3.7672 Y18.6059
G1 X3.7461 Y18.5978
G1 X3.6722 Y18.5713
G1 X3.6508 Y18.5643
G1 X3.6290 Y18.5582
G1 X3.5529 Y18.5392
G1 X3.5308 Y18.5342
G1 X3.5086 Y18.5304
G1 X3.4309 Y18.5188
G1 X3.4085 Y18.5161
G1 X3.3973 Y18.5151
G1 X3.3076 Y18.5106
G1 X3.2850 Y18.5100
G1 X3.2624 Y18.5106
G1 X3.1840 Y18.5144
G1 X3.1615 Y18.5161
G1 X3.1391 Y18.5188
G1 X3.0614 Y18.5304
G1 X3.0392 Y18.5342
G1 X3.0172 Y18.5392
G1 X2.9410 Y18.5582
G1 X2.9193 Y18.5643
G1 X2.8978 Y18.5713
G1 X2.8239 Y18.5978
G1 X2.8028 Y18.6059
G1 X2.7822 Y18.6151
G1 X2.7112 Y18.6486
G1 X2.6911 Y18.6588
G1 X2.6812 Y18.6642
G1 X2.6041 Y18.7103
G1 X2.5850 Y18.7224
G1 X2.5665 Y18.7354
G1 X2.4945 Y18.7890
G1 X2.4770 Y18.8033
G1 X2.4686 Y18.8108
G1 X2.4021 Y18.8712
G1 X2.3862 Y18.8871
G1 X2.3452 Y18.9322
G1 X2.3452 Y18.0678
G1 X2.3862 Y18.1129
G1 X2.4021 Y18.1289
G1 X2.4686 Y18.1893
G1 X2.4857 Y18.2040
G1 X2.4945 Y18.2111
G1 X2.5665 Y18.2647
G1 X2.5850 Y18.2777
G1 X2.6041 Y18.2897
G1 X2.6812 Y18.3358
G1 X2.6911 Y18.3412
G1 X2.7112 Y18.3514
G1 X2.7822 Y18.3850
G1 X2.8028 Y18.3941
G1 X2.8239 Y18.4022
G1 X2.8978 Y18.4287
G1 X2.9193 Y18.4358
G1 X2.9410 Y18.4418
G1 X3.0282 Y18.4635
G1 X3.0392 Y18.4658
G1 X3.0614 Y18.4697
G1 X3.1391 Y18.4812
G1 X3.1615 Y18.4839
G1 X3.1840 Y18.4856
G1 X3.2624 Y18.4895
G1 X3.2850 Y18.4900
G1 X3.3076 Y18.4895
G1 X3.3860 Y18.4856
G1 X3.4085 Y18.4839
G1 X3.4309 Y18.4812
G1 X3.5086 Y18.4697
G1 X3.5308 Y18.4658
G1 X3.5529 Y18.4609
G1 X3.6290 Y18.4418
G1 X3.6508 Y18.4358
G1 X3.6722 Y18.4287
G1 X3.7567 Y18.3983
G1 X3.7672 Y18.3941
G1 X3.7878 Y18.3850
G1 X3.8588 Y18.3514
G1 X3.8790 Y18.3412
G1 X3.8986 Y18.3301
G1 X3.9660 Y18.2897
G1 X3.9850 Y18.2777
G1 X4.0035 Y18.2647
G1 X4.0665 Y18.2179
G1 X4.0843 Y18.2040
G1 X4.1014 Y18.1893
G1 X4.1596 Y18.1365
G1 X4.1760 Y18.1210
G1 X4.1915 Y18.1046
G1 X4.2443 Y18.0464
G1 X4.2590 Y18.0293
G1 X4.2729 Y18.0115
G1 X4.3197 Y17.9485
G1 X4.3327 Y17.9300
G1 X4.3447 Y17.9110
G1 X4.3851 Y17.8436
G1 X4.3962 Y17.8240
G1 X4.4064 Y17.8038
G1 X4.4400 Y17.7328
G1 X4.4491 Y17.7122
G1 X4.4572 Y17.6911
G1 X4.4837 Y17.6172
G1 X4.4908 Y17.5958
G1 X4.4968 Y17.5740
G1 X4.5159 Y17.4979
G1 X4.5208 Y17.4758
G1 X4.5247 Y17.4536
G1 X4.5362 Y17.3759
G1 X4.5389 Y17.3535
G1 X4.5406 Y17.3310
G1 X4.5445 Y17.2526
G1 X4.5450 Y17.2300
G1 X4.5445 Y17.2074
G1 X4.5406 Y17.1290
G1 X4.5389 Y17.1065
G1 X4.5362 Y17.0841
G1 X4.5247 Y17.0064
G1 X4.5208 Y16.9842
G1 X4.5159 Y16.9622
G1 X4.4968 Y16.8860
G1 X4.4908 Y16.8643
G1 X4.4837 Y16.8428
G1 X4.4572 Y16.7689
G1 X4.4491 Y16.7478
G1 X4.4400 Y16.7272
G1 X4.4064 Y16.6562
G1 X4.3962 Y16.6361
G1 X4.3851 Y16.6164
G1 X4.3447 Y16.5491
G1 X4.3327 Y16.5300
G1 X4.3197 Y16.5115
G1 X4.2729 Y16.4485
G1 X4.2590 Y16.4307
G1 X4.2443 Y16.4136
G1 X4.1915 Y16.3554
G1 X4.1760 Y16.3391
G1 X4.1596 Y16.3235
G1 X4.1014 Y16.2708
G1 X4.0843 Y16.2560
G1 X4.0665 Y16.2421
G1 X4.0035 Y16.1954
G1 X3.9850 Y16.1824
G1 X3.9660 Y16.1703
G1 X3.8986 Y16.1299
G1 X3.8790 Y16.1188
G1 X3.8588 Y16.1086
G1 X3.7878 Y16.0751
G1 X3.7672 Y16.0659
G1 X3.7567 Y16.0617
G1 X3.6722 Y16.0313
G1 X3.6508 Y16.0243
G1 X3.6290 Y16.0182
G1 X3.5529 Y15.9992
G1 X3.5308 Y15.9942
G1 X3.5086 Y15.9904
G1 X3.4309 Y15.9788
G1 X3.4085 Y15.9761
G1 X3.3860 Y15.9744
G1 X3.3076 Y15.9706
G1 X3.2850 Y15.9700
G1 X3.2624 Y15.9706
G1 X3.1840 Y15.9744
G1 X3.1615 Y15.9761
G1 X3.1391 Y15.9788
G1 X3.0614 Y15.9904
G1 X3.0392 Y15.9942
G1 X3.0282 Y15.9966
G1 X2.9410 Y16.0182
G1 X2.9193 Y16.0243
G1 X2.8978 Y16.0313
G1 X2.8239 Y16.0578
G1 X2.8028 Y16.0659
G1 X2.7822 Y16.0751
G1 X2.7112 Y16.1086
G1 X2.6911 Y16.1188
G1 X2.6812 Y16.1242
G1 X2.6041 Y16.1703
G1 X2.5850 Y16.1824
G1 X2.5665 Y16.1954
G1 X2.4945 Y16.2490
G1 X2.4770 Y16.2633
G1 X2.4686 Y16.2708
G1 X2.4021 Y16.3312
G1 X2.3862 Y16.3471
G1 X2.3452 Y16.3922
G1 X2.3452 Y15.5278
G1 X2.3862 Y15.5729
G1 X2.4021 Y15.5889
G1 X2.4686 Y15.6493
G1 X2.4857 Y15.6640
G1 X2.4945 Y15.6711
G1 X2.5665 Y15.7247
G1 X2.5850 Y15.7377
G1 X2.6041 Y15.7497
G1 X2.6812 Y15.7958
G1 X2.6911 Y15.8012
G1 X2.7112 Y15.8114
G1 X2.7822 Y15.8450
G1 X2.8028 Y15.8541
G1 X2.8239 Y15.8622
G1 X2.8978 Y15.8887
G1 X2.9193 Y15.8958
G1 X2.9410 Y15.9018
G1 X3.0282 Y15.9235
G1 X3.0392 Y15.9258
G1 X3.0614 Y15.9297
G1 X3.1391 Y15.9412
G1 X3.1615 Y15.9439
G1 X3.1840 Y15.9456
G1 X3.2624 Y15.9495
G1 X3.2850 Y15.9500
G1 X3.3076 Y15.9495
G1 X3.3860 Y15.9456
G1 X3.4085 Y15.9439
G1 X3.4309 Y15.9412
G1 X3.5086 Y15.9297
G1 X3.5308 Y15.9258
G1 X3.5529 Y15.9209
G1 X3.6290 Y15.9018
G1 X3.6508 Y15.8958
G1 X3.6722 Y15.8887
G1 X3.7567 Y15.8583
G1 X3.7672 Y15.8541
G1 X3.7878 Y15.8450
G1 X3.8588 Y15.8114
G1 X3.8790 Y15.8012
G1 X3.8986 Y15.7901
G1 X3.9660 Y15.7497
G1 X3.9850 Y15.7377
G1 X4.0035 Y15.7247
G1 X4.0665 Y15.6779
G1 X4.0843 Y15.6640
G1 X4.1014 Y15.6493
G1 X4.1596 Y15.5965
G1 X4.1760 Y15.5810
G1 X4.1915 Y15.5646
G1 X4.2443 Y15.5064
G1 X4.2590 Y15.4893
G1 X4.2729 Y15.4715
G1 X4.3197 Y15.4085
G1 X4.3327 Y15.3900
G1 X4.3447 Y15.3710
G1 X4.3851 Y15.3036
G1 X4.3962 Y15.2840
G1 X4.4064 Y15.2638
G1 X4.4400 Y15.1928
G1 X4.4491 Y15.1722
G1 X4.4572 Y15.1511
G1 X4.4837 Y15.0772
G1 X4.4908 Y15.0558
G1 X4.4968 Y15.0340
G1 X4.5159 Y14.9579
G1 X4.5208 Y14.9358
G1 X4.5247 Y14.9136
G1 X4.5362 Y14.8359
G1 X4.5389 Y14.8135
G1 X4.5406 Y14.7910
G1 X4.5445 Y14.7126
G1 X4.5450 Y14.6900
G1 X4.5445 Y14.6674
G1 X4.5406 Y14.5890
G1 X4.5389 Y14.5665
G1 X4.5362 Y14.5441
G1 X4.5247 Y14.4664
G1 X4.5208 Y14.4442
G1 X4.5159 Y14.4222
G1 X4.4968 Y14.3460
G1 X4.4908 Y14.3243
G1 X4.4837 Y14.3028
G1 X4.4572 Y14.2289
G1 X4.4491 Y14.2078
G1 X4.4400 Y14.1872
G1 X4.4064 Y14.1162
G1 X4.3962 Y14.0961
G1 X4.3851 Y14.0764
G1 X4.3447 Y14.0091
G1 X4.3327 Y13.9900
G1 X4.3197 Y13.9715
G1 X4.2729 Y13.9085
G1 X4.2590 Y13.8907
G1 X4.2443 Y13.8736
G1 X4.1915 Y13.8154
G1 X4.1760 Y13.7991
G1 X4.1596 Y13.7835
G1 X4.1014 Y13.7308
G1 X4.0843 Y13.7160
G1 X4.0665 Y13.7021
G1 X4.0035 Y13.6554
G1 X3.9850 Y13.6424
G1 X3.9660 Y13.6303
G1 X3.8986 Y13.5899
G1 X3.8790 Y13.5788
G1 X3.8588 Y13.5686
G1 X3.7878 Y13.5351
G1 X3.7776 Y13.5304
G1 X3.7567 Y13.5217
G1 X3.6722 Y13.4913
G1 X3.6508 Y13.4843
G1 X3.6290 Y13.4782
G1 X3.5529 Y13.4592
G1 X3.5308 Y13.4542
G1 X3.5086 Y13.4504
G1 X3.4309 Y13.4388
G1 X3.4085 Y13.4361
G1 X3.3860 Y13.4344
G1 X3.3076 Y13.4306
G1 X3.2850 Y13.4300
G1 X3.2624 Y13.4306
G1 X3.1840 Y13.4344
G1 X3.1615 Y13.4361
G1 X3.1391 Y13.4388
G1 X3.0614 Y13.4504
G1 X3.0503 Y13.4522
G1 X3.0282 Y13.4566
G1 X2.9410 Y13.4782
G1 X2.9193 Y13.4843
G1 X2.8978 Y13.4913
G1 X2.8239 Y13.5178
G1 X2.8028 Y13.5259
G1 X2.7822 Y13.5351
G1 X2.7112 Y13.5686
G1 X2.6911 Y13.5788
G1 X2.6812 Y13.5842
G1 X2.6041 Y13.6303
G1 X2.5850 Y13.6424
G1 X2.5665 Y13.6554
G1 X2.4945 Y13.7090
G1 X2.4770 Y13.7233
G1 X2.4686 Y13.7308
G1 X2.4021 Y13.7912
G1 X2.3862 Y13.8071
G1 X2.3452 Y13.8522
G1 X2.3452 Y12.9878
G1 X2.3862 Y13.0329
G1 X2.4021 Y13.0489
G1 X2.4686 Y13.1093
G1 X2.4770 Y13.1167
G1 X2.4945 Y13.1311
G1 X2.5665 Y13.1847
G1 X2.5850 Y13.1977
G1 X2.6041 Y13.2097
G1 X2.6812 Y13.2558
G1 X2.7011 Y13.2664
G1 X2.7112 Y13.2714
G1 X2.7822 Y13.3050
G1 X2.8028 Y13.3141
G1 X2.8239 Y13.3222
G1 X2.8978 Y13.3487
G1 X2.9193 Y13.3558
G1 X2.9410 Y13.3618
G1 X3.0282 Y13.3835
G1 X3.0503 Y13.3879
G1 X3.0614 Y13.3897
G1 X3.1391 Y13.4012
G1 X3.1615 Y13.4039
G1 X3.1840 Y13.4056
G1 X3.2624 Y13.4095
G1 X3.2850 Y13.4100
G1 X3.3076 Y13.4095
G1 X3.3860 Y13.4056
G1 X3.4085 Y13.4039
G1 X3.4309 Y13.4012
G1 X3.5086 Y13.3897
G1 X3.5308 Y13.3858
G1 X3.5529 Y13.3809
G1 X3.6290 Y13.3618
G1 X3.6508 Y13.3558
G1 X3.6722 Y13.3487
G1 X3.7567 Y13.3183
G1 X3.7672 Y13.3141
G1 X3.7878 Y13.3050
G1 X3.8588 Y13.2714
G1 X3.8790 Y13.2612
G1 X3.8986 Y13.2501
G1 X3.9660 Y13.2097
G1 X3.9850 Y13.1977
G1 X4.0035 Y13.1847
G1 X4.0665 Y13.1379
G1 X4.0843 Y13.1240
G1 X4.1014 Y13.1093
G1 X4.1596 Y13.0565
G1 X4.1760 Y13.0410
G1 X4.1915 Y13.0246
G1 X4.2443 Y12.9664
G1 X4.2590 Y12.9493
G1 X4.2729 Y12.9315
G1 X4.3197 Y12.8685
G1 X4.3327 Y12.8500
G1 X4.3447 Y12.8310
G1 X4.3851 Y12.7636
G1 X4.3962 Y12.7440
G1 X4.4064 Y12.7238
G1 X4.4400 Y12.6528
G1 X4.4491 Y12.6322
G1 X4.4572 Y12.6111
G1 X4.4837 Y12.5372
G1 X4.4908 Y12.5158
G1 X4.4968 Y12.4940
G1 X4.5159 Y12.4179
G1 X4.5208 Y12.3958
G1 X4.5247 Y12.3736
G1 X4.5362 Y12.2959
G1 X4.5389 Y12.2735
G1 X4.5406 Y12.2510
G1 X4.5445 Y12.1726
G1 X4.5450 Y12.1500
G1 X4.5445 Y12.1274
G1 X4.5406 Y12.0490
G1 X4.5389 Y12.0265
G1 X4.5362 Y12.0041
G1 X4.5247 Y11.9264
G1 X4.5208 Y11.9042
G1 X4.5159 Y11.8822
G1 X4.4968 Y11.8060
G1 X4.4908 Y11.7843
G1 X4.4837 Y11.7628
G1 X4.4572 Y11.6889
G1 X4.4491 Y11.6678
G1 X4.4400 Y11.6472
G1 X4.4064 Y11.5762
G1 X4.3962 Y11.5561
G1 X4.3851 Y11.5364
G1 X4.3447 Y11.4691
G1 X4.3327 Y11.4500
G1 X4.3197 Y11.4315
G1 X4.2729 Y11.3685
G1 X4.2590 Y11.3507
G1 X4.2443 Y11.3336
G1 X4.1915 Y11.2754
G1 X4.1760 Y11.2591
G1 X4.1596 Y11.2435
G1 X4.1014 Y11.1908
G1 X4.0843 Y11.1760
G1 X4.0665 Y11.1621
G1 X4.0035 Y11.1154
G1 X3.9850 Y11.1024
G1 X3.9660 Y11.0903
G1 X3.8986 Y11.0499
G1 X3.8790 Y11.0388
G1 X3.8588 Y11.0286
G1 X3.7878 Y10.9951
G1 X3.7776 Y10.9904
G1 X3.7567 Y10.9817
G1 X3.6722 Y10.9513
G1 X3.6508 Y10.9443
G1 X3.6290 Y10.9382
G1 X3.5529 Y10.9192
G1 X3.5308 Y10.9142
G1 X3.5086 Y10.9104
G1 X3.4309 Y10.8988
G1 X3.4085 Y10.8961
G1 X3.3860 Y10.8944
G1 X3.3076 Y10.8906
G1 X3.2850 Y10.8900
G1 X3.2624 Y10.8906
G1 X3.1840 Y10.8944
G1 X3.1615 Y10.8961
G1 X3.1391 Y10.8988
G1 X3.0614 Y10.9104
G1 X3.0392 Y10.9142
G1 X3.0282 Y10.9166
G1 X2.9410 Y10.9382
G1 X2.9193 Y10.9443
G1 X2.8978 Y10.9513
G1 X2.8239 Y10.9778
G1 X2.8028 Y10.9859
G1 X2.7822 Y10.9951
G1 X2.7112 Y11.0286
G1 X2.7011 Y11.0336
G1 X2.6812 Y11.0442
G1 X2.6041 Y11.0903
G1 X2.5850 Y11.1024
G1 X2.5665 Y11.1154
G1 X2.4945 Y11.1690
G1 X2.4857 Y11.1760
G1 X2.4686 Y11.1908
G1 X2.4021 Y11.2512
G1 X2.3862 Y11.2671
G1 X2.3452 Y11.3122
G1 X2.3452 Y10.4478
G0 Z2.0000
G0 X2.5252 Y10.8323
F1000
G1 Z0.0000 F1000
F700
G1 X2.5789 Y10.8645
G1 X2.6063 Y10.8800
G1 X2.5789 Y10.8955
G1 X2.5252 Y10.9277
G1 X2.5252 Y10.8323
G0 Z2.0000
G0 X2.3899 Y12.0569
F1000
G1 Z0.0000 F1000
F700
G1 X2.4023 Y11.9744
G1 X2.4238 Y11.8888
G1 X2.4535 Y11.8056
G1 X2.4913 Y11.7258
G1 X2.5367 Y11.6500
G1 X2.5893 Y11.5791
G1 X2.6486 Y11.5136
G1 X2.7141 Y11.4543
G1 X2.7850 Y11.4017
G1 X2.8608 Y11.3563
G1 X2.9406 Y11.3185
G1 X3.0238 Y11.2888
G1 X3.1094 Y11.2673
G1 X3.1968 Y11.2543
G1 X3.2850 Y11.2500
G1 X3.3732 Y11.2543
G1 X3.4606 Y11.2673
G1 X3.5463 Y11.2888
G1 X3.6294 Y11.3185
G1 X3.7093 Y11.3563
G1 X3.7850 Y11.4017
G1 X3.8560 Y11.4543
G1 X3.9214 Y11.5136
G1 X3.9807 Y11.5791
G1 X4.0333 Y11.6500
G1 X4.0787 Y11.7258
G1 X4.1165 Y11.8056
G1 X4.1463 Y11.8888
G1 X4.1677 Y11.9744
G1 X4.1807 Y12.0618
G1 X4.1850 Y12.1500
G1 X4.1807 Y12.2382
G1 X4.1677 Y12.3256
G1 X4.1463 Y12.4113
G1 X4.1165 Y12.4944
G1 X4.0787 Y12.5743
G1 X4.0333 Y12.6500
G1 X3.9807 Y12.7210
G1 X3.9214 Y12.7864
G1 X3.8560 Y12.8457
G1 X3.7850 Y12.8983
G1 X3.7093 Y12.9437
G1 X3.6294 Y12.9815
G1 X3.5463 Y13.0113
G1 X3.4606 Y13.0327
G1 X3.3732 Y13.0457
G1 X3.2850 Y13.0500
G1 X3.1968 Y13.0457
G1 X3.1094 Y13.0327
G1 X3.0238 Y13.0113
G1 X2.9406 Y12.9815
G1 X2.8608 Y12.9437
G1 X2.7850 Y12.8983
G1 X2.7141 Y12.8457
G1 X2.6486 Y12.7864
G1 X2.5893 Y12.7210
G1 X2.5367 Y12.6500
G1 X2.4913 Y12.5743
G1 X2.4535 Y12.4944
G1 X2.4238 Y12.4113
G1 X2.4023 Y12.3256
G1 X2.3893 Y12.2382
G1 X2.3850 Y12.1500
G1 X2.3890 Y12.0667
G1 X2.3899 Y12.0569
G0 Z2.0000
G0 X2.2119 Y12.0305
F1000
G1 Z0.0000 F1000
F700
G1 X2.2234 Y11.9529
G1 X2.2258 Y11.9393
G1 X2.2288 Y11.9259
G1 X2.2479 Y11.8498
G1 X2.2515 Y11.8365
G1 X2.2558 Y11.8235
G1 X2.2823 Y11.7495
G1 X2.2872 Y11.7367
G1 X2.2928 Y11.7242
G1 X2.3264 Y11.6532
G1 X2.3325 Y11.6409
G1 X2.3393 Y11.6289
G1 X2.3797 Y11.5616
G1 X2.3870 Y11.5500
G1 X2.3949 Y11.5388
G1 X2.4417 Y11.4757
G1 X2.4502 Y11.4649
G1 X2.4591 Y11.4545
G1 X2.5119 Y11.3963
G1 X2.5213 Y11.3863
G1 X2.5313 Y11.3769
G1 X2.5895 Y11.3241
G1 X2.5999 Y11.3152
G1 X2.6107 Y11.3067
G1 X2.6738 Y11.2599
G1 X2.6850 Y11.2520
G1 X2.6966 Y11.2447
G1 X2.7639 Y11.2043
G1 X2.7759 Y11.1975
G1 X2.7882 Y11.1914
G1 X2.8592 Y11.1578
G1 X2.8717 Y11.1522
G1 X2.8845 Y11.1473
G1 X2.9585 Y11.1208
G1 X2.9715 Y11.1165
G1 X2.9848 Y11.1129
G1 X3.0609 Y11.0938
G1 X3.0743 Y11.0908
G1 X3.0879 Y11.0884
G1 X3.1655 Y11.0769
G1 X3.1792 Y11.0752
G1 X3.1929 Y11.0742
G1 X3.2713 Y11.0703
G1 X3.2850 Y11.0700
G1 X3.2988 Y11.0703
G1 X3.3772 Y11.0742
G1 X3.3909 Y11.0752
G1 X3.4045 Y11.0769
G1 X3.4822 Y11.0884
G1 X3.4957 Y11.0908
G1 X3.5091 Y11.0938
G1 X3.5853 Y11.1129
G1 X3.5985 Y11.1165
G1 X3.6116 Y11.1208
G1 X3.6855 Y11.1473
G1 X3.6983 Y11.1522
G1 X3.7109 Y11.1578
G1 X3.7818 Y11.1914
G1 X3.7941 Y11.1975
G1 X3.8061 Y11.2043
G1 X3.8734 Y11.2447
G1 X3.8850 Y11.2520
G1 X3.8963 Y11.2599
G1 X3.9593 Y11.3067
G1 X3.9702 Y11.3152
G1 X3.9806 Y11.3241
G1 X4.0387 Y11.3769
G1 X4.0487 Y11.3863
G1 X4.0582 Y11.3963
G1 X4.1109 Y11.4545
G1 X4.1199 Y11.4649
G1 X4.1283 Y11.4757
G1 X4.1751 Y11.5388
G1 X4.1830 Y11.5500
G1 X4.1904 Y11.5616
G1 X4.2307 Y11.6289
G1 X4.2375 Y11.6409
G1 X4.2437 Y11.6532
G1 X4.2772 Y11.7242
G1 X4.2828 Y11.7367
G1 X4.2877 Y11.7495
G1 X4.3142 Y11.8235
G1 X4.3185 Y11.8365
G1 X4.3222 Y11.8498
G1 X4.3412 Y11.9259
G1 X4.3443 Y11.9393
G1 X4.3466 Y11.9529
G1 X4.3581 Y12.0305
G1 X4.3598 Y12.0442
G1 X4.3608 Y12.0579
G1 X4.3647 Y12.1363
G1 X4.3650 Y12.1500
G1 X4.3647 Y12.1638
G1 X4.3608 Y12.2422
G1 X4.3598 Y12.2559
G1 X4.3581 Y12.2695
G1 X4.3466 Y12.3472
G1 X4.3443 Y12.3607
G1 X4.3412 Y12.3741
G1 X4.3222 Y12.4503
G1 X4.3185 Y12.4635
G1 X4.3142 Y12.4766
G1 X4.2877 Y12.5505
G1 X4.2828 Y12.5633
G1 X4.2772 Y12.5759
G1 X4.2437 Y12.6468
G1 X4.2375 Y12.6591
G1 X4.2307 Y12.6711
G1 X4.1904 Y12.7384
G1 X4.1830 Y12.7500
G1 X4.1751 Y12.7613
G1 X4.1283 Y12.8243
G1 X4.1199 Y12.8352
G1 X4.1109 Y12.8456
G1 X4.0582 Y12.9037
G1 X4.0487 Y12.9137
G1 X4.0387 Y12.9232
G1 X3.9806 Y12.9759
G1 X3.9702 Y12.9849
G1 X3.9593 Y12.9933
G1 X3.8963 Y13.0401
G1 X3.8850 Y13.0480
G1 X3.8734 Y13.0554
G1 X3.8061 Y13.0957
G1 X3.7941 Y13.1025
G1 X3.7818 Y13.1087
G1 X3.7109 Y13.1422
G1 X3.6983 Y13.1478
G1 X3.6855 Y13.1527
G1 X3.6116 Y13.1792
G1 X3.5985 Y13.1835
G1 X3.5853 Y13.1872
G1 X3.5091 Y13.2062
G1 X3.4957 Y13.2093
G1 X3.4822 Y13.2116
G1 X3.4045 Y13.2231
G1 X3.3909 Y13.2248
G1 X3.3772 Y13.2258
G1 X3.2988 Y13.2297
G1 X3.2850 Y13.2300
G1 X3.2713 Y13.2297
G1 X3.1929 Y13.2258
G1 X3.1792 Y13.2248
G1 X3.1655 Y13.2231
G1 X3.0879 Y13.2116
G1 X3.0743 Y13.2093
G1 X3.0609 Y13.2062
G1 X2.9848 Y13.1872
G1 X2.9715 Y13.1835
G1 X2.9585 Y13.1792
G1 X2.8845 Y13.1527
G1 X2.8717 Y13.1478
G1 X2.8592 Y13.1422
G1 X2.7882 Y13.1087
G1 X2.7759 Y13.1025
G1 X2.7639 Y13.0957
G1 X2.6966 Y13.0554
G1 X2.6850 Y13.0480
G1 X2.6738 Y13.0401
G1 X2.6107 Y12.9933
G1 X2.5999 Y12.9849
G1 X2.5895 Y12.9759
G1 X2.5313 Y12.9232
G1 X2.5213 Y12.9137
G1 X2.5119 Y12.9037
G1 X2.4591 Y12.8456
G1 X2.4502 Y12.8352
G1 X2.4417 Y12.8243
G1 X2.3949 Y12.7613
G1 X2.3870 Y12.7500
G1 X2.3797 Y12.7384
G1 X2.3393 Y12.6711
G1 X2.3325 Y12.6591
G1 X2.3264 Y12.6468
G1 X2.2928 Y12.5759
G1 X2.2872 Y12.5633
G1 X2.2823 Y12.5505
G1 X2.2558 Y12.4766
G1 X2.2515 Y12.4635
G1 X2.2479 Y12.4503
G1 X2.2288 Y12.3741
G1 X2.2258 Y12.3607
G1 X2.2234 Y12.3472
G1 X2.2119 Y12.2695
G1 X2.2102 Y12.2559
G1 X2.2092 Y12.2422
G1 X2.2053 Y12.1638
G1 X2.2050 Y12.1500
G1 X2.2053 Y12.1363
G1 X2.2092 Y12.0579
G1 X2.2102 Y12.0442
G1 X2.2119 Y12.0305
G0 Z2.0000
G0 X2.5252 Y13.3723
F1000
G1 Z0.0000 F1000
F700
G1 X2.5789 Y13.4045
G1 X2.6063 Y13.4200
G1 X2.5789 Y13.4355
G1 X2.5252 Y13.4677
G1 X2.5252 Y13.3723
G0 Z2.0000
G0 X2.3899 Y14.5969
F1000
G1 Z0.0000 F1000
F700
G1 X2.4023 Y14.5144
G1 X2.4238 Y14.4288
G1 X2.4535 Y14.3456
G1 X2.4913 Y14.2658
G1 X2.5367 Y14.1900
G1 X2.5893 Y14.1191
G1 X2.6486 Y14.0536
G1 X2.7141 Y13.9943
G1 X2.7850 Y13.9417
G1 X2.8608 Y13.8963
G1 X2.9406 Y13.8585
G1 X3.0238 Y13.8288
G1 X3.1094 Y13.8073
G1 X3.1968 Y13.7943
G1 X3.2850 Y13.7900
G1 X3.3732 Y13.7943
G1 X3.4606 Y13.8073
G1 X3.5463 Y13.8288
G1 X3.6294 Y13.8585
G1 X3.7093 Y13.8963
G1 X3.7850 Y13.9417
G1 X3.8560 Y13.9943
G1 X3.9214 Y14.0536
G1 X3.9807 Y14.1191
G1 X4.0333 Y14.1900
G1 X4.0787 Y14.2658
G1 X4.1165 Y14.3456
G1 X4.1463 Y14.4288
G1 X4.1677 Y14.5144
G1 X4.1807 Y14.6018
G1 X4.1850 Y14.6900
G1 X4.1807 Y14.7782
G1 X4.1677 Y14.8656
G1 X4.1463 Y14.9513
G1 X4.1165 Y15.0344
G1 X4.0787 Y15.1143
G1 X4.0333 Y15.1900
G1 X3.9807 Y15.2610
G1 X3.9214 Y15.3264
G1 X3.8560 Y15.3857
G1 X3.7850 Y15.4383
G1 X3.7093 Y15.4837
G1 X3.6294 Y15.5215
G1 X3.5463 Y15.5513
G1 X3.4606 Y15.5727
G1 X3.3732 Y15.5857
G1 X3.2850 Y15.5900
G1 X3.1968 Y15.5857
G1 X3.1094 Y15.5727
G1 X3.0238 Y15.5513
G1 X2.9406 Y15.5215
G1 X2.8608 Y15.4837
G1 X2.7850 Y15.4383
G1 X2.7141 Y15.3857
G1 X2.6486 Y15.3264
G1 X2.5893 Y15.2610
G1 X2.5367 Y15.1900
G1 X2.4913 Y15.1143
G1 X2.4535 Y15.0344
G1 X2.4238 Y14.9513
G1 X2.4023 Y14.8656
G1 X2.3893 Y14.7782
G1 X2.3850 Y14.6900
G1 X2.3890 Y14.6067
G1 X2.3899 Y14.5969
G0 Z2.0000
G0 X2.2119 Y14.5705
F1000
G1 Z0.0000 F1000
F700
G1 X2.2234 Y14.4929
G1 X2.2258 Y14.4793
G1 X2.2288 Y14.4659
G1 X2.2479 Y14.3898
G1 X2.2515 Y14.3765
G1 X2.2558 Y14.3635
G1 X2.2823 Y14.2895
G1 X2.2872 Y14.2767
G1 X2.2928 Y14.2642
G1 X2.3264 Y14.1932
G1 X2.3325 Y14.1809
G1 X2.3393 Y14.1689
G1 X2.3797 Y14.1016
G1 X2.3870 Y14.0900
G1 X2.3949 Y14.0788
G1 X2.4417 Y14.0157
G1 X2.4502 Y14.0049
G1 X2.4591 Y13.9945
G1 X2.5119 Y13.9363
G1 X2.5213 Y13.9263
G1 X2.5313 Y13.9169
G1 X2.5895 Y13.8641
G1 X2.5999 Y13.8552
G1 X2.6107 Y13.8467
G1 X2.6738 Y13.7999
G1 X2.6850 Y13.7920
G1 X2.6966 Y13.7847
G1 X2.7639 Y13.7443
G1 X2.7759 Y13.7375
G1 X2.7882 Y13.7314
G1 X2.8592 Y13.6978
G1 X2.8717 Y13.6922
G1 X2.8845 Y13.6873
G1 X2.9585 Y13.6608
G1 X2.9715 Y13.6565
G1 X2.9848 Y13.6529
G1 X3.0609 Y13.6338
G1 X3.0743 Y13.6308
G1 X3.0879 Y13.6284
G1 X3.1655 Y13.6169
G1 X3.1792 Y13.6152
G1 X3.1929 Y13.6142
G1 X3.2713 Y13.6103
G1 X3.2850 Y13.6100
G1 X3.2988 Y13.6103
G1 X3.3772 Y13.6142
G1 X3.3909 Y13.6152
G1 X3.4045 Y13.6169
G1 X3.4822 Y13.6284
G1 X3.4957 Y13.6308
G1 X3.5091 Y13.6338
G1 X3.5853 Y13.6529
G1 X3.5985 Y13.6565
G1 X3.6116 Y13.6608
G1 X3.6855 Y13.6873
G1 X3.6983 Y13.6922
G1 X3.7109 Y13.6978
G1 X3.7818 Y13.7314
G1 X3.7941 Y13.7375
G1 X3.8061 Y13.7443
G1 X3.8734 Y13.7847
G1 X3.8850 Y13.7920
G1 X3.8963 Y13.7999
G1 X3.9593 Y13.8467
G1 X3.9702 Y13.8552
G1 X3.9806 Y13.8641
G1 X4.0387 Y13.9169
G1 X4.0487 Y13.9263
G1 X4.0582 Y13.9363
G1 X4.1109 Y13.9945
G1 X4.1199 Y14.0049
G1 X4.1283 Y14.0157
G1 X4.1751 Y14.0788
G1 X4.1830 Y14.0900
G1 X4.1904 Y14.1016
G1 X4.2307 Y14.1689
G1 X4.2375 Y14.1809
G1 X4.2437 Y14.1932
G1 X4.2772 Y14.2642
G1 X4.2828 Y14.2767
G1 X4.2877 Y14.2895
G1 X4.3142 Y14.3635
G1 X4.3185 Y14.3765
G1 X4.3222 Y14.3898
G1 X4.3412 Y14.4659
G1 X4.3443 Y14.4793
G1 X4.3466 Y14.4929
G1 X4.3581 Y14.5705
G1 X4.3598 Y14.5842
G1 X4.3608 Y14.5979
G1 X4.3647 Y14.6763
G1 X4.3650 Y14.6900
G1 X4.3647 Y14.7038
G1 X4.3608 Y14.7822
G1 X4.3598 Y14.7959
G1 X4.3581 Y14.8095
G1 X4.3466 Y14.8872
G1 X4.3443 Y14.9007
G1 X4.3412 Y14.9141
G1 X4.3222 Y14.9903
G1 X4.3185 Y15.0035
G1 X4.3142 Y15.0166
G1 X4.2877 Y15.0905
G1 X4.2828 Y15.1033
G1 X4.2772 Y15.1159
G1 X4.2437 Y15.1868
G1 X4.2375 Y15.1991
G1 X4.2307 Y15.2111
G1 X4.1904 Y15.2784
G1 X4.1830 Y15.2900
G1 X4.1751 Y15.3013
G1 X4.1283 Y15.3643
G1 X4.1199 Y15.3752
G1 X4.1109 Y15.3856
G1 X4.0582 Y15.4437
G1 X4.0487 Y15.4537
G1 X4.0387 Y15.4632
G1 X3.9806 Y15.5159
G1 X3.9702 Y15.5249
G1 X3.9593 Y15.5333
G1 X3.8963 Y15.5801
G1 X3.8850 Y15.5880
G1 X3.8734 Y15.5954
G1 X3.8061 Y15.6357
G1 X3.7941 Y15.6425
G1 X3.7818 Y15.6487
G1 X3.7109 Y15.6822
G1 X3.6983 Y15.6878
G1 X3.6855 Y15.6927
G1 X3.6116 Y15.7192
G1 X3.5985 Y15.7235
G1 X3.5853 Y15.7272
G1 X3.5091 Y15.7462
G1 X3.4957 Y15.7493
G1 X3.4822 Y15.7516
G1 X3.4045 Y15.7631
G1 X3.3909 Y15.7648
G1 X3.3772 Y15.7658
G1 X3.2988 Y15.7697
G1 X3.2850 Y15.7700
G1 X3.2713 Y15.7697
G1 X3.1929 Y15.7658
G1 X3.1792 Y15.7648
G1 X3.1655 Y15.7631
G1 X3.0879 Y15.7516
G1 X3.0743 Y15.7493
G1 X3.0609 Y15.7462
G1 X2.9848 Y15.7272
G1 X2.9715 Y15.7235
G1 X2.9585 Y15.7192
G1 X2.8845 Y15.6927
G1 X2.8717 Y15.6878
G1 X2.8592 Y15.6822
G1 X2.7882 Y15.6487
G1 X2.7759 Y15.6425
G1 X2.7639 Y15.6357
G1 X2.6966 Y15.5954
G1 X2.6850 Y15.5880
G1 X2.6738 Y15.5801
G1 X2.6107 Y15.5333
G1 X2.5999 Y15.5249
G1 X2.5895 Y15.5159
G1 X2.5313 Y15.4632
G1 X2.5213 Y15.4537
G1 X2.5119 Y15.4437
G1 X2.4591 Y15.3856
G1 X2.4502 Y15.3752
G1 X2.4417 Y15.3643
G1 X2.3949 Y15.3013
G1 X2.3870 Y15.2900
G1 X2.3797 Y15.2784
G1 X2.3393 Y15.2111
G1 X2.3325 Y15.1991
G1 X2.3264 Y15.1868
G1 X2.2928 Y15.1159
G1 X2.2872 Y15.1033
G1 X2.2823 Y15.0905
G1 X2.2558 Y15.0166
G1 X2.2515 Y15.0035
G1 X2.2479 Y14.9903
G1 X2.2288 Y14.9141
G1 X2.2258 Y14.9007
G1 X2.2234 Y14.8872
G1 X2.2119 Y14.8095
G1 X2.2102 Y14.7959
G1 X2.2092 Y14.7822
G1 X2.2053 Y14.7038
G1 X2.2050 Y14.6900
G1 X2.2053 Y14.6763
G1 X2.2092 Y14.5979
G1 X2.2102 Y14.5842
G1 X2.2119 Y14.5705
G0 Z2.0000
G0 X2.5252 Y15.9123
F1000
G1 Z0.0000 F1000
F700
G1 X2.5789 Y15.9445
G1 X2.6063 Y15.9600
G1 X2.5789 Y15.9755
G1 X2.5252 Y16.0077
G1 X2.5252 Y15.9123
G0 Z2.0000
G0 X2.3899 Y17.1369
F1000
G1 Z0.0000 F1000
F700
G1 X2.4023 Y17.0544
G1 X2.4238 Y16.9688
G1 X2.4535 Y16.8856
G1 X2.4913 Y16.8058
G1 X2.5367 Y16.7300
G1 X2.5893 Y16.6591
G1 X2.6486 Y16.5936
G1 X2.7141 Y16.5343
G1 X2.7850 Y16.4817
G1 X2.8608 Y16.4363
G1 X2.9406 Y16.3985
G1 X3.0238 Y16.3688
G1 X3.1094 Y16.3473
G1 X3.1968 Y16.3343
G1 X3.2850 Y16.3300
G1 X3.3732 Y16.3343
G1 X3.4606 Y16.3473
G1 X3.5463 Y16.3688
G1 X3.6294 Y16.3985
G1 X3.7093 Y16.4363
G1 X3.7850 Y16.4817
G1 X3.8560 Y16.5343
G1 X3.9214 Y16.5936
G1 X3.9807 Y16.6591
G1 X4.0333 Y16.7300
G1 X4.0787 Y16.8058
G1 X4.1165 Y16.8856
G1 X4.1463 Y16.9688
G1 X4.1677 Y17.0544
G1 X4.1807 Y17.1418
G1 X4.1850 Y17.2300
G1 X4.1807 Y17.3182
G1 X4.1677 Y17.4056
G1 X4.1463 Y17.4913
G1 X4.1165 Y17.5744
G1 X4.0787 Y17.6543
G1 X4.0333 Y17.7300
G1 X3.9807 Y17.8010
G1 X3.9214 Y17.8664
G1 X3.8560 Y17.9257
G1 X3.7850 Y17.9783
G1 X3.7093 Y18.0237
G1 X3.6294 Y18.0615
G1 X3.5463 Y18.0913
G1 X3.4606 Y18.1127
G1 X3.3732 Y18.1257
G1 X3.2850 Y18.1300
G1 X3.1968 Y18.1257
G1 X3.1094 Y18.1127
G1 X3.0238 Y18.0913
G1 X2.9406 Y18.0615
G1 X2.8608 Y18.0237
G1 X2.7850 Y17.9783
G1 X2.7141 Y17.9257
G1 X2.6486 Y17.8664
G1 X2.5893 Y17.8010
G1 X2.5367 Y17.7300
G1 X2.4913 Y17.6543
G1 X2.4535 Y17.5744
G1 X2.4238 Y17.4913
G1 X2.4023 Y17.4056
G1 X2.3893 Y17.3182
G1 X2.3850 Y17.2300
G1 X2.3890 Y17.1467
G1 X2.3899 Y17.1369
G0 Z2.0000
G0 X2.2119 Y17.1105
F1000
G1 Z0.0000 F1000
F700
G1 X2.2234 Y17.0329
G1 X2.2258 Y17.0193
G1 X2.2288 Y17.0059
G1 X2.2479 Y16.9298
G1 X2.2515 Y16.9165
G1 X2.2558 Y16.9035
G1 X2.2823 Y16.8295
G1 X2.2872 Y16.8167
G1 X2.2928 Y16.8042
G1 X2.3264 Y16.7332
G1 X2.3325 Y16.7209
G1 X2.3393 Y16.7089
G1 X2.3797 Y16.6416
G1 X2.3870 Y16.6300
G1 X2.3949 Y16.6188
G1 X2.4417 Y16.5557
G1 X2.4502 Y16.5449
G1 X2.4591 Y16.5345
G1 X2.5119 Y16.4763
G1 X2.5213 Y16.4663
G1 X2.5313 Y16.4569
G1 X2.5895 Y16.4041
G1 X2.5999 Y16.3952
G1 X2.6107 Y16.3867
G1 X2.6738 Y16.3399
G1 X2.6850 Y16.3320
G1 X2.6966 Y16.3247
G1 X2.7639 Y16.2843
G1 X2.7759 Y16.2775
G1 X2.7882 Y16.2714
G1 X2.8592 Y16.2378
G1 X2.8717 Y16.2322
G1 X2.8845 Y16.2273
G1 X2.9585 Y16.2008
G1 X2.9715 Y16.1965
G1 X2.9848 Y16.1929
G1 X3.0609 Y16.1738
G1 X3.0743 Y16.1708
G1 X3.0879 Y16.1684
G1 X3.1655 Y16.1569
G1 X3.1792 Y16.1552
G1 X3.1929 Y16.1542
G1 X3.2713 Y16.1503
G1 X3.2850 Y16.1500
G1 X3.2988 Y16.1503
G1 X3.3772 Y16.1542
G1 X3.3909 Y16.1552
G1 X3.4045 Y16.1569
G1 X3.4822 Y16.1684
G1 X3.4957 Y16.1708
G1 X3.5091 Y16.1738
G1 X3.5853 Y16.1929
G1 X3.5985 Y16.1965
G1 X3.6116 Y16.2008
G1 X3.6855 Y16.2273
G1 X3.6983 Y16.2322
G1 X3.7109 Y16.2378
G1 X3.7818 Y16.2714
G1 X3.7941 Y16.2775
G1 X3.8061 Y16.2843
G1 X3.8734 Y16.3247
G1 X3.8850 Y16.3320
G1 X3.8963 Y16.3399
G1 X3.9593 Y16.3867
G1 X3.9702 Y16.3952
G1 X3.9806 Y16.4041
G1 X4.0387 Y16.4569
G1 X4.0487 Y16.4663
G1 X4.0582 Y16.4763
G1 X4.1109 Y16.5345
G1 X4.1199 Y16.5449
G1 X4.1283 Y16.5557
G1 X4.1751 Y16.6188
G1 X4.1830 Y16.6300
G1 X4.1904 Y16.6416
G1 X4.2307 Y16.7089
G1 X4.2375 Y16.7209
G1 X4.2437 Y16.7332
G1 X4.2772 Y16.8042
G1 X4.2828 Y16.8167
G1 X4.2877 Y16.8295
G1 X4.3142 Y16.9035
G1 X4.3185 Y16.9165
G1 X4.3222 Y16.9298
G1 X4.3412 Y17.0059
G1 X4.3443 Y17.0193
G1 X4.3466 Y17.0329
G1 X4.3581 Y17.1105
G1 X4.3598 Y17.1242
G1 X4.3608 Y17.1379
G1 X4.3647 Y17.2163
G1 X4.3650 Y17.2300
G1 X4.3647 Y17.2438
G1 X4.3608 Y17.3222
G1 X4.3598 Y17.3359
G1 X4.3581 Y17.3495
G1 X4.3466 Y17.4272
G1 X4.3443 Y17.4407
G1 X4.3412 Y17.4541
G1 X4.3222 Y17.5303
G1 X4.3185 Y17.5435
G1 X4.3142 Y17.5566
G1 X4.2877 Y17.6305
G1 X4.2828 Y17.6433
G1 X4.2772 Y17.6559
G1 X4.2437 Y17.7268
G1 X4.2375 Y17.7391
G1 X4.2307 Y17.7511
G1 X4.1904 Y17.8184
G1 X4.1830 Y17.8300
G1 X4.1751 Y17.8413
G1 X4.1283 Y17.9043
G1 X4.1199 Y17.9152
G1 X4.1109 Y17.9256
G1 X4.0582 Y17.9837
G1 X4.0487 Y17.9937
G1 X4.0387 Y18.0032
G1 X3.9806 Y18.0559
G1 X3.9702 Y18.0649
G1 X3.9593 Y18.0733
G1 X3.8963 Y18.1201
G1 X3.8850 Y18.1280
G1 X3.8734 Y18.1354
G1 X3.8061 Y18.1757
G1 X3.7941 Y18.1825
G1 X3.7818 Y18.1887
G1 X3.7109 Y18.2222
G1 X3.6983 Y18.2278
G1 X3.6855 Y18.2327
G1 X3.6116 Y18.2592
G1 X3.5985 Y18.2635
G1 X3.5853 Y18.2672
G1 X3.5091 Y18.2862
G1 X3.4957 Y18.2893
G1 X3.4822 Y18.2916
G1 X3.4045 Y18.3031
G1 X3.3909 Y18.3048
G1 X3.3772 Y18.3058
G1 X3.2988 Y18.3097
G1 X3.2850 Y18.3100
G1 X3.2713 Y18.3097
G1 X3.1929 Y18.3058
G1 X3.1792 Y18.3048
G1 X3.1655 Y18.3031
G1 X3.0879 Y18.2916
G1 X3.0743 Y18.2893
G1 X3.0609 Y18.2862
G1 X2.9848 Y18.2672
G1 X2.9715 Y18.2635
G1 X2.9585 Y18.2592
G1 X2.8845 Y18.2327
G1 X2.8717 Y18.2278
G1 X2.8592 Y18.2222
G1 X2.7882 Y18.1887
G1 X2.7759 Y18.1825
G1 X2.7639 Y18.1757
G1 X2.6966 Y18.1354
G1 X2.6850 Y18.1280
G1 X2.6738 Y18.1201
G1 X2.6107 Y18.0733
G1 X2.5999 Y18.0649
G1 X2.5895 Y18.0559
G1 X2.5313 Y18.0032
G1 X2.5213 Y17.9937
G1 X2.5119 Y17.9837
G1 X2.4591 Y17.9256
G1 X2.4502 Y17.9152
G1 X2.4417 Y17.9043
G1 X2.3949 Y17.8413
G1 X2.3870 Y17.8300
G1 X2.3797 Y17.8184
G1 X2.3393 Y17.7511
G1 X2.3325 Y17.7391
G1 X2.3264 Y17.7268
G1 X2.2928 Y17.6559
G1 X2.2872 Y17.6433
G1 X2.2823 Y17.6305
G1 X2.2558 Y17.5566
G1 X2.2515 Y17.5435
G1 X2.2479 Y17.5303
G1 X2.2288 Y17.4541
G1 X2.2258 Y17.4407
G1 X2.2234 Y17.4272
G1 X2.2119 Y17.3495
G1 X2.2102 Y17.3359
G1 X2.2092 Y17.3222
G1 X2.2053 Y17.2438
G1 X2.2050 Y17.2300
G1 X2.2053 Y17.2163
G1 X2.2092 Y17.1379
G1 X2.2102 Y17.1242
G1 X2.2119 Y17.1105
G0 Z2.0000
G0 X2.5252 Y18.4523
F1000
G1 Z0.0000 F1000
F700
G1 X2.5789 Y18.4845
G1 X2.6063 Y18.5000
G1 X2.5789 Y18.5155
G1 X2.5252 Y18.5477
G1 X2.5252 Y18.4523
G0 Z2.0000
G0 X2.3899 Y19.6769
F1000
G1 Z0.0000 F1000
F700
G1 X2.4023 Y19.5944
G1 X2.4238 Y19.5088
G1 X2.4535 Y19.4256
G1 X2.4913 Y19.3458
G1 X2.5367 Y19.2700
G1 X2.5893 Y19.1991
G1 X2.6486 Y19.1336
G1 X2.7141 Y19.0743
G1 X2.7850 Y19.0217
G1 X2.8608 Y18.9763
G1 X2.9406 Y18.9385
G1 X3.0238 Y18.9088
G1 X3.1094 Y18.8873
G1 X3.1968 Y18.8743
G1 X3.2850 Y18.8700
G1 X3.3732 Y18.8743
G1 X3.4606 Y18.8873
G1 X3.5463 Y18.9088
G1 X3.6294 Y18.9385
G1 X3.7093 Y18.9763
G1 X3.7850 Y19.0217
G1 X3.8560 Y19.0743
G1 X3.9214 Y19.1336
G1 X3.9807 Y19.1991
G1 X4.0333 Y19.2700
G1 X4.0787 Y19.3458
G1 X4.1165 Y19.4256
G1 X4.1463 Y19.5088
G1 X4.1677 Y19.5944
G1 X4.1807 Y19.6818
G1 X4.1850 Y19.7700
G1 X4.1807 Y19.8582
G1 X4.1677 Y19.9456
G1 X4.1463 Y20.0313
G1 X4.1165 Y20.1144
G1 X4.0787 Y20.1943
G1 X4.0333 Y20.2700
G1 X3.9807 Y20.3410
G1 X3.9214 Y20.4064
G1 X3.8560 Y20.4657
G1 X3.7850 Y20.5183
G1 X3.7093 Y20.5637
G1 X3.6294 Y20.6015
G1 X3.5463 Y20.6313
G1 X3.4606 Y20.6527
G1 X3.3732 Y20.6657
G1 X3.2850 Y20.6700
G1 X3.1968 Y20.6657
G1 X3.1094 Y20.6527
G1 X3.0238 Y20.6313
G1 X2.9406 Y20.6015
G1 X2.8608 Y20.5637
G1 X2.7850 Y20.5183
G1 X2.7141 Y20.4657
G1 X2.6486 Y20.4064
G1 X2.5893 Y20.3410
G1 X2.5367 Y20.2700
G1 X2.4913 Y20.1943
G1 X2.4535 Y20.1144
G1 X2.4238 Y20.0313
G1 X2.4023 Y19.9456
G1 X2.3893 Y19.8582
G1 X2.3850 Y19.7700
G1 X2.3890 Y19.6867
G1 X2.3899 Y19.6769
G0 Z2.0000
G0 X2.2119 Y19.6505
F1000
G1 Z0.0000 F1000
F700
G1 X2.2234 Y19.5729
G1 X2.2258 Y19.5593
G1 X2.2288 Y19.5459
G1 X2.2479 Y19.4698
G1 X2.2515 Y19.4565
G1 X2.2558 Y19.4435
G1 X2.2823 Y19.3695
G1 X2.2872 Y19.3567
G1 X2.2928 Y19.3442
G1 X2.3264 Y19.2732
G1 X2.3325 Y19.2609
G1 X2.3393 Y19.2489
G1 X2.3797 Y19.1816
G1 X2.3870 Y19.1700
G1 X2.3949 Y19.1588
G1 X2.4417 Y19.0957
G1 X2.4502 Y19.0849
G1 X2.4591 Y19.0745
G1 X2.5119 Y19.0163
G1 X2.5213 Y19.0063
G1 X2.5313 Y18.9969
G1 X2.5895 Y18.9441
G1 X2.5999 Y18.9352
G1 X2.6107 Y18.9267
G1 X2.6738 Y18.8799
G1 X2.6850 Y18.8720
G1 X2.6966 Y18.8647
G1 X2.7639 Y18.8243
G1 X2.7759 Y18.8175
G1 X2.7882 Y18.8114
G1 X2.8592 Y18.7778
G1 X2.8717 Y18.7722
G1 X2.8845 Y18.7673
G1 X2.9585 Y18.7408
G1 X2.9715 Y18.7365
G1 X2.9848 Y18.7329
G1 X3.0609 Y18.7138
G1 X3.0743 Y18.7108
G1 X3.0879 Y18.7084
G1 X3.1655 Y18.6969
G1 X3.1792 Y18.6952
G1 X3.1929 Y18.6942
G1 X3.2713 Y18.6903
G1 X3.2850 Y18.6900
G1 X3.2988 Y18.6903
G1 X3.3772 Y18.6942
G1 X3.3909 Y18.6952
G1 X3.4045 Y18.6969
G1 X3.4822 Y18.7084
G1 X3.4957 Y18.7108
G1 X3.5091 Y18.7138
G1 X3.5853 Y18.7329
G1 X3.5985 Y18.7365
G1 X3.6116 Y18.7408
G1 X3.6855 Y18.7673
G1 X3.6983 Y18.7722
G1 X3.7109 Y18.7778
G1 X3.7818 Y18.8114
G1 X3.7941 Y18.8175
G1 X3.8061 Y18.8243
G1 X3.8734 Y18.8647
G1 X3.8850 Y18.8720
G1 X3.8963 Y18.8799
G1 X3.9593 Y18.9267
G1 X3.9702 Y18.9352
G1 X3.9806 Y18.9441
G1 X4.0387 Y18.9969
G1 X4.0487 Y19.0063
G1 X4.0582 Y19.0163
G1 X4.1109 Y19.0745
G1 X4.1199 Y19.0849
G1 X4.1283 Y19.0957
G1 X4.1751 Y19.1588
G1 X4.1830 Y19.1700
G1 X4.1904 Y19.1816
G1 X4.2307 Y19.2489
G1 X4.2375 Y19.2609
G1 X4.2437 Y19.2732
G1 X4.2772 Y19.3442
G1 X4.2828 Y19.3567
G1 X4.2877 Y19.3695
G1 X4.3142 Y19.4435
G1 X4.3185 Y19.4565
G1 X4.3222 Y19.4698
G1 X4.3412 Y19.5459
G1 X4.3443 Y19.5593
G1 X4.3466 Y19.5729
G1 X4.3581 Y19.6505
G1 X4.3598 Y19.6642
G1 X4.3608 Y19.6779
G1 X4.3647 Y19.7563
G1 X4.3650 Y19.7700
G1 X4.3647 Y19.7838
G1 X4.3608 Y19.8622
G1 X4.3598 Y19.8759
G1 X4.3581 Y19.8895
G1 X4.3466 Y19.9672
G1 X4.3443 Y19.9807
G1 X4.3412 Y19.9941
G1 X4.3222 Y20.0703
G1 X4.3185 Y20.0835
G1 X4.3142 Y20.0966
G1 X4.2877 Y20.1705
G1 X4.2828 Y20.1833
G1 X4.2772 Y20.1959
G1 X4.2437 Y20.2668
G1 X4.2375 Y20.2791
G1 X4.2307 Y20.2911
G1 X4.1904 Y20.3584
G1 X4.1830 Y20.3700
G1 X4.1751 Y20.3813
G1 X4.1283 Y20.4443
G1 X4.1199 Y20.4552
G1 X4.1109 Y20.4656
G1 X4.0582 Y20.5237
G1 X4.0487 Y20.5337
G1 X4.0387 Y20.5432
G1 X3.9806 Y20.5959
G1 X3.9702 Y20.6049
G1 X3.9593 Y20.6133
G1 X3.8963 Y20.6601
G1 X3.8850 Y20.6680
G1 X3.8734 Y20.6754
G1 X3.8061 Y20.7157
G1 X3.7941 Y20.7225
G1 X3.7818 Y20.7287
G1 X3.7109 Y20.7622
G1 X3.6983 Y20.7678
G1 X3.6855 Y20.7727
G1 X3.6116 Y20.7992
G1 X3.5985 Y20.8035
G1 X3.5853 Y20.8072
G1 X3.5091 Y20.8262
G1 X3.4957 Y20.8293
G1 X3.4822 Y20.8316
G1 X3.4045 Y20.8431
G1 X3.3909 Y20.8448
G1 X3.3772 Y20.8458
G1 X3.2988 Y20.8497
G1 X3.2850 Y20.8500
G1 X3.2713 Y20.8497
G1 X3.1929 Y20.8458
G1 X3.1792 Y20.8448
G1 X3.1655 Y20.8431
G1 X3.0879 Y20.8316
G1 X3.0743 Y20.8293
G1 X3.0609 Y20.8262
G1 X2.9848 Y20.8072
G1 X2.9715 Y20.8035
G1 X2.9585 Y20.7992
G1 X2.8845 Y20.7727
G1 X2.8717 Y20.7678
G1 X2.8592 Y20.7622
G1 X2.7882 Y20.7287
G1 X2.7759 Y20.7225
G1 X2.7639 Y20.7157
G1 X2.6966 Y20.6754
G1 X2.6850 Y20.6680
G1 X2.6738 Y20.6601
G1 X2.6107 Y20.6133
G1 X2.5999 Y20.6049
G1 X2.5895 Y20.5959
G1 X2.5313 Y20.5432
G1 X2.5213 Y20.5337
G1 X2.5119 Y20.5237
G1 X2.4591 Y20.4656
G1 X2.4502 Y20.4552
G1 X2.4417 Y20.4443
G1 X2.3949 Y20.3813
G1 X2.3870 Y20.3700
G1 X2.3797 Y20.3584
G1 X2.3393 Y20.2911
G1 X2.3325 Y20.2791
G1 X2.3264 Y20.2668
G1 X2.2928 Y20.1959
G1 X2.2872 Y20.1833
G1 X2.2823 Y20.1705
G1 X2.2558 Y20.0966
G1 X2.2515 Y20.0835
G1 X2.2479 Y20.0703
G1 X2.2288 Y19.9941
G1 X2.2258 Y19.9807
G1 X2.2234 Y19.9672
G1 X2.2119 Y19.8895
G1 X2.2102 Y19.8759
G1 X2.2092 Y19.8622
G1 X2.2053 Y19.7838
G1 X2.2050 Y19.7700
G1 X2.2053 Y19.7563
G1 X2.2092 Y19.6779
G1 X2.2102 Y19.6642
G1 X2.2119 Y19.6505
G0 Z2.0000
G0 X2.3452 Y20.6078
F1000
G1 Z0.0000 F1000
F700
G1 X2.3785 Y20.6446
G1 X2.3941 Y20.6610
G1 X2.4104 Y20.6765
G1 X2.4770 Y20.7367
G1 X2.4857 Y20.7440
G1 X2.5035 Y20.7579
G1 X2.5757 Y20.8113
G1 X2.5945 Y20.8238
G1 X2.6041 Y20.8297
G1 X2.6714 Y20.8701
G1 X2.6911 Y20.8812
G1 X2.7112 Y20.8914
G1 X2.7925 Y20.9297
G1 X2.8133 Y20.9383
G1 X2.8239 Y20.9422
G1 X2.8978 Y20.9687
G1 X2.9193 Y20.9758
G1 X2.9410 Y20.9818
G1 X3.0172 Y21.0009
G1 X3.0392 Y21.0058
G1 X3.0614 Y21.0097
G1 X3.1391 Y21.0212
G1 X3.1615 Y21.0239
G1 X3.1840 Y21.0256
G1 X3.2624 Y21.0295
G1 X3.2850 Y21.0300
G1 X3.3076 Y21.0295
G1 X3.3860 Y21.0256
G1 X3.4085 Y21.0239
G1 X3.4309 Y21.0212
G1 X3.5086 Y21.0097
G1 X3.5308 Y21.0058
G1 X3.5529 Y21.0009
G1 X3.6290 Y20.9818
G1 X3.6508 Y20.9758
G1 X3.6722 Y20.9687
G1 X3.7461 Y20.9422
G1 X3.7567 Y20.9383
G1 X3.7776 Y20.9297
G1 X3.8588 Y20.8914
G1 X3.8790 Y20.8812
G1 X3.8986 Y20.8701
G1 X3.9660 Y20.8297
G1 X3.9850 Y20.8177
G1 X3.9943 Y20.8113
G1 X4.0665 Y20.7579
G1 X4.0755 Y20.7511
G1 X4.0930 Y20.7367
G1 X4.1596 Y20.6765
G1 X4.1760 Y20.6610
G1 X4.1915 Y20.6446
G1 X4.2249 Y20.6078
G1 X4.2249 Y21.4722
G1 X4.1915 Y21.4354
G1 X4.1760 Y21.4191
G1 X4.1596 Y21.4035
G1 X4.0930 Y21.3433
G1 X4.0755 Y21.3290
G1 X4.0665 Y21.3221
G1 X3.9943 Y21.2687
G1 X3.9850 Y21.2624
G1 X3.9660 Y21.2503
G1 X3.8986 Y21.2099
G1 X3.8790 Y21.1988
G1 X3.8588 Y21.1886
G1 X3.7776 Y21.1504
G1 X3.7567 Y21.1417
G1 X3.7461 Y21.1378
G1 X3.6722 Y21.1113
G1 X3.6508 Y21.1043
G1 X3.6290 Y21.0982
G1 X3.5529 Y21.0792
G1 X3.5308 Y21.0742
G1 X3.5086 Y21.0704
G1 X3.4309 Y21.0588
G1 X3.4085 Y21.0561
G1 X3.3860 Y21.0544
G1 X3.3076 Y21.0506
G1 X3.2850 Y21.0500
G1 X3.2624 Y21.0506
G1 X3.1840 Y21.0544
G1 X3.1615 Y21.0561
G1 X3.1391 Y21.0588
G1 X3.0614 Y21.0704
G1 X3.0392 Y21.0742
G1 X3.0172 Y21.0792
G1 X2.9410 Y21.0982
G1 X2.9193 Y21.1043
G1 X2.8978 Y21.1113
G1 X2.8239 Y21.1378
G1 X2.8133 Y21.1417
G1 X2.7925 Y21.1504
G1 X2.7112 Y21.1886
G1 X2.6911 Y21.1988
G1 X2.6714 Y21.2099
G1 X2.6041 Y21.2503
G1 X2.5945 Y21.2562
G1 X2.5757 Y21.2687
G1 X2.5035 Y21.3221
G1 X2.4945 Y21.3290
G1 X2.4770 Y21.3433
G1 X2.4104 Y21.4035
G1 X2.3941 Y21.4191
G1 X2.3785 Y21.4354
G1 X2.3452 Y21.4722
G1 X2.3452 Y20.6078
G0 Z2.0000
G0 X2.5252 Y20.9923
F1000
G1 Z0.0000 F1000
F700
G1 X2.5789 Y21.0245
G1 X2.6063 Y21.0400
G1 X2.5789 Y21.0555
G1 X2.5252 Y21.0877
G1 X2.5252 Y20.9923
G0 Z2.0000
G0 X2.3899 Y22.2169
F1000
G1 Z0.0000 F1000
F700
G1 X2.4023 Y22.1344
G1 X2.4238 Y22.0488
G1 X2.4535 Y21.9656
G1 X2.4913 Y21.8858
G1 X2.5367 Y21.8100
G1 X2.5893 Y21.7391
G1 X2.6486 Y21.6736
G1 X2.7141 Y21.6143
G1 X2.7850 Y21.5617
G1 X2.8608 Y21.5163
G1 X2.9406 Y21.4785
G1 X3.0238 Y21.4488
G1 X3.1094 Y21.4273
G1 X3.1968 Y21.4143
G1 X3.2850 Y21.4100
G1 X3.3732 Y21.4143
G1 X3.4606 Y21.4273
G1 X3.5463 Y21.4488
G1 X3.6294 Y21.4785
G1 X3.7093 Y21.5163
G1 X3.7850 Y21.5617
G1 X3.8560 Y21.6143
G1 X3.9214 Y21.6736
G1 X3.9807 Y21.7391
G1 X4.0333 Y21.8100
G1 X4.0787 Y21.8858
G1 X4.1165 Y21.9656
G1 X4.1463 Y22.0488
G1 X4.1677 Y22.1344
G1 X4.1807 Y22.2218
G1 X4.1850 Y22.3100
G1 X4.1807 Y22.3982
G1 X4.1677 Y22.4856
G1 X4.1463 Y22.5713
G1 X4.1165 Y22.6544
G1 X4.0787 Y22.7343
G1 X4.0333 Y22.8100
G1 X3.9807 Y22.8810
G1 X3.9214 Y22.9464
G1 X3.8560 Y23.0057
G1 X3.7850 Y23.0583
G1 X3.7093 Y23.1037
G1 X3.6294 Y23.1415
G1 X3.5463 Y23.1713
G1 X3.4606 Y23.1927
G1 X3.3732 Y23.2057
G1 X3.2850 Y23.2100
G1 X3.1968 Y23.2057
G1 X3.1094 Y23.1927
G1 X3.0238 Y23.1713
G1 X2.9406 Y23.1415
G1 X2.8608 Y23.1037
G1 X2.7850 Y23.0583
G1 X2.7141 Y23.0057
G1 X2.6486 Y22.9464
G1 X2.5893 Y22.8810
G1 X2.5367 Y22.8100
G1 X2.4913 Y22.7343
G1 X2.4535 Y22.6544
G1 X2.4238 Y22.5713
G1 X2.4023 Y22.4856
G1 X2.3893 Y22.3982
G1 X2.3850 Y22.3100
G1 X2.3890 Y22.2267
G1 X2.3899 Y22.2169
G0 Z2.0000
G0 X2.2119 Y22.1905
F1000
G1 Z0.0000 F1000
F700
G1 X2.2234 Y22.1129
G1 X2.2258 Y22.0993
G1 X2.2288 Y22.0859
G1 X2.2479 Y22.0098
G1 X2.2515 Y21.9965
G1 X2.2558 Y21.9835
G1 X2.2823 Y21.9095
G1 X2.2872 Y21.8967
G1 X2.2928 Y21.8842
G1 X2.3264 Y21.8132
G1 X2.3325 Y21.8009
G1 X2.3393 Y21.7889
G1 X2.3797 Y21.7216
G1 X2.3870 Y21.7100
G1 X2.3949 Y21.6988
G1 X2.4417 Y21.6357
G1 X2.4502 Y21.6249
G1 X2.4591 Y21.6145
G1 X2.5119 Y21.5563
G1 X2.5213 Y21.5463
G1 X2.5313 Y21.5369
G1 X2.5895 Y21.4841
G1 X2.5999 Y21.4752
G1 X2.6107 Y21.4667
G1 X2.6738 Y21.4199
G1 X2.6850 Y21.4120
G1 X2.6966 Y21.4047
G1 X2.7639 Y21.3643
G1 X2.7759 Y21.3575
G1 X2.7882 Y21.3514
G1 X2.8592 Y21.3178
G1 X2.8717 Y21.3122
G1 X2.8845 Y21.3073
G1 X2.9585 Y21.2808
G1 X2.9715 Y21.2765
G1 X2.9848 Y21.2729
G1 X3.0609 Y21.2538
G1 X3.0743 Y21.2508
G1 X3.0879 Y21.2484
G1 X3.1655 Y21.2369
G1 X3.1792 Y21.2352
G1 X3.1929 Y21.2342
G1 X3.2713 Y21.2303
G1 X3.2850 Y21.2300
G1 X3.2988 Y21.2303
G1 X3.3772 Y21.2342
G1 X3.3909 Y21.2352
G1 X3.4045 Y21.2369
G1 X3.4822 Y21.2484
G1 X3.4957 Y21.2508
G1 X3.5091 Y21.2538
G1 X3.5853 Y21.2729
G1 X3.5985 Y21.2765
G1 X3.6116 Y21.2808
G1 X3.6855 Y21.3073
G1 X3.6983 Y21.3122
G1 X3.7109 Y21.3178
G1 X3.7818 Y21.3514
G1 X3.7941 Y21.3575
G1 X3.8061 Y21.3643
G1 X3.8734 Y21.4047
G1 X3.8850 Y21.4120
G1 X3.8963 Y21.4199
G1 X3.9593 Y21.4667
G1 X3.9702 Y21.4752
G1 X3.9806 Y21.4841
G1 X4.0387 Y21.5369
G1 X4.0487 Y21.5463
G1 X4.0582 Y21.5563
G1 X4.1109 Y21.6145
G1 X4.1199 Y21.6249
G1 X4.1283 Y21.6357
G1 X4.1751 Y21.6988
G1 X4.1830 Y21.7100
G1 X4.1904 Y21.7216
G1 X4.2307 Y21.7889
G1 X4.2375 Y21.8009
G1 X4.2437 Y21.8132
G1 X4.2772 Y21.8842
G1 X4.2828 Y21.8967
G1 X4.2877 Y21.9095
G1 X4.3142 Y21.9835
G1 X4.3185 Y21.9965
G1 X4.3222 Y22.0098
G1 X4.3412 Y22.0859
G1 X4.3443 Y22.0993
G1 X4.3466 Y22.1129
G1 X4.3581 Y22.1905
G1 X4.3598 Y22.2042
G1 X4.3608 Y22.2179
G1 X4.3647 Y22.2963
G1 X4.3650 Y22.3100
G1 X4.3647 Y22.3238
G1 X4.3608 Y22.4022
G1 X4.3598 Y22.4159
G1 X4.3581 Y22.4295
G1 X4.3466 Y22.5072
G1 X4.3443 Y22.5207
G1 X4.3412 Y22.5341
G1 X4.3222 Y22.6103
G1 X4.3185 Y22.6235
G1 X4.3142 Y22.6366
G1 X4.2877 Y22.7105
G1 X4.2828 Y22.7233
G1 X4.2772 Y22.7359
G1 X4.2437 Y22.8068
G1 X4.2375 Y22.8191
G1 X4.2307 Y22.8311
G1 X4.1904 Y22.8984
G1 X4.1830 Y22.9100
G1 X4.1751 Y22.9213
G1 X4.1283 Y22.9843
G1 X4.1199 Y22.9952
G1 X4.1109 Y23.0056
G1 X4.0582 Y23.0637
G1 X4.0487 Y23.0737
G1 X4.0387 Y23.0832
G1 X3.9806 Y23.1359
G1 X3.9702 Y23.1449
G1 X3.9593 Y23.1533
G1 X3.8963 Y23.2001
G1 X3.8850 Y23.2080
G1 X3.8734 Y23.2154
G1 X3.8061 Y23.2557
G1 X3.7941 Y23.2625
G1 X3.7818 Y23.2687
G1 X3.7109 Y23.3022
G1 X3.6983 Y23.3078
G1 X3.6855 Y23.3127
G1 X3.6116 Y23.3392
G1 X3.5985 Y23.3435
G1 X3.5853 Y23.3472
G1 X3.5091 Y23.3662
G1 X3.4957 Y23.3693
G1 X3.4822 Y23.3716
G1 X3.4045 Y23.3831
G1 X3.3909 Y23.3848
G1 X3.3772 Y23.3858
G1 X3.2988 Y23.3897
G1 X3.2850 Y23.3900
G1 X3.2713 Y23.3897
G1 X3.1929 Y23.3858
G1 X3.1792 Y23.3848
G1 X3.1655 Y23.3831
G1 X3.0879 Y23.3716
G1 X3.0743 Y23.3693
G1 X3.0609 Y23.3662
G1 X2.9848 Y23.3472
G1 X2.9715 Y23.3435
G1 X2.9585 Y23.3392
G1 X2.8845 Y23.3127
G1 X2.8717 Y23.3078
G1 X2.8592 Y23.3022
G1 X2.7882 Y23.2687
G1 X2.7759 Y23.2625
G1 X2.7639 Y23.2557
G1 X2.6966 Y23.2154
G1 X2.6850 Y23.2080
G1 X2.6738 Y23.2001
G1 X2.6107 Y23.1533
G1 X2.5999 Y23.1449
G1 X2.5895 Y23.1359
G1 X2.5313 Y23.0832
G1 X2.5213 Y23.0737
G1 X2.5119 Y23.0637
G1 X2.4591 Y23.0056
G1 X2.4502 Y22.9952
G1 X2.4417 Y22.9843
G1 X2.3949 Y22.9213
G1 X2.3870 Y22.9100
G1 X2.3797 Y22.8984
G1 X2.3393 Y22.8311
G1 X2.3325 Y22.8191
G1 X2.3264 Y22.8068
G1 X2.2928 Y22.7359
G1 X2.2872 Y22.7233
G1 X2.2823 Y22.7105
G1 X2.2558 Y22.6366
G1 X2.2515 Y22.6235
G1 X2.2479 Y22.6103
G1 X2.2288 Y22.5341
G1 X2.2258 Y22.5207
G1 X2.2234 Y22.5072
G1 X2.2119 Y22.4295
G1 X2.2102 Y22.4159
G1 X2.2092 Y22.4022
G1 X2.2053 Y22.3238
G1 X2.2050 Y22.3100
G1 X2.2053 Y22.2963
G1 X2.2092 Y22.2179
G1 X2.2102 Y22.2042
G1 X2.2119 Y22.1905
G0 Z2.0000
G0 X2.3452 Y23.1478
F1000
G1 Z0.0000 F1000
F700
G1 X2.3785 Y23.1846
G1 X2.3941 Y23.2010
G1 X2.4104 Y23.2165
G1 X2.4770 Y23.2767
G1 X2.4857 Y23.2840
G1 X2.5035 Y23.2979
G1 X2.5757 Y23.3513
G1 X2.5850 Y23.3577
G1 X2.6041 Y23.3697
G1 X2.6714 Y23.4101
G1 X2.6911 Y23.4212
G1 X2.7112 Y23.4314
G1 X2.7925 Y23.4697
G1 X2.8028 Y23.4741
G1 X2.8239 Y23.4822
G1 X2.8978 Y23.5087
G1 X2.9193 Y23.5158
G1 X2.9410 Y23.5218
G1 X3.0172 Y23.5409
G1 X3.0392 Y23.5458
G1 X3.0614 Y23.5497
G1 X3.1391 Y23.5612
G1 X3.1615 Y23.5639
G1 X3.1840 Y23.5656
G1 X3.2624 Y23.5695
G1 X3.2850 Y23.5700
G1 X3.3076 Y23.5695
G1 X3.3860 Y23.5656
G1 X3.4085 Y23.5639
G1 X3.4309 Y23.5612
G1 X3.5086 Y23.5497
G1 X3.5308 Y23.5458
G1 X3.5529 Y23.5409
G1 X3.6290 Y23.5218
G1 X3.6508 Y23.5158
G1 X3.6722 Y23.5087
G1 X3.7461 Y23.4822
G1 X3.7672 Y23.4741
G1 X3.7776 Y23.4697
G1 X3.8588 Y23.4314
G1 X3.8790 Y23.4212
G1 X3.8986 Y23.4101
G1 X3.9660 Y23.3697
G1 X3.9850 Y23.3577
G1 X3.9943 Y23.3513
G1 X4.0665 Y23.2979
G1 X4.0755 Y23.2911
G1 X4.0930 Y23.2767
G1 X4.1596 Y23.2165
G1 X4.1760 Y23.2010
G1 X4.1915 Y23.1846
G1 X4.2249 Y23.1478
G1 X4.2249 Y24.0122
G1 X4.1915 Y23.9754
G1 X4.1760 Y23.9591
G1 X4.1596 Y23.9435
G1 X4.0930 Y23.8833
G1 X4.0843 Y23.8760
G1 X4.0665 Y23.8621
G1 X3.9943 Y23.8087
G1 X3.9756 Y23.7962
G1 X3.9660 Y23.7903
G1 X3.8986 Y23.7499
G1 X3.8790 Y23.7388
G1 X3.8588 Y23.7286
G1 X3.7776 Y23.6904
G1 X3.7672 Y23.6859
G1 X3.7461 Y23.6778
G1 X3.6722 Y23.6513
G1 X3.6508 Y23.6443
G1 X3.6290 Y23.6382
G1 X3.5529 Y23.6192
G1 X3.5308 Y23.6142
G1 X3.5086 Y23.6104
G1 X3.4309 Y23.5988
G1 X3.4085 Y23.5961
G1 X3.3860 Y23.5944
G1 X3.3076 Y23.5906
G1 X3.2850 Y23.5900
G1 X3.2624 Y23.5906
G1 X3.1840 Y23.5944
G1 X3.1615 Y23.5961
G1 X3.1391 Y23.5988
G1 X3.0614 Y23.6104
G1 X3.0392 Y23.6142
G1 X3.0172 Y23.6192
G1 X2.9410 Y23.6382
G1 X2.9193 Y23.6443
G1 X2.8978 Y23.6513
G1 X2.8239 Y23.6778
G1 X2.8133 Y23.6817
G1 X2.7925 Y23.6904
G1 X2.7112 Y23.7286
G1 X2.6911 Y23.7388
G1 X2.6714 Y23.7499
G1 X2.6041 Y23.7903
G1 X2.5850 Y23.8024
G1 X2.5757 Y23.8087
G1 X2.5035 Y23.8621
G1 X2.4945 Y23.8690
G1 X2.4770 Y23.8833
G1 X2.4104 Y23.9435
G1 X2.3941 Y23.9591
G1 X2.3785 Y23.9754
G1 X2.3452 Y24.0122
G1 X2.3452 Y23.1478
G0 Z2.0000
G0 X2.5252 Y23.5323
F1000
G1 Z0.0000 F1000
F700
G1 X2.5789 Y23.5645
G1 X2.6063 Y23.5800
G1 X2.5789 Y23.5955
G1 X2.5252 Y23.6277
G1 X2.5252 Y23.5323
G0 Z2.0000
G0 X2.3899 Y24.7569
F1000
G1 Z0.0000 F1000
F700
G1 X2.4023 Y24.6744
G1 X2.4238 Y24.5888
G1 X2.4535 Y24.5056
G1 X2.4913 Y24.4258
G1 X2.5367 Y24.3500
G1 X2.5893 Y24.2791
G1 X2.6486 Y24.2136
G1 X2.7141 Y24.1543
G1 X2.7850 Y24.1017
G1 X2.8608 Y24.0563
G1 X2.9406 Y24.0185
G1 X3.0238 Y23.9888
G1 X3.1094 Y23.9673
G1 X3.1968 Y23.9543
G1 X3.2850 Y23.9500
G1 X3.3732 Y23.9543
G1 X3.4606 Y23.9673
G1 X3.5463 Y23.9888
G1 X3.6294 Y24.0185
G1 X3.7093 Y24.0563
G1 X3.7850 Y24.1017
G1 X3.8560 Y24.1543
G1 X3.9214 Y24.2136
G1 X3.9807 Y24.2791
G1 X4.0333 Y24.3500
G1 X4.0787 Y24.4258
G1 X4.1165 Y24.5056
G1 X4.1463 Y24.5888
G1 X4.1677 Y24.6744
G1 X4.1807 Y24.7618
G1 X4.1850 Y24.8500
G1 X4.1807 Y24.9382
G1 X4.1677 Y25.0256
G1 X4.1463 Y25.1113
G1 X4.1165 Y25.1944
G1 X4.0787 Y25.2743
G1 X4.0333 Y25.3500
G1 X3.9807 Y25.4210
G1 X3.9214 Y25.4864
G1 X3.8560 Y25.5457
G1 X3.7850 Y25.5983
G1 X3.7093 Y25.6437
G1 X3.6294 Y25.6815
G1 X3.5463 Y25.7113
G1 X3.4606 Y25.7327
G1 X3.3732 Y25.7457
G1 X3.2850 Y25.7500
G1 X3.1968 Y25.7457
G1 X3.1094 Y25.7327
G1 X3.0238 Y25.7113
G1 X2.9406 Y25.6815
G1 X2.8608 Y25.6437
G1 X2.7850 Y25.5983
G1 X2.7141 Y25.5457
G1 X2.6486 Y25.4864
G1 X2.5893 Y25.4210
G1 X2.5367 Y25.3500
G1 X2.4913 Y25.2743
G1 X2.4535 Y25.1944
G1 X2.4238 Y25.1113
G1 X2.4023 Y25.0256
G1 X2.3893 Y24.9382
G1 X2.3850 Y24.8500
G1 X2.3890 Y24.7667
G1 X2.3899 Y24.7569
G0 Z2.0000
G0 X2.2119 Y24.7305
F1000
G1 Z0.0000 F1000
F700
G1 X2.2234 Y24.6529
G1 X2.2258 Y24.6393
G1 X2.2288 Y24.6259
G1 X2.2479 Y24.5498
G1 X2.2515 Y24.5365
G1 X2.2558 Y24.5235
G1 X2.2823 Y24.4495
G1 X2.2872 Y24.4367
G1 X2.2928 Y24.4242
G1 X2.3264 Y24.3532
G1 X2.3325 Y24.3409
G1 X2.3393 Y24.3289
G1 X2.3797 Y24.2616
G1 X2.3870 Y24.2500
G1 X2.3949 Y24.2388
G1 X2.4417 Y24.1757
G1 X2.4502 Y24.1649
G1 X2.4591 Y24.1545
G1 X2.5119 Y24.0963
G1 X2.5213 Y24.0863
G1 X2.5313 Y24.0769
G1 X2.5895 Y24.0241
G1 X2.5999 Y24.0152
G1 X2.6107 Y24.0067
G1 X2.6738 Y23.9599
G1 X2.6850 Y23.9520
G1 X2.6966 Y23.9447
G1 X2.7639 Y23.9043
G1 X2.7759 Y23.8975
G1 X2.7882 Y23.8914
G1 X2.8592 Y23.8578
G1 X2.8717 Y23.8522
G1 X2.8845 Y23.8473
G1 X2.9585 Y23.8208
G1 X2.9715 Y23.8165
G1 X2.9848 Y23.8129
G1 X3.0609 Y23.7938
G1 X3.0743 Y23.7908
G1 X3.0879 Y23.7884
G1 X3.1655 Y23.7769
G1 X3.1792 Y23.7752
G1 X3.1929 Y23.7742
G1 X3.2713 Y23.7703
G1 X3.2850 Y23.7700
G1 X3.2988 Y23.7703
G1 X3.3772 Y23.7742
G1 X3.3909 Y23.7752
G1 X3.4045 Y23.7769
G1 X3.4822 Y23.7884
G1 X3.4957 Y23.7908
G1 X3.5091 Y23.7938
G1 X3.5853 Y23.8129
G1 X3.5985 Y23.8165
G1 X3.6116 Y23.8208
G1 X3.6855 Y23.8473
G1 X3.6983 Y23.8522
G1 X3.7109 Y23.8578
G1 X3.7818 Y23.8914
G1 X3.7941 Y23.8975
G1 X3.8061 Y23.9043
G1 X3.8734 Y23.9447
G1 X3.8850 Y23.9520
G1 X3.8963 Y23.9599
G1 X3.9593 Y24.0067
G1 X3.9702 Y24.0152
G1 X3.9806 Y24.0241
G1 X4.0387 Y24.0769
G1 X4.0487 Y24.0863
G1 X4.0582 Y24.0963
G1 X4.1109 Y24.1545
G1 X4.1199 Y24.1649
G1 X4.1283 Y24.1757
G1 X4.1751 Y24.2388
G1 X4.1830 Y24.2500
G1 X4.1904 Y24.2616
G1 X4.2307 Y24.3289
G1 X4.2375 Y24.3409
G1 X4.2437 Y24.3532
G1 X4.2772 Y24.4242
G1 X4.2828 Y24.4367
G1 X4.2877 Y24.4495
G1 X4.3142 Y24.5235
G1 X4.3185 Y24.5365
G1 X4.3222 Y24.5498
G1 X4.3412 Y24.6259
G1 X4.3443 Y24.6393
G1 X4.3466 Y24.6529
G1 X4.3581 Y24.7305
G1 X4.3598 Y24.7442
G1 X4.3608 Y24.7579
G1 X4.3647 Y24.8363
G1 X4.3650 Y24.8500
G1 X4.3647 Y24.8638
G1 X4.3608 Y24.9422
G1 X4.3598 Y24.9559
G1 X4.3581 Y24.9695
G1 X4.3466 Y25.0472
G1 X4.3443 Y25.0607
G1 X4.3412 Y25.0741
G1 X4.3222 Y25.1503
G1 X4.3185 Y25.1635
G1 X4.3142 Y25.1766
G1 X4.2877 Y25.2505
G1 X4.2828 Y25.2633
G1 X4.2772 Y25.2759
G1 X4.2437 Y25.3468
G1 X4.2375 Y25.3591
G1 X4.2307 Y25.3711
G1 X4.1904 Y25.4384
G1 X4.1830 Y25.4500
G1 X4.1751 Y25.4613
G1 X4.1283 Y25.5243
G1 X4.1199 Y25.5352
G1 X4.1109 Y25.5456
G1 X4.0582 Y25.6037
G1 X4.0487 Y25.6137
G1 X4.0387 Y25.6232
G1 X3.9806 Y25.6759
G1 X3.9702 Y25.6849
G1 X3.9593 Y25.6933
G1 X3.8963 Y25.7401
G1 X3.8850 Y25.7480
G1 X3.8734 Y25.7554
G1 X3.8061 Y25.7957
G1 X3.7941 Y25.8025
G1 X3.7818 Y25.8087
G1 X3.7109 Y25.8422
G1 X3.6983 Y25.8478
G1 X3.6855 Y25.8527
G1 X3.6116 Y25.8792
G1 X3.5985 Y25.8835
G1 X3.5853 Y25.8872
G1 X3.5091 Y25.9062
G1 X3.4957 Y25.9093
G1 X3.4822 Y25.9116
G1 X3.4045 Y25.9231
G1 X3.3909 Y25.9248
G1 X3.3772 Y25.9258
G1 X3.2988 Y25.9297
G1 X3.2850 Y25.9300
G1 X3.2713 Y25.9297
G1 X3.1929 Y25.9258
G1 X3.1792 Y25.9248
G1 X3.1655 Y25.9231
G1 X3.0879 Y25.9116
G1 X3.0743 Y25.9093
G1 X3.0609 Y25.9062
G1 X2.9848 Y25.8872
G1 X2.9715 Y25.8835
G1 X2.9585 Y25.8792
G1 X2.8845 Y25.8527
G1 X2.8717 Y25.8478
G1 X2.8592 Y25.8422
G1 X2.7882 Y25.8087
G1 X2.7759 Y25.8025
G1 X2.7639 Y25.7957
G1 X2.6966 Y25.7554
G1 X2.6850 Y25.7480
G1 X2.6738 Y25.7401
G1 X2.6107 Y25.6933
G1 X2.5999 Y25.6849
G1 X2.5895 Y25.6759
G1 X2.5313 Y25.6232
G1 X2.5213 Y25.6137
G1 X2.5119 Y25.6037
G1 X2.4591 Y25.5456
G1 X2.4502 Y25.5352
G1 X2.4417 Y25.5243
G1 X2.3949 Y25.4613
G1 X2.3870 Y25.4500
G1 X2.3797 Y25.4384
G1 X2.3393 Y25.3711
G1 X2.3325 Y25.3591
G1 X2.3264 Y25.3468
G1 X2.2928 Y25.2759
G1 X2.2872 Y25.2633
G1 X2.2823 Y25.2505
G1 X2.2558 Y25.1766
G1 X2.2515 Y25.1635
G1 X2.2479 Y25.1503
G1 X2.2288 Y25.0741
G1 X2.2258 Y25.0607
G1 X2.2234 Y25.0472
G1 X2.2119 Y24.9695
G1 X2.2102 Y24.9559
G1 X2.2092 Y24.9422
G1 X2.2053 Y24.8638
G1 X2.2050 Y24.8500
G1 X2.2053 Y24.8363
G1 X2.2092 Y24.7579
G1 X2.2102 Y24.7442
G1 X2.2119 Y24.7305
G0 Z2.0000
G0 X2.3452 Y25.6878
F1000
G1 Z0.0000 F1000
F700
G1 X2.3785 Y25.7246
G1 X2.3941 Y25.7410
G1 X2.4104 Y25.7565
G1 X2.4770 Y25.8167
G1 X2.4857 Y25.8240
G1 X2.5035 Y25.8379
G1 X2.5665 Y25.8847
G1 X2.5850 Y25.8977
G1 X2.6041 Y25.9097
G1 X2.6714 Y25.9501
G1 X2.6911 Y25.9612
G1 X2.7112 Y25.9714
G1 X2.7822 Y26.0050
G1 X2.8028 Y26.0141
G1 X2.8239 Y26.0222
G1 X2.8978 Y26.0487
G1 X2.9193 Y26.0558
G1 X2.9410 Y26.0618
G1 X3.0172 Y26.0809
G1 X3.0392 Y26.0858
G1 X3.0614 Y26.0897
G1 X3.1391 Y26.1012
G1 X3.1615 Y26.1039
G1 X3.1728 Y26.1049
G1 X3.2737 Y26.1099
G1 X3.2850 Y26.1100
G1 X3.3076 Y26.1095
G1 X3.3860 Y26.1056
G1 X3.4085 Y26.1039
G1 X3.4309 Y26.1012
G1 X3.5107 Y26.0893
G1 X3.4573 Y26.1428
G1 X3.4197 Y26.1373
G1 X3.3973 Y26.1351
G1 X3.2963 Y26.1302
G1 X3.2850 Y26.1300
G1 X3.2624 Y26.1306
G1 X3.1840 Y26.1344
G1 X3.1728 Y26.1351
G1 X3.1503 Y26.1373
G1 X3.0614 Y26.1504
G1 X3.0392 Y26.1542
G1 X3.0172 Y26.1592
G1 X2.9410 Y26.1782
G1 X2.9301 Y26.1811
G1 X2.9085 Y26.1877
G1 X2.8133 Y26.2217
G1 X2.8028 Y26.2259
G1 X2.7822 Y26.2351
G1 X2.7112 Y26.2686
G1 X2.6911 Y26.2788
G1 X2.6714 Y26.2899
G1 X2.6041 Y26.3303
G1 X2.5945 Y26.3362
G1 X2.5757 Y26.3487
G1 X2.5035 Y26.4021
G1 X2.4945 Y26.4090
G1 X2.4770 Y26.4233
G1 X2.4104 Y26.4835
G1 X2.3941 Y26.4991
G1 X2.3785 Y26.5154
G1 X2.3452 Y26.5522
G1 X2.3452 Y25.6878
G0 Z2.0000
G0 X2.5252 Y26.0723
F1000
G1 Z0.0000 F1000
F700
G1 X2.5789 Y26.1045
G1 X2.6063 Y26.1200
G1 X2.5789 Y26.1355
G1 X2.5252 Y26.1677
G1 X2.5252 Y26.0723
G0 Z2.0000
G0 X2.3899 Y27.2969
F1000
G1 Z0.0000 F1000
F700
G1 X2.4023 Y27.2144
G1 X2.4238 Y27.1288
G1 X2.4535 Y27.0456
G1 X2.4913 Y26.9658
G1 X2.5367 Y26.8900
G1 X2.5893 Y26.8191
G1 X2.6486 Y26.7536
G1 X2.7141 Y26.6943
G1 X2.7810 Y26.6445
G1 X2.7891 Y26.6391
G1 X2.8608 Y26.5963
G1 X2.9361 Y26.5605
G1 X2.9452 Y26.5568
G1 X3.0238 Y26.5288
G1 X3.1046 Y26.5084
G1 X3.1118 Y26.5069
G1 X3.1968 Y26.4943
G1 X3.2801 Y26.4901
G1 X3.2899 Y26.4901
G1 X3.3708 Y26.4941
G1 X3.4558 Y26.5065
G1 X3.4630 Y26.5078
G1 X3.5439 Y26.5281
G1 X3.5715 Y26.5377
G1 X4.5849 Y25.5243
G1 X4.5849 Y20.5876
G1 X4.5868 Y20.5508
G1 X4.5917 Y20.5168
G1 X4.5936 Y20.5072
G1 X4.6008 Y20.4786
G1 X4.6036 Y20.4692
G1 X4.6153 Y20.4369
G1 X4.6321 Y20.4014
G1 X4.6523 Y20.3677
G1 X4.6742 Y20.3381
G1 X4.7021 Y20.3071
G1 X17.3838 Y7.6253
G1 X17.4112 Y7.6007
G1 X17.4427 Y7.5773
G1 X17.4764 Y7.5571
G1 X17.5119 Y7.5403
G1 X17.5489 Y7.5271
G1 X17.5869 Y7.5176
G1 X17.6258 Y7.5118
G1 X17.6626 Y7.5099
G1 X23.4100 Y7.5099
G1 X23.4492 Y7.5118
G1 X23.4881 Y7.5176
G1 X23.5262 Y7.5271
G1 X23.5586 Y7.5386
G1 X23.5676 Y7.5423
G1 X23.5986 Y7.5571
G1 X23.6323 Y7.5773
G1 X23.6639 Y7.6007
G1 X23.6930 Y7.6271
G1 X38.5680 Y22.5021
G1 X38.5943 Y22.5312
G1 X38.6177 Y22.5627
G1 X38.6379 Y22.5964
G1 X38.6527 Y22.6274
G1 X38.6565 Y22.6365
G1 X38.6679 Y22.6689
G1 X38.6775 Y22.7069
G1 X38.6832 Y22.7458
G1 X38.6852 Y22.7850
G1 X38.6852 Y38.1645
G1 X38.7350 Y38.1884
G1 X38.8107 Y38.2338
G1 X38.8838 Y38.2876
G1 X38.8896 Y38.2922
G1 X38.9568 Y38.3533
G1 X39.0162 Y38.4186
G1 X39.0224 Y38.4262
G1 X39.0762 Y38.4993
G1 X39.1228 Y38.5772
G1 X39.1607 Y38.6570
G1 X39.1645 Y38.6660
G1 X39.1941 Y38.7492
G1 X39.2168 Y38.8397
G1 X39.2298 Y38.9270
G1 X39.2308 Y38.9368
G1 X39.2350 Y39.0250
G1 X39.2308 Y39.1132
G1 X39.2298 Y39.1230
G1 X39.2168 Y39.2103
G1 X39.1941 Y39.3008
G1 X39.1645 Y39.3840
G1 X39.1607 Y39.3930
G1 X39.1228 Y39.4728
G1 X39.0762 Y39.5507
G1 X39.0224 Y39.6238
G1 X39.0162 Y39.6314
G1 X38.9568 Y39.6968
G1 X38.8896 Y39.7578
G1 X38.8838 Y39.7624
G1 X38.8107 Y39.8162
G1 X38.7350 Y39.8617
G1 X38.6852 Y39.8855
G1 X38.6852 Y40.1793
G1 X40.5280 Y42.0221
G1 X40.5543 Y42.0512
G1 X40.5777 Y42.0827
G1 X40.5979 Y42.1164
G1 X40.6127 Y42.1474
G1 X40.6165 Y42.1565
G1 X40.6279 Y42.1889
G1 X40.6375 Y42.2269
G1 X40.6432 Y42.2658
G1 X40.6451 Y42.3026
G1 X40.6452 Y44.1645
G1 X40.6950 Y44.1884
G1 X40.7687 Y44.2325
G1 X40.7748 Y44.2365
G1 X40.8477 Y44.2907
G1 X40.9132 Y44.3499
G1 X40.9185 Y44.3550
G1 X40.9794 Y44.4223
G1 X41.0349 Y44.4972
G1 X41.0828 Y44.5772
G1 X41.1207 Y44.6570
G1 X41.1236 Y44.6637
G1 X41.1541 Y44.7492
G1 X41.1768 Y44.8397
G1 X41.1904 Y44.9319
G1 X41.1950 Y45.0250
G1 X41.1904 Y45.1181
G1 X41.1768 Y45.2103
G1 X41.1541 Y45.3008
G1 X41.1245 Y45.3840
G1 X41.1207 Y45.3930
G1 X41.0828 Y45.4728
G1 X41.0375 Y45.5487
G1 X41.0321 Y45.5568
G1 X40.9794 Y45.6277
G1 X40.9201 Y45.6932
G1 X40.9132 Y45.7001
G1 X40.8477 Y45.7594
G1 X40.7768 Y45.8121
G1 X40.7687 Y45.8175
G1 X40.6928 Y45.8628
G1 X40.6130 Y45.9007
G1 X40.6040 Y45.9045
G1 X40.5208 Y45.9341
G1 X40.4351 Y45.9557
G1 X40.4255 Y45.9576
G1 X40.3381 Y45.9704
G1 X40.2450 Y45.9750
G1 X40.1568 Y45.9708
G1 X40.1470 Y45.9698
G1 X40.0597 Y45.9568
G1 X39.9740 Y45.9354
G1 X39.9646 Y45.9326
G1 X39.8815 Y45.9027
G1 X39.8016 Y45.8650
G1 X39.7929 Y45.8604
G1 X39.7214 Y45.8175
G1 X39.7132 Y45.8121
G1 X39.6423 Y45.7594
G1 X39.5768 Y45.7001
G1 X39.5699 Y45.6932
G1 X39.5107 Y45.6277
G1 X39.4579 Y45.5568
G1 X39.4525 Y45.5487
G1 X39.4072 Y45.4728
G1 X39.3673 Y45.3886
G1 X39.3359 Y45.3008
G1 X39.3143 Y45.2151
G1 X39.3124 Y45.2055
G1 X39.3002 Y45.1230
G1 X39.2992 Y45.1132
G1 X39.2950 Y45.0250
G1 X39.2992 Y44.9368
G1 X39.2999 Y44.9295
G1 X39.3124 Y44.8445
G1 X39.3143 Y44.8349
G1 X39.3359 Y44.7492
G1 X39.3656 Y44.6660
G1 X39.3693 Y44.6570
G1 X39.4072 Y44.5772
G1 X39.4525 Y44.5014
G1 X39.4565 Y44.4952
G1 X39.5076 Y44.4262
G1 X39.5139 Y44.4186
G1 X39.5733 Y44.3533
G1 X39.6405 Y44.2922
G1 X39.6462 Y44.2876
G1 X39.7193 Y44.2338
G1 X39.7950 Y44.1884
G1 X39.8449 Y44.1645
G1 X39.8449 Y42.4708
G1 X38.0021 Y40.6280
G1 X37.9789 Y40.6026
G1 X37.9727 Y40.5950
G1 X37.9523 Y40.5673
G1 X37.9345 Y40.5379
G1 X37.9299 Y40.5293
G1 X37.9153 Y40.4981
G1 X37.9036 Y40.4658
G1 X37.9008 Y40.4564
G1 X37.8926 Y40.4231
G1 X37.8871 Y40.3867
G1 X37.8849 Y40.3450
G1 X37.8849 Y39.8855
G1 X37.8350 Y39.8617
G1 X37.7593 Y39.8162
G1 X37.6862 Y39.7624
G1 X37.6805 Y39.7578
G1 X37.6133 Y39.6968
G1 X37.5539 Y39.6314
G1 X37.5476 Y39.6238
G1 X37.4965 Y39.5548
G1 X37.4925 Y39.5487
G1 X37.4472 Y39.4728
G1 X37.4093 Y39.3930
G1 X37.4056 Y39.3840
G1 X37.3775 Y39.3054
G1 X37.3746 Y39.2961
G1 X37.3533 Y39.2103
G1 X37.3402 Y39.1230
G1 X37.3392 Y39.1132
G1 X37.3351 Y39.0299
G1 X37.3351 Y39.0201
G1 X37.3396 Y38.9319
G1 X37.3533 Y38.8397
G1 X37.3759 Y38.7492
G1 X37.4056 Y38.6660
G1 X37.4093 Y38.6570
G1 X37.4484 Y38.5750
G1 X37.4951 Y38.4972
G1 X37.5476 Y38.4262
G1 X37.5539 Y38.4186
G1 X37.6150 Y38.3515
G1 X37.6823 Y38.2907
G1 X37.7552 Y38.2365
G1 X37.7614 Y38.2325
G1 X37.8350 Y38.1884
G1 X37.8849 Y38.1645
G1 X37.8849 Y22.9508
G1 X23.2443 Y8.3102
G1 X17.8308 Y8.3102
G1 X5.3852 Y20.7558
G1 X5.3852 Y25.6900
G1 X5.3832 Y25.7292
G1 X5.3775 Y25.7681
G1 X5.3679 Y25.8062
G1 X5.3537 Y25.8454
G1 X5.3379 Y25.8786
G1 X5.3177 Y25.9123
G1 X5.2943 Y25.9439
G1 X5.2697 Y25.9712
G1 X4.1374 Y27.1036
G1 X4.1469 Y27.1311
G1 X4.1666 Y27.2096
G1 X4.1682 Y27.2168
G1 X4.1807 Y27.3018
G1 X4.1849 Y27.3851
G1 X4.1850 Y27.3925
G1 X4.1807 Y27.4782
G1 X4.1677 Y27.5656
G1 X4.1463 Y27.6513
G1 X4.1174 Y27.7321
G1 X4.1145 Y27.7389
G1 X4.0787 Y27.8143
G1 X4.0333 Y27.8900
G1 X3.9807 Y27.9610
G1 X3.9248 Y28.0229
G1 X3.9179 Y28.0298
G1 X3.8597 Y28.0825
G1 X3.8521 Y28.0887
G1 X3.7850 Y28.1383
G1 X3.7135 Y28.1813
G1 X3.7071 Y28.1849
G1 X3.6294 Y28.2215
G1 X3.5509 Y28.2497
G1 X3.5415 Y28.2526
G1 X3.4606 Y28.2727
G1 X3.3781 Y28.2851
G1 X3.3683 Y28.2860
G1 X3.2850 Y28.2900
G1 X3.2017 Y28.2860
G1 X3.1919 Y28.2851
G1 X3.1094 Y28.2727
G1 X3.0285 Y28.2526
G1 X3.0191 Y28.2497
G1 X2.9406 Y28.2215
G1 X2.8651 Y28.1859
G1 X2.8565 Y28.1813
G1 X2.7850 Y28.1383
G1 X2.7141 Y28.0857
G1 X2.6522 Y28.0298
G1 X2.6452 Y28.0229
G1 X2.5893 Y27.9610
G1 X2.5395 Y27.8940
G1 X2.5341 Y27.8859
G1 X2.4913 Y27.8143
G1 X2.4555 Y27.7389
G1 X2.4518 Y27.7298
G1 X2.4238 Y27.6513
G1 X2.4034 Y27.5704
G1 X2.4015 Y27.5608
G1 X2.3893 Y27.4782
G1 X2.3851 Y27.3949
G1 X2.3851 Y27.3851
G1 X2.3890 Y27.3067
G1 X2.3899 Y27.2969
G0 Z2.0000
G0 X2.2119 Y27.2705
F1000
G1 Z0.0000 F1000
F700
G1 X2.2234 Y27.1929
G1 X2.2258 Y27.1793
G1 X2.2288 Y27.1659
G1 X2.2479 Y27.0898
G1 X2.2515 Y27.0765
G1 X2.2558 Y27.0635
G1 X2.2823 Y26.9895
G1 X2.2872 Y26.9767
G1 X2.2928 Y26.9642
G1 X2.3264 Y26.8932
G1 X2.3325 Y26.8809
G1 X2.3393 Y26.8689
G1 X2.3797 Y26.8016
G1 X2.3870 Y26.7900
G1 X2.3949 Y26.7788
G1 X2.4417 Y26.7157
G1 X2.4502 Y26.7049
G1 X2.4591 Y26.6945
G1 X2.5119 Y26.6363
G1 X2.5213 Y26.6263
G1 X2.5313 Y26.6169
G1 X2.5895 Y26.5641
G1 X2.5999 Y26.5552
G1 X2.6107 Y26.5467
G1 X2.6738 Y26.4999
G1 X2.6850 Y26.4920
G1 X2.6966 Y26.4847
G1 X2.7639 Y26.4443
G1 X2.7759 Y26.4375
G1 X2.7882 Y26.4314
G1 X2.8592 Y26.3978
G1 X2.8717 Y26.3922
G1 X2.8845 Y26.3873
G1 X2.9585 Y26.3608
G1 X2.9781 Y26.3546
G1 X3.0609 Y26.3338
G1 X3.0743 Y26.3308
G1 X3.0879 Y26.3284
G1 X3.1655 Y26.3169
G1 X3.1792 Y26.3152
G1 X3.1929 Y26.3142
G1 X3.2713 Y26.3103
G1 X3.2850 Y26.3100
G1 X3.2988 Y26.3103
G1 X3.3772 Y26.3142
G1 X3.3977 Y26.3160
G1 X3.4890 Y26.3295
G1 X3.5024 Y26.3322
G1 X3.5185 Y26.3361
G1 X4.4049 Y25.4497
G1 X4.4049 Y20.5831
G1 X4.4066 Y20.5469
G1 X4.4077 Y20.5331
G1 X4.4093 Y20.5195
G1 X4.4148 Y20.4836
G1 X4.4174 Y20.4701
G1 X4.4262 Y20.4348
G1 X4.4298 Y20.4216
G1 X4.4342 Y20.4086
G1 X4.4490 Y20.3680
G1 X4.4672 Y20.3288
G1 X4.4734 Y20.3165
G1 X4.4801 Y20.3046
G1 X4.5026 Y20.2677
G1 X4.5105 Y20.2565
G1 X4.5323 Y20.2273
G1 X4.5455 Y20.2116
G1 X4.5748 Y20.1798
G1 X17.2548 Y7.4998
G1 X17.2647 Y7.4903
G1 X17.2970 Y7.4616
G1 X17.3078 Y7.4531
G1 X17.3427 Y7.4276
G1 X17.3796 Y7.4051
G1 X17.3915 Y7.3984
G1 X17.4038 Y7.3922
G1 X17.4430 Y7.3740
G1 X17.4836 Y7.3592
G1 X17.4966 Y7.3548
G1 X17.5384 Y7.3440
G1 X17.5518 Y7.3410
G1 X17.5654 Y7.3387
G1 X17.6081 Y7.3327
G1 X17.6219 Y7.3316
G1 X17.6581 Y7.3299
G1 X23.4100 Y7.3299
G1 X23.4238 Y7.3302
G1 X23.4669 Y7.3327
G1 X23.5097 Y7.3387
G1 X23.5299 Y7.3424
G1 X23.5652 Y7.3512
G1 X23.5850 Y7.3569
G1 X23.6256 Y7.3715
G1 X23.6446 Y7.3796
G1 X23.6835 Y7.3984
G1 X23.6955 Y7.4051
G1 X23.7323 Y7.4276
G1 X23.7672 Y7.4531
G1 X23.7781 Y7.4616
G1 X23.7885 Y7.4705
G1 X23.8202 Y7.4998
G1 X38.6952 Y22.3748
G1 X38.7245 Y22.4066
G1 X38.7335 Y22.4170
G1 X38.7419 Y22.4278
G1 X38.7674 Y22.4627
G1 X38.7899 Y22.4996
G1 X38.7967 Y22.5115
G1 X38.8154 Y22.5504
G1 X38.8236 Y22.5694
G1 X38.8381 Y22.6101
G1 X38.8438 Y22.6298
G1 X38.8526 Y22.6651
G1 X38.8564 Y22.6854
G1 X38.8624 Y22.7281
G1 X38.8648 Y22.7713
G1 X38.8652 Y22.7850
G1 X38.8652 Y38.0565
G1 X38.9012 Y38.0781
G1 X38.9185 Y38.0893
G1 X38.9965 Y38.1472
G1 X39.0123 Y38.1605
G1 X39.0741 Y38.2165
G1 X39.0888 Y38.2309
G1 X39.1495 Y38.2977
G1 X39.1585 Y38.3081
G1 X39.1670 Y38.3190
G1 X39.2167 Y38.3860
G1 X39.2246 Y38.3972
G1 X39.2319 Y38.4088
G1 X39.2783 Y38.4863
G1 X39.2878 Y38.5046
G1 X39.3234 Y38.5800
G1 X39.3290 Y38.5926
G1 X39.3339 Y38.6054
G1 X39.3620 Y38.6839
G1 X39.3664 Y38.6970
G1 X39.3700 Y38.7102
G1 X39.3903 Y38.7912
G1 X39.3933 Y38.8046
G1 X39.3956 Y38.8181
G1 X39.4079 Y38.9006
G1 X39.4096 Y38.9143
G1 X39.4106 Y38.9280
G1 X39.4147 Y39.0113
G1 X39.4150 Y39.0250
G1 X39.4147 Y39.0388
G1 X39.4106 Y39.1221
G1 X39.4096 Y39.1358
G1 X39.4079 Y39.1494
G1 X39.3956 Y39.2319
G1 X39.3933 Y39.2455
G1 X39.3903 Y39.2589
G1 X39.3700 Y39.3398
G1 X39.3664 Y39.3530
G1 X39.3620 Y39.3661
G1 X39.3339 Y39.4446
G1 X39.3290 Y39.4574
G1 X39.3234 Y39.4700
G1 X39.2847 Y39.5516
G1 X39.2748 Y39.5696
G1 X39.2319 Y39.6412
G1 X39.2246 Y39.6528
G1 X39.2167 Y39.6640
G1 X39.1670 Y39.7310
G1 X39.1585 Y39.7419
G1 X39.1495 Y39.7523
G1 X39.0888 Y39.8191
G1 X39.0741 Y39.8335
G1 X39.0123 Y39.8895
G1 X38.9965 Y39.9028
G1 X38.9185 Y39.9607
G1 X38.9012 Y39.9719
G1 X38.8652 Y39.9935
G1 X38.8652 Y40.1047
G1 X40.6600 Y41.8997
G1 X40.6845 Y41.9266
G1 X40.6935 Y41.9370
G1 X40.7019 Y41.9478
G1 X40.7274 Y41.9827
G1 X40.7499 Y42.0196
G1 X40.7567 Y42.0315
G1 X40.7628 Y42.0438
G1 X40.7783 Y42.0767
G1 X40.7859 Y42.0958
G1 X40.8002 Y42.1366
G1 X40.8110 Y42.1784
G1 X40.8140 Y42.1918
G1 X40.8164 Y42.2054
G1 X40.8224 Y42.2481
G1 X40.8234 Y42.2619
G1 X40.8251 Y42.2981
G1 X40.8252 Y44.0565
G1 X40.8612 Y44.0781
G1 X40.8785 Y44.0893
G1 X40.9510 Y44.1431
G1 X40.9671 Y44.1559
G1 X41.0341 Y44.2165
G1 X41.0440 Y44.2260
G1 X41.0535 Y44.2359
G1 X41.1095 Y44.2977
G1 X41.1228 Y44.3135
G1 X41.1767 Y44.3860
G1 X41.1846 Y44.3972
G1 X41.1919 Y44.4088
G1 X41.2348 Y44.4804
G1 X41.2416 Y44.4923
G1 X41.2478 Y44.5046
G1 X41.2834 Y44.5800
G1 X41.2890 Y44.5926
G1 X41.2939 Y44.6054
G1 X41.3243 Y44.6904
G1 X41.3300 Y44.7102
G1 X41.3503 Y44.7912
G1 X41.3533 Y44.8046
G1 X41.3556 Y44.8181
G1 X41.3679 Y44.9006
G1 X41.3696 Y44.9143
G1 X41.3706 Y44.9280
G1 X41.3747 Y45.0113
G1 X41.3750 Y45.0250
G1 X41.3747 Y45.0388
G1 X41.3706 Y45.1221
G1 X41.3696 Y45.1358
G1 X41.3679 Y45.1494
G1 X41.3556 Y45.2319
G1 X41.3533 Y45.2455
G1 X41.3503 Y45.2589
G1 X41.3300 Y45.3398
G1 X41.3264 Y45.3530
G1 X41.3220 Y45.3661
G1 X41.2939 Y45.4446
G1 X41.2890 Y45.4574
G1 X41.2834 Y45.4700
G1 X41.2478 Y45.5454
G1 X41.2416 Y45.5577
G1 X41.2348 Y45.5696
G1 X41.1919 Y45.6412
G1 X41.1846 Y45.6528
G1 X41.1767 Y45.6640
G1 X41.1270 Y45.7310
G1 X41.1185 Y45.7419
G1 X41.1095 Y45.7523
G1 X41.0535 Y45.8141
G1 X41.0440 Y45.8240
G1 X41.0341 Y45.8335
G1 X40.9723 Y45.8895
G1 X40.9619 Y45.8985
G1 X40.9510 Y45.9070
G1 X40.8840 Y45.9567
G1 X40.8728 Y45.9646
G1 X40.8612 Y45.9719
G1 X40.7896 Y46.0148
G1 X40.7777 Y46.0216
G1 X40.7654 Y46.0278
G1 X40.6900 Y46.0634
G1 X40.6774 Y46.0690
G1 X40.6646 Y46.0739
G1 X40.5861 Y46.1020
G1 X40.5730 Y46.1064
G1 X40.5598 Y46.1100
G1 X40.4789 Y46.1303
G1 X40.4655 Y46.1333
G1 X40.4519 Y46.1356
G1 X40.3694 Y46.1479
G1 X40.3558 Y46.1496
G1 X40.3421 Y46.1506
G1 X40.2588 Y46.1547
G1 X40.2450 Y46.1550
G1 X40.2313 Y46.1547
G1 X40.1480 Y46.1506
G1 X40.1343 Y46.1496
G1 X40.1206 Y46.1479
G1 X40.0381 Y46.1356
G1 X40.0246 Y46.1333
G1 X40.0112 Y46.1303
G1 X39.9302 Y46.1100
G1 X39.9170 Y46.1064
G1 X39.9039 Y46.1020
G1 X39.8254 Y46.0739
G1 X39.8126 Y46.0690
G1 X39.8000 Y46.0634
G1 X39.7246 Y46.0278
G1 X39.7123 Y46.0216
G1 X39.7004 Y46.0148
G1 X39.6288 Y45.9719
G1 X39.6172 Y45.9646
G1 X39.6060 Y45.9567
G1 X39.5390 Y45.9070
G1 X39.5281 Y45.8985
G1 X39.5177 Y45.8895
G1 X39.4559 Y45.8335
G1 X39.4460 Y45.8240
G1 X39.4365 Y45.8141
G1 X39.3805 Y45.7523
G1 X39.3715 Y45.7419
G1 X39.3631 Y45.7310
G1 X39.3134 Y45.6640
G1 X39.3055 Y45.6528
G1 X39.2981 Y45.6412
G1 X39.2552 Y45.5696
G1 X39.2484 Y45.5577
G1 X39.2423 Y45.5454
G1 X39.2066 Y45.4700
G1 X39.2010 Y45.4574
G1 X39.1961 Y45.4446
G1 X39.1680 Y45.3661
G1 X39.1637 Y45.3530
G1 X39.1600 Y45.3398
G1 X39.1397 Y45.2589
G1 X39.1367 Y45.2455
G1 X39.1344 Y45.2319
G1 X39.1221 Y45.1494
G1 X39.1205 Y45.1358
G1 X39.1194 Y45.1221
G1 X39.1153 Y45.0388
G1 X39.1150 Y45.0250
G1 X39.1153 Y45.0113
G1 X39.1194 Y44.9280
G1 X39.1212 Y44.9074
G1 X39.1344 Y44.8181
G1 X39.1367 Y44.8046
G1 X39.1397 Y44.7912
G1 X39.1600 Y44.7102
G1 X39.1637 Y44.6970
G1 X39.1680 Y44.6839
G1 X39.1961 Y44.6054
G1 X39.2010 Y44.5926
G1 X39.2066 Y44.5800
G1 X39.2423 Y44.5046
G1 X39.2484 Y44.4923
G1 X39.2552 Y44.4804
G1 X39.3017 Y44.4030
G1 X39.3134 Y44.3860
G1 X39.3631 Y44.3190
G1 X39.3715 Y44.3081
G1 X39.3805 Y44.2977
G1 X39.4365 Y44.2359
G1 X39.4509 Y44.2212
G1 X39.5177 Y44.1605
G1 X39.5335 Y44.1472
G1 X39.6116 Y44.0893
G1 X39.6288 Y44.0781
G1 X39.6649 Y44.0565
G1 X39.6649 Y42.5453
G1 X37.8748 Y40.7552
G1 X37.8653 Y40.7453
G1 X37.8410 Y40.7183
G1 X37.8281 Y40.7022
G1 X37.8026 Y40.6673
G1 X37.7801 Y40.6305
G1 X37.7702 Y40.6124
G1 X37.7517 Y40.5733
G1 X37.7441 Y40.5542
G1 X37.7298 Y40.5134
G1 X37.7190 Y40.4716
G1 X37.7148 Y40.4514
G1 X37.7093 Y40.4155
G1 X37.7077 Y40.4019
G1 X37.7066 Y40.3882
G1 X37.7049 Y40.3519
G1 X37.7049 Y39.9935
G1 X37.6688 Y39.9719
G1 X37.6516 Y39.9607
G1 X37.5735 Y39.9028
G1 X37.5577 Y39.8895
G1 X37.4909 Y39.8288
G1 X37.4765 Y39.8141
G1 X37.4205 Y39.7523
G1 X37.4115 Y39.7419
G1 X37.4031 Y39.7310
G1 X37.3493 Y39.6585
G1 X37.3381 Y39.6412
G1 X37.2952 Y39.5696
G1 X37.2884 Y39.5577
G1 X37.2823 Y39.5454
G1 X37.2466 Y39.4700
G1 X37.2410 Y39.4574
G1 X37.2361 Y39.4446
G1 X37.2080 Y39.3661
G1 X37.2037 Y39.3530
G1 X37.2000 Y39.3398
G1 X37.1797 Y39.2589
G1 X37.1767 Y39.2455
G1 X37.1744 Y39.2319
G1 X37.1621 Y39.1494
G1 X37.1605 Y39.1358
G1 X37.1594 Y39.1221
G1 X37.1553 Y39.0388
G1 X37.1550 Y39.0250
G1 X37.1553 Y39.0113
G1 X37.1594 Y38.9280
G1 X37.1605 Y38.9143
G1 X37.1621 Y38.9006
G1 X37.1744 Y38.8181
G1 X37.1767 Y38.8046
G1 X37.1797 Y38.7912
G1 X37.2000 Y38.7102
G1 X37.2037 Y38.6970
G1 X37.2080 Y38.6839
G1 X37.2361 Y38.6054
G1 X37.2437 Y38.5863
G1 X37.2823 Y38.5046
G1 X37.2884 Y38.4923
G1 X37.2952 Y38.4804
G1 X37.3381 Y38.4088
G1 X37.3455 Y38.3972
G1 X37.3534 Y38.3860
G1 X37.4031 Y38.3190
G1 X37.4159 Y38.3029
G1 X37.4765 Y38.2359
G1 X37.4860 Y38.2260
G1 X37.4959 Y38.2165
G1 X37.5629 Y38.1559
G1 X37.5790 Y38.1431
G1 X37.6516 Y38.0893
G1 X37.6688 Y38.0781
G1 X37.7049 Y38.0565
G1 X37.7049 Y23.0253
G1 X23.1697 Y8.4902
G1 X17.9053 Y8.4902
G1 X5.5652 Y20.8303
G1 X5.5652 Y25.6900
G1 X5.5648 Y25.7038
G1 X5.5624 Y25.7469
G1 X5.5564 Y25.7897
G1 X5.5540 Y25.8032
G1 X5.5510 Y25.8166
G1 X5.5421 Y25.8518
G1 X5.5359 Y25.8715
G1 X5.5210 Y25.9120
G1 X5.5154 Y25.9246
G1 X5.4998 Y25.9574
G1 X5.4899 Y25.9755
G1 X5.4674 Y26.0123
G1 X5.4595 Y26.0236
G1 X5.4378 Y26.0527
G1 X5.4245 Y26.0685
G1 X5.3952 Y26.1002
G1 X4.3389 Y27.1566
G1 X4.3428 Y27.1726
G1 X4.3455 Y27.1861
G1 X4.3591 Y27.2773
G1 X4.3608 Y27.2979
G1 X4.3647 Y27.3763
G1 X4.3650 Y27.3900
G1 X4.3647 Y27.4038
G1 X4.3608 Y27.4822
G1 X4.3598 Y27.4959
G1 X4.3581 Y27.5095
G1 X4.3466 Y27.5872
G1 X4.3443 Y27.6007
G1 X4.3412 Y27.6141
G1 X4.3222 Y27.6903
G1 X4.3185 Y27.7035
G1 X4.3142 Y27.7166
G1 X4.2877 Y27.7905
G1 X4.2801 Y27.8096
G1 X4.2437 Y27.8868
G1 X4.2375 Y27.8991
G1 X4.2307 Y27.9111
G1 X4.1904 Y27.9784
G1 X4.1830 Y27.9900
G1 X4.1751 Y28.0013
G1 X4.1283 Y28.0643
G1 X4.1199 Y28.0752
G1 X4.1109 Y28.0856
G1 X4.0582 Y28.1437
G1 X4.0487 Y28.1537
G1 X4.0387 Y28.1632
G1 X3.9806 Y28.2159
G1 X3.9702 Y28.2249
G1 X3.9593 Y28.2333
G1 X3.8963 Y28.2801
G1 X3.8850 Y28.2880
G1 X3.8734 Y28.2954
G1 X3.8061 Y28.3357
G1 X3.7941 Y28.3425
G1 X3.7818 Y28.3487
G1 X3.7109 Y28.3822
G1 X3.6919 Y28.3904
G1 X3.6116 Y28.4192
G1 X3.5985 Y28.4235
G1 X3.5853 Y28.4272
G1 X3.5091 Y28.4462
G1 X3.4957 Y28.4493
G1 X3.4822 Y28.4516
G1 X3.4045 Y28.4631
G1 X3.3909 Y28.4648
G1 X3.3772 Y28.4658
G1 X3.2988 Y28.4697
G1 X3.2850 Y28.4700
G1 X3.2713 Y28.4697
G1 X3.1929 Y28.4658
G1 X3.1723 Y28.4641
G1 X3.0879 Y28.4516
G1 X3.0743 Y28.4493
G1 X3.0609 Y28.4462
G1 X2.9848 Y28.4272
G1 X2.9715 Y28.4235
G1 X2.9585 Y28.4192
G1 X2.8845 Y28.3927
G1 X2.8717 Y28.3878
G1 X2.8592 Y28.3822
G1 X2.7882 Y28.3487
G1 X2.7759 Y28.3425
G1 X2.7639 Y28.3357
G1 X2.6966 Y28.2954
G1 X2.6850 Y28.2880
G1 X2.6738 Y28.2801
G1 X2.6052 Y28.2292
G1 X2.5895 Y28.2159
G1 X2.5313 Y28.1632
G1 X2.5213 Y28.1537
G1 X2.5119 Y28.1437
G1 X2.4591 Y28.0856
G1 X2.4502 Y28.0752
G1 X2.4417 Y28.0643
G1 X2.3949 Y28.0013
G1 X2.3870 Y27.9900
G1 X2.3797 Y27.9784
G1 X2.3393 Y27.9111
G1 X2.3294 Y27.8930
G1 X2.2928 Y27.8159
G1 X2.2872 Y27.8033
G1 X2.2823 Y27.7905
G1 X2.2558 Y27.7166
G1 X2.2515 Y27.7035
G1 X2.2479 Y27.6903
G1 X2.2288 Y27.6141
G1 X2.2258 Y27.6007
G1 X2.2234 Y27.5872
G1 X2.2119 Y27.5095
G1 X2.2102 Y27.4959
G1 X2.2092 Y27.4822
G1 X2.2053 Y27.4038
G1 X2.2050 Y27.3900
G1 X2.2053 Y27.3763
G1 X2.2096 Y27.2910
G1 X2.2119 Y27.2705
G0 Z2.0000
G0 X4.0449 Y23.6277
F1000
G1 Z0.0000 F1000
F700
G1 X3.9912 Y23.5955
G1 X3.9638 Y23.5800
G1 X3.9912 Y23.5645
G1 X4.0449 Y23.5323
G1 X4.0449 Y23.6277
G0 Z2.0000
G0 X4.0449 Y21.0877
F1000
G1 Z0.0000 F1000
F700
G1 X3.9912 Y21.0555
G1 X3.9638 Y21.0400
G1 X3.9912 Y21.0245
G1 X4.0449 Y20.9923
G1 X4.0449 Y21.0877
G0 Z2.0000
G0 X3.9638 Y18.5000
F1000
G1 Z0.0000 F1000
F700
G1 X3.9912 Y18.4845
G1 X4.0719 Y18.4359
G1 X4.0980 Y18.4184
G1 X4.1107 Y18.4092
G1 X4.1738 Y18.3625
G1 X4.1985 Y18.3431
G1 X4.2223 Y18.3226
G1 X4.2805 Y18.2699
G1 X4.3032 Y18.2482
G1 X4.3142 Y18.2370
G1 X4.3776 Y18.1673
G1 X4.3981 Y18.1435
G1 X4.4175 Y18.1188
G1 X4.4734 Y18.0430
G1 X4.4823 Y18.0300
G1 X4.4991 Y18.0035
G1 X4.5395 Y17.9362
G1 X4.5550 Y17.9088
G1 X4.5691 Y17.8808
G1 X4.6027 Y17.8098
G1 X4.6154 Y17.7811
G1 X4.6212 Y17.7665
G1 X4.6532 Y17.6778
G1 X4.6630 Y17.6480
G1 X4.6714 Y17.6177
G1 X4.6941 Y17.5263
G1 X4.7002 Y17.4955
G1 X4.7027 Y17.4800
G1 X4.7142 Y17.4023
G1 X4.7181 Y17.3712
G1 X4.7204 Y17.3398
G1 X4.7248 Y17.2457
G1 X4.7250 Y17.2300
G1 X4.7242 Y17.1986
G1 X4.7194 Y17.1045
G1 X4.7163 Y17.0733
G1 X4.7027 Y16.9800
G1 X4.6973 Y16.9491
G1 X4.6905 Y16.9184
G1 X4.6714 Y16.8423
G1 X4.6630 Y16.8120
G1 X4.6583 Y16.7970
G1 X4.6267 Y16.7083
G1 X4.6154 Y16.6789
G1 X4.6027 Y16.6502
G1 X4.5622 Y16.5651
G1 X4.5550 Y16.5512
G1 X4.5395 Y16.5239
G1 X4.4991 Y16.4565
G1 X4.4823 Y16.4300
G1 X4.4642 Y16.4043
G1 X4.4175 Y16.3413
G1 X4.3981 Y16.3165
G1 X4.3880 Y16.3045
G1 X4.3249 Y16.2345
G1 X4.3032 Y16.2118
G1 X4.2805 Y16.1901
G1 X4.2223 Y16.1374
G1 X4.1985 Y16.1169
G1 X4.1738 Y16.0976
G1 X4.1107 Y16.0508
G1 X4.0980 Y16.0416
G1 X4.0719 Y16.0241
G1 X3.9912 Y15.9755
G1 X3.9638 Y15.9600
G1 X3.9912 Y15.9445
G1 X4.0719 Y15.8959
G1 X4.0980 Y15.8784
G1 X4.1107 Y15.8692
G1 X4.1738 Y15.8225
G1 X4.1985 Y15.8031
G1 X4.2223 Y15.7826
G1 X4.2805 Y15.7299
G1 X4.2920 Y15.7192
G1 X4.3142 Y15.6970
G1 X4.3776 Y15.6273
G1 X4.3981 Y15.6035
G1 X4.4175 Y15.5788
G1 X4.4734 Y15.5030
G1 X4.4909 Y15.4769
G1 X4.4991 Y15.4635
G1 X4.5395 Y15.3962
G1 X4.5550 Y15.3688
G1 X4.5691 Y15.3408
G1 X4.6027 Y15.2698
G1 X4.6154 Y15.2411
G1 X4.6212 Y15.2265
G1 X4.6532 Y15.1378
G1 X4.6630 Y15.1080
G1 X4.6714 Y15.0777
G1 X4.6941 Y14.9863
G1 X4.6973 Y14.9709
G1 X4.7027 Y14.9400
G1 X4.7142 Y14.8623
G1 X4.7181 Y14.8312
G1 X4.7204 Y14.7998
G1 X4.7248 Y14.7057
G1 X4.7250 Y14.6900
G1 X4.7242 Y14.6586
G1 X4.7194 Y14.5645
G1 X4.7163 Y14.5333
G1 X4.7027 Y14.4400
G1 X4.6973 Y14.4091
G1 X4.6905 Y14.3784
G1 X4.6714 Y14.3023
G1 X4.6674 Y14.2871
G1 X4.6583 Y14.2570
G1 X4.6267 Y14.1683
G1 X4.6154 Y14.1389
G1 X4.6027 Y14.1102
G1 X4.5622 Y14.0251
G1 X4.5550 Y14.0112
G1 X4.5395 Y13.9839
G1 X4.4991 Y13.9165
G1 X4.4823 Y13.8900
G1 X4.4642 Y13.8643
G1 X4.4175 Y13.8013
G1 X4.4080 Y13.7887
G1 X4.3880 Y13.7645
G1 X4.3249 Y13.6945
G1 X4.3032 Y13.6718
G1 X4.2805 Y13.6501
G1 X4.2223 Y13.5974
G1 X4.1985 Y13.5769
G1 X4.1738 Y13.5576
G1 X4.1107 Y13.5108
G1 X4.0850 Y13.4927
G1 X4.0719 Y13.4841
G1 X3.9912 Y13.4355
G1 X3.9638 Y13.4200
G1 X3.9912 Y13.4045
G1 X4.0719 Y13.3559
G1 X4.0980 Y13.3384
G1 X4.1107 Y13.3292
G1 X4.1738 Y13.2825
G1 X4.1985 Y13.2631
G1 X4.2223 Y13.2426
G1 X4.2805 Y13.1899
G1 X4.2920 Y13.1792
G1 X4.3142 Y13.1570
G1 X4.3776 Y13.0873
G1 X4.3981 Y13.0635
G1 X4.4175 Y13.0388
G1 X4.4734 Y12.9630
G1 X4.4909 Y12.9369
G1 X4.4991 Y12.9235
G1 X4.5395 Y12.8562
G1 X4.5550 Y12.8288
G1 X4.5691 Y12.8008
G1 X4.6027 Y12.7298
G1 X4.6154 Y12.7011
G1 X4.6212 Y12.6865
G1 X4.6532 Y12.5978
G1 X4.6630 Y12.5680
G1 X4.6714 Y12.5377
G1 X4.6941 Y12.4463
G1 X4.7002 Y12.4155
G1 X4.7027 Y12.4000
G1 X4.7142 Y12.3223
G1 X4.7181 Y12.2912
G1 X4.7204 Y12.2598
G1 X4.7248 Y12.1657
G1 X4.7250 Y12.1500
G1 X4.7242 Y12.1186
G1 X4.7194 Y12.0245
G1 X4.7163 Y11.9933
G1 X4.7027 Y11.9000
G1 X4.6973 Y11.8691
G1 X4.6905 Y11.8384
G1 X4.6714 Y11.7623
G1 X4.6630 Y11.7320
G1 X4.6583 Y11.7170
G1 X4.6267 Y11.6283
G1 X4.6154 Y11.5989
G1 X4.6027 Y11.5702
G1 X4.5622 Y11.4851
G1 X4.5550 Y11.4712
G1 X4.5395 Y11.4439
G1 X4.4991 Y11.3765
G1 X4.4823 Y11.3500
G1 X4.4642 Y11.3243
G1 X4.4175 Y11.2613
G1 X4.3981 Y11.2365
G1 X4.3880 Y11.2245
G1 X4.3249 Y11.1545
G1 X4.3032 Y11.1318
G1 X4.2805 Y11.1101
G1 X4.2223 Y11.0574
G1 X4.1985 Y11.0369
G1 X4.1738 Y11.0176
