(G-CODE GENERATED BY FLATCAM v8.994 - www.flatcam.org - Version Date: 2020/11/7)

(Name: scheme-NPTH.drl_mill_cnc)
(Type: G-code from Geometry)
(Units: MM)

(Created on Thursday, 27 February 2025 at 15:18)

/TOOL DIAMETER = ДИАМЕТР ИНСТРУМЕНТА: 2.0 mm
/Feedrate_XY = подача XY: 500.0 mm/min
/Feedrate_Z = подача Z: 1000.0 mm/min
/Feedrate rapids = быстрая подача1500.0 mm/min

/Z_Cut = проходы по Z: -1.8 mm
/DepthPerCut = углубиться за проход: 0.6 mm <=>3 passes
/Z_Move: 2.0 mm
/Z Start: None mm
/Z End: 15.0 mm
/X,Y End: None mm
(Steps per circle: 64)
/Steps per circle: 64
/Preprocessor Geometry: Charly4U

/X range:    4.0259 ...   34.0248  mm
/Y range:   18.5246 ...   92.0261  mm

/Скорость шпинделя: 20000.0 RPM
G71 / измерения в мм
G90 / программирование в абсолютных координатах

F500
/Tool switching while working is not supported! = Смена инструмента в процессе работы не поддерживается!
M3 S20000.0
F500
G0 X25.0256 Y19.0245
F1000
G1 Z-0.6000 F1000
F500
G1 X25.0232 Y18.9755
G1 X25.0160 Y18.9269
G1 X25.0041 Y18.8793
G1 X24.9876 Y18.8332
G1 X24.9666 Y18.7888
G1 X24.9414 Y18.7467
G1 X24.9122 Y18.7073
G1 X24.8792 Y18.6710
G1 X24.8429 Y18.6380
G1 X24.8035 Y18.6088
G1 X24.7614 Y18.5836
G1 X24.7170 Y18.5626
G1 X24.6709 Y18.5461
G1 X24.6233 Y18.5342
G1 X24.5747 Y18.5270
G1 X24.5258 Y18.5246
G1 X24.4768 Y18.5270
G1 X24.4282 Y18.5342
G1 X24.3806 Y18.5461
G1 X24.3345 Y18.5626
G1 X24.2901 Y18.5836
G1 X24.2480 Y18.6088
G1 X24.2086 Y18.6380
G1 X24.1723 Y18.6710
G1 X24.1393 Y18.7073
G1 X24.1101 Y18.7467
G1 X24.0849 Y18.7888
G1 X24.0639 Y18.8332
G1 X24.0474 Y18.8793
G1 X24.0355 Y18.9269
G1 X24.0283 Y18.9755
G1 X24.0259 Y19.0245
G1 X24.0283 Y19.0734
G1 X24.0355 Y19.1220
G1 X24.0474 Y19.1696
G1 X24.0639 Y19.2157
G1 X24.0849 Y19.2601
G1 X24.1101 Y19.3022
G1 X24.1393 Y19.3416
G1 X24.1723 Y19.3779
G1 X24.2086 Y19.4109
G1 X24.2480 Y19.4401
G1 X24.2901 Y19.4653
G1 X24.3345 Y19.4863
G1 X24.3806 Y19.5028
G1 X24.4282 Y19.5147
G1 X24.4768 Y19.5219
G1 X24.5258 Y19.5243
G1 X24.5747 Y19.5219
G1 X24.6233 Y19.5147
G1 X24.6709 Y19.5028
G1 X24.7170 Y19.4863
G1 X24.7614 Y19.4653
G1 X24.8035 Y19.4401
G1 X24.8429 Y19.4109
G1 X24.8792 Y19.3779
G1 X24.9122 Y19.3416
G1 X24.9414 Y19.3022
G1 X24.9666 Y19.2601
G1 X24.9876 Y19.2157
G1 X25.0041 Y19.1696
G1 X25.0160 Y19.1220
G1 X25.0232 Y19.0734
G1 X25.0256 Y19.0245
G0 X25.0256 Y19.0245
F1000
G1 Z-1.2000 F1000
F500
G1 X25.0232 Y18.9755
G1 X25.0160 Y18.9269
G1 X25.0041 Y18.8793
G1 X24.9876 Y18.8332
G1 X24.9666 Y18.7888
G1 X24.9414 Y18.7467
G1 X24.9122 Y18.7073
G1 X24.8792 Y18.6710
G1 X24.8429 Y18.6380
G1 X24.8035 Y18.6088
G1 X24.7614 Y18.5836
G1 X24.7170 Y18.5626
G1 X24.6709 Y18.5461
G1 X24.6233 Y18.5342
G1 X24.5747 Y18.5270
G1 X24.5258 Y18.5246
G1 X24.4768 Y18.5270
G1 X24.4282 Y18.5342
G1 X24.3806 Y18.5461
G1 X24.3345 Y18.5626
G1 X24.2901 Y18.5836
G1 X24.2480 Y18.6088
G1 X24.2086 Y18.6380
G1 X24.1723 Y18.6710
G1 X24.1393 Y18.7073
G1 X24.1101 Y18.7467
G1 X24.0849 Y18.7888
G1 X24.0639 Y18.8332
G1 X24.0474 Y18.8793
G1 X24.0355 Y18.9269
G1 X24.0283 Y18.9755
G1 X24.0259 Y19.0245
G1 X24.0283 Y19.0734
G1 X24.0355 Y19.1220
G1 X24.0474 Y19.1696
G1 X24.0639 Y19.2157
G1 X24.0849 Y19.2601
G1 X24.1101 Y19.3022
G1 X24.1393 Y19.3416
G1 X24.1723 Y19.3779
G1 X24.2086 Y19.4109
G1 X24.2480 Y19.4401
G1 X24.2901 Y19.4653
G1 X24.3345 Y19.4863
G1 X24.3806 Y19.5028
G1 X24.4282 Y19.5147
G1 X24.4768 Y19.5219
G1 X24.5258 Y19.5243
G1 X24.5747 Y19.5219
G1 X24.6233 Y19.5147
G1 X24.6709 Y19.5028
G1 X24.7170 Y19.4863
G1 X24.7614 Y19.4653
G1 X24.8035 Y19.4401
G1 X24.8429 Y19.4109
G1 X24.8792 Y19.3779
G1 X24.9122 Y19.3416
G1 X24.9414 Y19.3022
G1 X24.9666 Y19.2601
G1 X24.9876 Y19.2157
G1 X25.0041 Y19.1696
G1 X25.0160 Y19.1220
G1 X25.0232 Y19.0734
G1 X25.0256 Y19.0245
G0 X25.0256 Y19.0245
F1000
G1 Z-1.8000 F1000
F500
G1 X25.0232 Y18.9755
G1 X25.0160 Y18.9269
G1 X25.0041 Y18.8793
G1 X24.9876 Y18.8332
G1 X24.9666 Y18.7888
G1 X24.9414 Y18.7467
G1 X24.9122 Y18.7073
G1 X24.8792 Y18.6710
G1 X24.8429 Y18.6380
G1 X24.8035 Y18.6088
G1 X24.7614 Y18.5836
G1 X24.7170 Y18.5626
G1 X24.6709 Y18.5461
G1 X24.6233 Y18.5342
G1 X24.5747 Y18.5270
G1 X24.5258 Y18.5246
G1 X24.4768 Y18.5270
G1 X24.4282 Y18.5342
G1 X24.3806 Y18.5461
G1 X24.3345 Y18.5626
G1 X24.2901 Y18.5836
G1 X24.2480 Y18.6088
G1 X24.2086 Y18.6380
G1 X24.1723 Y18.6710
G1 X24.1393 Y18.7073
G1 X24.1101 Y18.7467
G1 X24.0849 Y18.7888
G1 X24.0639 Y18.8332
G1 X24.0474 Y18.8793
G1 X24.0355 Y18.9269
G1 X24.0283 Y18.9755
G1 X24.0259 Y19.0245
G1 X24.0283 Y19.0734
G1 X24.0355 Y19.1220
G1 X24.0474 Y19.1696
G1 X24.0639 Y19.2157
G1 X24.0849 Y19.2601
G1 X24.1101 Y19.3022
G1 X24.1393 Y19.3416
G1 X24.1723 Y19.3779
G1 X24.2086 Y19.4109
G1 X24.2480 Y19.4401
G1 X24.2901 Y19.4653
G1 X24.3345 Y19.4863
G1 X24.3806 Y19.5028
G1 X24.4282 Y19.5147
G1 X24.4768 Y19.5219
G1 X24.5258 Y19.5243
G1 X24.5747 Y19.5219
G1 X24.6233 Y19.5147
G1 X24.6709 Y19.5028
G1 X24.7170 Y19.4863
G1 X24.7614 Y19.4653
G1 X24.8035 Y19.4401
G1 X24.8429 Y19.4109
G1 X24.8792 Y19.3779
G1 X24.9122 Y19.3416
G1 X24.9414 Y19.3022
G1 X24.9666 Y19.2601
G1 X24.9876 Y19.2157
G1 X25.0041 Y19.1696
G1 X25.0160 Y19.1220
G1 X25.0232 Y19.0734
G1 X25.0256 Y19.0245
G0 Z2.0000
G0 X34.0248 Y91.5262
F1000
G1 Z-0.6000 F1000
F500
G1 X34.0224 Y91.4772
G1 X34.0152 Y91.4287
G1 X34.0033 Y91.3811
G1 X33.9868 Y91.3349
G1 X33.9658 Y91.2906
G1 X33.9406 Y91.2485
G1 X33.9114 Y91.2091
G1 X33.8784 Y91.1728
G1 X33.8421 Y91.1398
G1 X33.8027 Y91.1106
G1 X33.7606 Y91.0854
G1 X33.7163 Y91.0644
G1 X33.6701 Y91.0479
G1 X33.6225 Y91.0359
G1 X33.5740 Y91.0287
G1 X33.5250 Y91.0263
G1 X33.4760 Y91.0287
G1 X33.4275 Y91.0359
G1 X33.3799 Y91.0479
G1 X33.3337 Y91.0644
G1 X33.2893 Y91.0854
G1 X33.2473 Y91.1106
G1 X33.2079 Y91.1398
G1 X33.1715 Y91.1728
G1 X33.1386 Y91.2091
G1 X33.1093 Y91.2485
G1 X33.0841 Y91.2906
G1 X33.0632 Y91.3349
G1 X33.0466 Y91.3811
G1 X33.0347 Y91.4287
G1 X33.0275 Y91.4772
G1 X33.0251 Y91.5262
G1 X33.0275 Y91.5752
G1 X33.0347 Y91.6237
G1 X33.0466 Y91.6713
G1 X33.0632 Y91.7175
G1 X33.0841 Y91.7618
G1 X33.1093 Y91.8039
G1 X33.1386 Y91.8433
G1 X33.1715 Y91.8797
G1 X33.2079 Y91.9126
G1 X33.2473 Y91.9418
G1 X33.2893 Y91.9671
G1 X33.3337 Y91.9880
G1 X33.3799 Y92.0046
G1 X33.4275 Y92.0165
G1 X33.4760 Y92.0237
G1 X33.5250 Y92.0261
G1 X33.5740 Y92.0237
G1 X33.6225 Y92.0165
G1 X33.6701 Y92.0046
G1 X33.7163 Y91.9880
G1 X33.7606 Y91.9671
G1 X33.8027 Y91.9418
G1 X33.8421 Y91.9126
G1 X33.8784 Y91.8797
G1 X33.9114 Y91.8433
G1 X33.9406 Y91.8039
G1 X33.9658 Y91.7618
G1 X33.9868 Y91.7175
G1 X34.0033 Y91.6713
G1 X34.0152 Y91.6237
G1 X34.0224 Y91.5752
G1 X34.0248 Y91.5262
G0 X34.0248 Y91.5262
F1000
G1 Z-1.2000 F1000
F500
G1 X34.0224 Y91.4772
G1 X34.0152 Y91.4287
G1 X34.0033 Y91.3811
G1 X33.9868 Y91.3349
G1 X33.9658 Y91.2906
G1 X33.9406 Y91.2485
G1 X33.9114 Y91.2091
G1 X33.8784 Y91.1728
G1 X33.8421 Y91.1398
G1 X33.8027 Y91.1106
G1 X33.7606 Y91.0854
G1 X33.7163 Y91.0644
G1 X33.6701 Y91.0479
G1 X33.6225 Y91.0359
G1 X33.5740 Y91.0287
G1 X33.5250 Y91.0263
G1 X33.4760 Y91.0287
G1 X33.4275 Y91.0359
G1 X33.3799 Y91.0479
G1 X33.3337 Y91.0644
G1 X33.2893 Y91.0854
G1 X33.2473 Y91.1106
G1 X33.2079 Y91.1398
G1 X33.1715 Y91.1728
G1 X33.1386 Y91.2091
G1 X33.1093 Y91.2485
G1 X33.0841 Y91.2906
G1 X33.0632 Y91.3349
G1 X33.0466 Y91.3811
G1 X33.0347 Y91.4287
G1 X33.0275 Y91.4772
G1 X33.0251 Y91.5262
G1 X33.0275 Y91.5752
G1 X33.0347 Y91.6237
G1 X33.0466 Y91.6713
G1 X33.0632 Y91.7175
G1 X33.0841 Y91.7618
G1 X33.1093 Y91.8039
G1 X33.1386 Y91.8433
G1 X33.1715 Y91.8797
G1 X33.2079 Y91.9126
G1 X33.2473 Y91.9418
G1 X33.2893 Y91.9671
G1 X33.3337 Y91.9880
G1 X33.3799 Y92.0046
G1 X33.4275 Y92.0165
G1 X33.4760 Y92.0237
G1 X33.5250 Y92.0261
G1 X33.5740 Y92.0237
G1 X33.6225 Y92.0165
G1 X33.6701 Y92.0046
G1 X33.7163 Y91.9880
G1 X33.7606 Y91.9671
G1 X33.8027 Y91.9418
G1 X33.8421 Y91.9126
G1 X33.8784 Y91.8797
G1 X33.9114 Y91.8433
G1 X33.9406 Y91.8039
G1 X33.9658 Y91.7618
G1 X33.9868 Y91.7175
G1 X34.0033 Y91.6713
G1 X34.0152 Y91.6237
G1 X34.0224 Y91.5752
G1 X34.0248 Y91.5262
G0 X34.0248 Y91.5262
F1000
G1 Z-1.8000 F1000
F500
G1 X34.0224 Y91.4772
G1 X34.0152 Y91.4287
G1 X34.0033 Y91.3811
G1 X33.9868 Y91.3349
G1 X33.9658 Y91.2906
G1 X33.9406 Y91.2485
G1 X33.9114 Y91.2091
G1 X33.8784 Y91.1728
G1 X33.8421 Y91.1398
G1 X33.8027 Y91.1106
G1 X33.7606 Y91.0854
G1 X33.7163 Y91.0644
G1 X33.6701 Y91.0479
G1 X33.6225 Y91.0359
G1 X33.5740 Y91.0287
G1 X33.5250 Y91.0263
G1 X33.4760 Y91.0287
G1 X33.4275 Y91.0359
G1 X33.3799 Y91.0479
G1 X33.3337 Y91.0644
G1 X33.2893 Y91.0854
G1 X33.2473 Y91.1106
G1 X33.2079 Y91.1398
G1 X33.1715 Y91.1728
G1 X33.1386 Y91.2091
G1 X33.1093 Y91.2485
G1 X33.0841 Y91.2906
G1 X33.0632 Y91.3349
G1 X33.0466 Y91.3811
G1 X33.0347 Y91.4287
G1 X33.0275 Y91.4772
G1 X33.0251 Y91.5262
G1 X33.0275 Y91.5752
G1 X33.0347 Y91.6237
G1 X33.0466 Y91.6713
G1 X33.0632 Y91.7175
G1 X33.0841 Y91.7618
G1 X33.1093 Y91.8039
G1 X33.1386 Y91.8433
G1 X33.1715 Y91.8797
G1 X33.2079 Y91.9126
G1 X33.2473 Y91.9418
G1 X33.2893 Y91.9671
G1 X33.3337 Y91.9880
G1 X33.3799 Y92.0046
G1 X33.4275 Y92.0165
G1 X33.4760 Y92.0237
G1 X33.5250 Y92.0261
G1 X33.5740 Y92.0237
G1 X33.6225 Y92.0165
G1 X33.6701 Y92.0046
G1 X33.7163 Y91.9880
G1 X33.7606 Y91.9671
G1 X33.8027 Y91.9418
G1 X33.8421 Y91.9126
G1 X33.8784 Y91.8797
G1 X33.9114 Y91.8433
G1 X33.9406 Y91.8039
G1 X33.9658 Y91.7618
G1 X33.9868 Y91.7175
G1 X34.0033 Y91.6713
G1 X34.0152 Y91.6237
G1 X34.0224 Y91.5752
G1 X34.0248 Y91.5262
G0 Z2.0000
G0 X5.0257 Y91.5262
F1000
G1 Z-0.6000 F1000
F500
G1 X5.0233 Y91.4772
G1 X5.0161 Y91.4287
G1 X5.0041 Y91.3811
G1 X4.9876 Y91.3349
G1 X4.9666 Y91.2906
G1 X4.9414 Y91.2485
G1 X4.9122 Y91.2091
G1 X4.8793 Y91.1728
G1 X4.8429 Y91.1398
G1 X4.8035 Y91.1106
G1 X4.7614 Y91.0854
G1 X4.7171 Y91.0644
G1 X4.6709 Y91.0479
G1 X4.6233 Y91.0359
G1 X4.5748 Y91.0287
G1 X4.5258 Y91.0263
G1 X4.4768 Y91.0287
G1 X4.4283 Y91.0359
G1 X4.3807 Y91.0479
G1 X4.3345 Y91.0644
G1 X4.2902 Y91.0854
G1 X4.2481 Y91.1106
G1 X4.2087 Y91.1398
G1 X4.1723 Y91.1728
G1 X4.1394 Y91.2091
G1 X4.1102 Y91.2485
G1 X4.0849 Y91.2906
G1 X4.0640 Y91.3349
G1 X4.0474 Y91.3811
G1 X4.0355 Y91.4287
G1 X4.0283 Y91.4772
G1 X4.0259 Y91.5262
G1 X4.0283 Y91.5752
G1 X4.0355 Y91.6237
G1 X4.0474 Y91.6713
G1 X4.0640 Y91.7175
G1 X4.0849 Y91.7618
G1 X4.1102 Y91.8039
G1 X4.1394 Y91.8433
G1 X4.1723 Y91.8797
G1 X4.2087 Y91.9126
G1 X4.2481 Y91.9418
G1 X4.2902 Y91.9671
G1 X4.3345 Y91.9880
G1 X4.3807 Y92.0046
G1 X4.4283 Y92.0165
G1 X4.4768 Y92.0237
G1 X4.5258 Y92.0261
G1 X4.5748 Y92.0237
G1 X4.6233 Y92.0165
G1 X4.6709 Y92.0046
G1 X4.7171 Y91.9880
G1 X4.7614 Y91.9671
G1 X4.8035 Y91.9418
G1 X4.8429 Y91.9126
G1 X4.8793 Y91.8797
G1 X4.9122 Y91.8433
G1 X4.9414 Y91.8039
G1 X4.9666 Y91.7618
G1 X4.9876 Y91.7175
G1 X5.0041 Y91.6713
G1 X5.0161 Y91.6237
G1 X5.0233 Y91.5752
G1 X5.0257 Y91.5262
G0 X5.0257 Y91.5262
F1000
G1 Z-1.2000 F1000
F500
G1 X5.0233 Y91.4772
G1 X5.0161 Y91.4287
G1 X5.0041 Y91.3811
G1 X4.9876 Y91.3349
G1 X4.9666 Y91.2906
G1 X4.9414 Y91.2485
G1 X4.9122 Y91.2091
G1 X4.8793 Y91.1728
G1 X4.8429 Y91.1398
G1 X4.8035 Y91.1106
G1 X4.7614 Y91.0854
G1 X4.7171 Y91.0644
G1 X4.6709 Y91.0479
G1 X4.6233 Y91.0359
G1 X4.5748 Y91.0287
G1 X4.5258 Y91.0263
G1 X4.4768 Y91.0287
G1 X4.4283 Y91.0359
G1 X4.3807 Y91.0479
G1 X4.3345 Y91.0644
G1 X4.2902 Y91.0854
G1 X4.2481 Y91.1106
G1 X4.2087 Y91.1398
G1 X4.1723 Y91.1728
G1 X4.1394 Y91.2091
G1 X4.1102 Y91.2485
G1 X4.0849 Y91.2906
G1 X4.0640 Y91.3349
G1 X4.0474 Y91.3811
G1 X4.0355 Y91.4287
G1 X4.0283 Y91.4772
G1 X4.0259 Y91.5262
G1 X4.0283 Y91.5752
G1 X4.0355 Y91.6237
G1 X4.0474 Y91.6713
G1 X4.0640 Y91.7175
G1 X4.0849 Y91.7618
G1 X4.1102 Y91.8039
G1 X4.1394 Y91.8433
G1 X4.1723 Y91.8797
G1 X4.2087 Y91.9126
G1 X4.2481 Y91.9418
G1 X4.2902 Y91.9671
G1 X4.3345 Y91.9880
G1 X4.3807 Y92.0046
G1 X4.4283 Y92.0165
G1 X4.4768 Y92.0237
G1 X4.5258 Y92.0261
G1 X4.5748 Y92.0237
G1 X4.6233 Y92.0165
G1 X4.6709 Y92.0046
G1 X4.7171 Y91.9880
G1 X4.7614 Y91.9671
G1 X4.8035 Y91.9418
G1 X4.8429 Y91.9126
G1 X4.8793 Y91.8797
G1 X4.9122 Y91.8433
G1 X4.9414 Y91.8039
G1 X4.9666 Y91.7618
G1 X4.9876 Y91.7175
G1 X5.0041 Y91.6713
G1 X5.0161 Y91.6237
G1 X5.0233 Y91.5752
G1 X5.0257 Y91.5262
G0 X5.0257 Y91.5262
F1000
G1 Z-1.8000 F1000
F500
G1 X5.0233 Y91.4772
G1 X5.0161 Y91.4287
G1 X5.0041 Y91.3811
G1 X4.9876 Y91.3349
G1 X4.9666 Y91.2906
G1 X4.9414 Y91.2485
G1 X4.9122 Y91.2091
G1 X4.8793 Y91.1728
G1 X4.8429 Y91.1398
G1 X4.8035 Y91.1106
G1 X4.7614 Y91.0854
G1 X4.7171 Y91.0644
G1 X4.6709 Y91.0479
G1 X4.6233 Y91.0359
G1 X4.5748 Y91.0287
G1 X4.5258 Y91.0263
G1 X4.4768 Y91.0287
G1 X4.4283 Y91.0359
G1 X4.3807 Y91.0479
G1 X4.3345 Y91.0644
G1 X4.2902 Y91.0854
G1 X4.2481 Y91.1106
G1 X4.2087 Y91.1398
G1 X4.1723 Y91.1728
G1 X4.1394 Y91.2091
G1 X4.1102 Y91.2485
G1 X4.0849 Y91.2906
G1 X4.0640 Y91.3349
G1 X4.0474 Y91.3811
G1 X4.0355 Y91.4287
G1 X4.0283 Y91.4772
G1 X4.0259 Y91.5262
G1 X4.0283 Y91.5752
G1 X4.0355 Y91.6237
G1 X4.0474 Y91.6713
G1 X4.0640 Y91.7175
G1 X4.0849 Y91.7618
G1 X4.1102 Y91.8039
G1 X4.1394 Y91.8433
G1 X4.1723 Y91.8797
G1 X4.2087 Y91.9126
G1 X4.2481 Y91.9418
G1 X4.2902 Y91.9671
G1 X4.3345 Y91.9880
G1 X4.3807 Y92.0046
G1 X4.4283 Y92.0165
G1 X4.4768 Y92.0237
G1 X4.5258 Y92.0261
G1 X4.5748 Y92.0237
G1 X4.6233 Y92.0165
G1 X4.6709 Y92.0046
G1 X4.7171 Y91.9880
G1 X4.7614 Y91.9671
G1 X4.8035 Y91.9418
G1 X4.8429 Y91.9126
G1 X4.8793 Y91.8797
G1 X4.9122 Y91.8433
G1 X4.9414 Y91.8039
G1 X4.9666 Y91.7618
G1 X4.9876 Y91.7175
G1 X5.0041 Y91.6713
G1 X5.0161 Y91.6237
G1 X5.0233 Y91.5752
G1 X5.0257 Y91.5262
G0 Z2.0000
M5 / выключение шпинделя
G0 Z2.0000
G0 Z15.00 X0 Y0


